; generated by Slic3r 1.36.0-prusa3d-win64 on 2017-09-24 at 01:23:15

; 

; external perimeters extrusion width = 0.40mm
; perimeters extrusion width = 0.48mm
; infill extrusion width = 0.48mm
; solid infill extrusion width = 0.48mm
; top infill extrusion width = 0.48mm
; first layer extrusion width = 0.60mm

M104 S185 ; set temperature
G28 ; home all axes
G1 Z5 F5000 ; lift nozzle

; Filament gcode

M109 S185 ; set temperature and wait for it to be reached
G21 ; set units to millimeters
G90 ; use absolute coordinates
M83 ; use relative distances for extrusion
G1 Z0.240 F7800.000
G1 X55.285 Y48.981 F7800.000
G1 F1800
G1 X55.881 Y48.316 E0.03818
G1 X56.549 Y47.733 E0.03790
G1 X57.288 Y47.231 E0.03818
G1 X58.131 Y46.803 E0.04046
G1 X59.023 Y46.488 E0.04046
G1 X59.949 Y46.291 E0.04046
G1 X60.899 Y46.215 E0.04074
G1 X129.007 Y46.215 E2.91198
G1 X130.352 Y46.341 E0.05779
G1 X131.658 Y46.717 E0.05808
G1 X132.865 Y47.324 E0.05779
G1 X133.945 Y48.149 E0.05808
G1 X134.848 Y49.155 E0.05779
G1 X135.553 Y50.316 E0.05808
G1 X136.030 Y51.588 E0.05808
G1 X136.262 Y52.919 E0.05779
G1 X136.257 Y87.146 E1.46337
G1 X136.130 Y87.996 E0.03676
G1 X135.904 Y88.826 E0.03676
G1 X135.582 Y89.623 E0.03676
G1 X135.165 Y90.382 E0.03704
G1 X134.665 Y91.081 E0.03676
G1 X134.081 Y91.721 E0.03704
G1 X133.430 Y92.284 E0.03676
G1 X132.712 Y92.769 E0.03704
G1 X131.869 Y93.197 E0.04046
G1 X130.977 Y93.512 E0.04046
G1 X130.051 Y93.709 E0.04046
G1 X129.101 Y93.785 E0.04074
G1 X60.760 Y93.782 E2.92196
G1 X59.851 Y93.694 E0.03903
G1 X58.960 Y93.494 E0.03903
G1 X58.102 Y93.184 E0.03903
G1 X57.288 Y92.769 E0.03903
G1 X56.534 Y92.256 E0.03903
G1 X55.849 Y91.652 E0.03903
G1 X55.245 Y90.967 E0.03903
G1 X54.731 Y90.212 E0.03903
G1 X54.314 Y89.393 E0.03932
G1 X54.001 Y88.521 E0.03960
G1 X53.802 Y87.624 E0.03932
G1 X53.717 Y86.701 E0.03960
G1 X53.727 Y53.067 E1.43805
G1 X53.834 Y52.187 E0.03790
G1 X54.046 Y51.326 E0.03790
G1 X54.362 Y50.498 E0.03790
G1 X54.779 Y49.708 E0.03818
G1 X55.251 Y49.030 E0.03533
G1 X55.602 Y49.276 F7800.000
G1 F1800
G1 X56.195 Y48.608 E0.03819
G1 X56.830 Y48.057 E0.03594
G1 X57.533 Y47.584 E0.03621
G1 X58.324 Y47.187 E0.03787
G1 X59.160 Y46.894 E0.03787
G1 X60.027 Y46.712 E0.03787
G1 X60.910 Y46.644 E0.03787
G1 X129.006 Y46.643 E2.91150
G1 X130.280 Y46.764 E0.05469
G1 X131.509 Y47.118 E0.05469
G1 X132.650 Y47.695 E0.05469
G1 X133.665 Y48.474 E0.05469
G1 X134.517 Y49.428 E0.05469
G1 X135.177 Y50.523 E0.05469
G1 X135.623 Y51.723 E0.05469
G1 X135.838 Y52.983 E0.05469
G1 X135.832 Y87.082 E1.45788
G1 X135.501 Y88.680 E0.06981
G1 X134.801 Y90.156 E0.06981
G1 X133.772 Y91.424 E0.06981
G1 X132.467 Y92.416 E0.07009
G1 X131.676 Y92.813 E0.03787
G1 X130.840 Y93.106 E0.03787
G1 X129.973 Y93.288 E0.03787
G1 X129.090 Y93.356 E0.03787
G1 X60.787 Y93.354 E2.92035
G1 X59.924 Y93.272 E0.03704
G1 X59.079 Y93.082 E0.03704
G1 X58.270 Y92.790 E0.03676
G1 X57.499 Y92.396 E0.03704
G1 X56.788 Y91.911 E0.03676
G1 X56.140 Y91.337 E0.03704
G1 X55.569 Y90.686 E0.03704
G1 X55.084 Y89.967 E0.03704
G1 X54.694 Y89.194 E0.03704
G1 X54.407 Y88.383 E0.03676
G1 X54.222 Y87.537 E0.03704
G1 X54.145 Y86.674 E0.03704
G1 X54.154 Y53.106 E1.43524
G1 X54.254 Y52.271 E0.03594
G1 X54.457 Y51.449 E0.03621
G1 X54.757 Y50.664 E0.03594
G1 X55.151 Y49.921 E0.03594
G1 X55.568 Y49.325 E0.03110
G1 X55.521 Y50.137 F7800.000
G1 F1800
G1 X56.512 Y48.897 E0.06785
G1 X57.776 Y47.938 E0.06785
G1 X58.511 Y47.573 E0.03506
G1 X59.291 Y47.303 E0.03533
G1 X60.094 Y47.136 E0.03506
G1 X60.918 Y47.072 E0.03533
G1 X129.006 Y47.072 E2.91114
G1 X130.202 Y47.185 E0.05135
G1 X131.355 Y47.519 E0.05135
G1 X132.427 Y48.061 E0.05135
G1 X133.383 Y48.798 E0.05161
G1 X134.181 Y49.695 E0.05135
G1 X134.799 Y50.725 E0.05135
G1 X135.215 Y51.858 E0.05161
G1 X135.412 Y53.043 E0.05135
G1 X135.407 Y87.026 E1.45295
G1 X135.097 Y88.538 E0.06599
G1 X134.436 Y89.932 E0.06599
G1 X133.461 Y91.129 E0.06599
G1 X132.224 Y92.062 E0.06626
G1 X131.489 Y92.427 E0.03506
G1 X130.709 Y92.697 E0.03533
G1 X129.906 Y92.864 E0.03506
G1 X129.082 Y92.928 E0.03533
G1 X60.806 Y92.926 E2.91917
G1 X59.996 Y92.850 E0.03479
G1 X59.202 Y92.672 E0.03479
G1 X58.436 Y92.395 E0.03479
G1 X57.707 Y92.021 E0.03506
G1 X57.036 Y91.561 E0.03479
G1 X56.428 Y91.019 E0.03479
G1 X55.894 Y90.405 E0.03479
G1 X55.438 Y89.724 E0.03506
G1 X55.080 Y89.007 E0.03426
G1 X54.813 Y88.245 E0.03453
G1 X54.643 Y87.455 E0.03453
G1 X54.573 Y86.651 E0.03453
G1 X54.581 Y53.143 E1.43263
G1 X54.864 Y51.582 E0.06785
G1 X55.497 Y50.192 E0.06529
G1 X106.913 Y83.372 F7800.000
G1 F300
G1 X107.571 Y82.820 E0.03671
G1 X108.429 Y82.820 E0.03672
G1 X109.087 Y83.372 E0.03672
G1 X109.236 Y84.218 E0.03671
G1 X108.807 Y84.962 E0.03671
G1 X108.000 Y85.255 E0.03672
G1 X107.193 Y84.962 E0.03672
G1 X106.764 Y84.218 E0.03671
G1 X106.902 Y83.431 E0.03415
G1 X106.713 Y83.026 F7800.000
G1 X106.123 Y82.916 F7800.000
G1 F300
G1 X105.866 Y84.376 E0.06339
G1 X106.458 Y85.403 E0.05069
G1 X92.542 Y85.403 E0.59501
G1 X93.134 Y84.376 E0.05068
G1 X92.877 Y82.916 E0.06339
G1 X92.496 Y82.597 E0.02125
G1 X106.504 Y82.597 E0.59888
G1 X106.169 Y82.878 E0.01867
G1 X106.518 Y83.144 F7800.000
G1 F600
G1 X106.315 Y84.297 E0.05005
G1 X106.900 Y85.311 E0.05005
G1 X107.746 Y85.619 E0.03852
G1 X107.709 Y85.832 E0.00922
G1 X91.291 Y85.832 E0.70195
G1 X91.254 Y85.619 E0.00922
G1 X92.100 Y85.311 E0.03851
G1 X92.685 Y84.297 E0.05005
G1 X92.482 Y83.144 E0.05005
G1 X91.319 Y82.168 E0.06491
G1 X107.681 Y82.168 E0.69955
G1 X106.564 Y83.106 E0.06234
G1 X92.236 Y84.218 F7800.000
G1 F300
G1 X91.807 Y84.962 E0.03671
G1 X91.000 Y85.255 E0.03672
G1 X90.193 Y84.962 E0.03672
G1 X89.764 Y84.218 E0.03672
G1 X89.913 Y83.372 E0.03671
G1 X90.571 Y82.820 E0.03671
G1 X91.429 Y82.820 E0.03672
G1 X92.087 Y83.372 E0.03672
G1 X92.226 Y84.159 E0.03415
G1 X92.543 Y84.475 F7800.000
G1 X89.458 Y85.403 F7800.000
G1 F600
G1 X62.097 Y85.403 E1.16984
G1 X62.097 Y82.597 E0.11997
G1 X89.504 Y82.597 E1.17178
G1 X89.123 Y82.916 E0.02123
G1 X88.866 Y84.376 E0.06339
G1 X89.428 Y85.351 E0.04813
G1 X89.518 Y83.144 F7800.000
G1 F600
G1 X89.315 Y84.297 E0.05005
G1 X89.900 Y85.311 E0.05005
G1 X90.746 Y85.619 E0.03852
G1 X90.709 Y85.832 E0.00922
G1 X61.668 Y85.832 E1.24163
G1 X61.668 Y82.168 E0.15661
G1 X90.681 Y82.168 E1.24043
G1 X89.564 Y83.106 E0.06234
G1 X89.212 Y82.968 F7800.000
G1 X89.626 Y57.500 F7800.000
G1 X89.458 Y57.403 F7800.000
G1 F600
G1 X62.097 Y57.403 E1.16984
G1 X62.097 Y54.597 E0.11997
G1 X89.504 Y54.597 E1.17178
G1 X89.123 Y54.916 E0.02123
G1 X88.866 Y56.376 E0.06338
G1 X89.428 Y57.351 E0.04813
G1 X89.518 Y55.144 F7800.000
G1 F600
G1 X89.315 Y56.297 E0.05005
G1 X89.900 Y57.311 E0.05005
G1 X90.746 Y57.619 E0.03852
G1 X90.709 Y57.832 E0.00922
G1 X61.668 Y57.832 E1.24163
G1 X61.668 Y54.168 E0.15661
G1 X90.681 Y54.168 E1.24043
G1 X89.564 Y55.106 E0.06234
G1 X89.913 Y55.372 F7800.000
G1 F300
G1 X90.571 Y54.820 E0.03671
G1 X91.429 Y54.820 E0.03672
G1 X92.087 Y55.372 E0.03672
G1 X92.236 Y56.218 E0.03671
G1 X91.807 Y56.962 E0.03671
G1 X91.000 Y57.255 E0.03672
G1 X90.193 Y56.962 E0.03672
G1 X89.764 Y56.218 E0.03672
G1 X89.902 Y55.431 E0.03415
G1 X89.713 Y55.026 F7800.000
G1 X92.496 Y54.597 F7800.000
G1 F300
G1 X106.504 Y54.597 E0.59888
G1 X106.123 Y54.916 E0.02123
G1 X105.866 Y56.376 E0.06338
G1 X106.458 Y57.403 E0.05069
G1 X92.542 Y57.403 E0.59501
G1 X93.134 Y56.376 E0.05068
G1 X92.877 Y54.916 E0.06338
G1 X92.542 Y54.636 E0.01868
G1 X92.100 Y57.311 F7800.000
G1 F600
G1 X92.685 Y56.297 E0.05005
G1 X92.482 Y55.144 E0.05005
G1 X91.319 Y54.168 E0.06491
G1 X107.681 Y54.168 E0.69954
G1 X106.518 Y55.144 E0.06490
G1 X106.315 Y56.297 E0.05005
G1 X106.900 Y57.311 E0.05005
G1 X107.746 Y57.619 E0.03852
G1 X107.709 Y57.832 E0.00922
G1 X91.291 Y57.832 E0.70195
G1 X91.254 Y57.619 E0.00922
G1 X92.044 Y57.331 E0.03595
G1 X106.764 Y56.218 F7800.000
G1 F300
G1 X106.913 Y55.372 E0.03671
G1 X107.571 Y54.820 E0.03671
G1 X108.429 Y54.820 E0.03672
G1 X109.087 Y55.372 E0.03672
G1 X109.236 Y56.218 E0.03671
G1 X108.807 Y56.962 E0.03671
G1 X108.000 Y57.255 E0.03672
G1 X107.193 Y56.962 E0.03672
G1 X106.794 Y56.270 E0.03415
G1 X106.388 Y56.081 F7800.000
G1 X105.967 Y56.358 F7800.000
G1 X118.256 Y73.532 F7800.000
G1 F300
G1 X119.371 Y72.947 E0.05382
G1 X120.629 Y72.947 E0.05382
G1 X121.744 Y73.532 E0.05382
G1 X122.466 Y74.578 E0.05435
G1 X122.594 Y75.861 E0.05513
G1 X122.164 Y76.994 E0.05181
G1 X121.222 Y77.829 E0.05382
G1 X120.000 Y78.130 E0.05382
G1 X118.778 Y77.829 E0.05382
G1 X117.836 Y76.994 E0.05382
G1 X117.389 Y75.817 E0.05382
G1 X117.541 Y74.567 E0.05382
G1 X118.222 Y73.581 E0.05125
G1 X118.549 Y73.862 F7800.000
G1 F300
G1 X119.476 Y73.375 E0.04479
G1 X120.524 Y73.375 E0.04479
G1 X121.451 Y73.862 E0.04479
G1 X122.051 Y74.730 E0.04511
G1 X122.158 Y75.803 E0.04610
G1 X121.801 Y76.743 E0.04299
G1 X121.017 Y77.438 E0.04479
G1 X120.000 Y77.688 E0.04479
G1 X118.983 Y77.438 E0.04479
G1 X118.199 Y76.743 E0.04479
G1 X117.827 Y75.764 E0.04479
G1 X117.954 Y74.724 E0.04479
G1 X118.515 Y73.911 E0.04222
G1 X118.841 Y74.192 F7800.000
G1 F300
G1 X119.582 Y73.804 E0.03575
G1 X120.418 Y73.804 E0.03576
G1 X121.159 Y74.192 E0.03575
G1 X121.635 Y74.883 E0.03587
G1 X121.721 Y75.745 E0.03707
G1 X121.438 Y76.493 E0.03417
G1 X120.812 Y77.047 E0.03575
G1 X120.000 Y77.247 E0.03575
G1 X119.188 Y77.047 E0.03575
G1 X118.562 Y76.493 E0.03575
G1 X118.266 Y75.711 E0.03576
G1 X118.366 Y74.880 E0.03575
G1 X118.807 Y74.242 E0.03319
G1 X118.761 Y73.800 F7800.000
G1 X115.097 Y82.597 F7800.000
G1 F600
G1 X115.097 Y57.403 E1.07718
G1 X109.542 Y57.403 E0.23752
G1 X110.134 Y56.376 E0.05068
G1 X109.877 Y54.916 E0.06338
G1 X109.496 Y54.597 E0.02125
G1 X127.903 Y54.597 E0.78698
G1 X127.903 Y85.403 E1.31713
G1 X109.542 Y85.403 E0.78504
G1 X110.134 Y84.376 E0.05068
G1 X109.877 Y82.916 E0.06339
G1 X109.496 Y82.597 E0.02125
G1 X115.037 Y82.597 E0.23689
G1 X114.668 Y82.168 F7800.000
G1 F600
G1 X114.668 Y57.832 E1.04054
G1 X108.291 Y57.832 E0.27267
G1 X108.254 Y57.619 E0.00922
G1 X109.100 Y57.311 E0.03852
G1 X109.685 Y56.297 E0.05005
G1 X109.482 Y55.144 E0.05005
G1 X108.319 Y54.168 E0.06491
G1 X128.332 Y54.168 E0.85563
G1 X128.332 Y85.832 E1.35377
G1 X108.291 Y85.832 E0.85684
G1 X108.254 Y85.619 E0.00922
G1 X109.100 Y85.311 E0.03851
G1 X109.685 Y84.297 E0.05005
G1 X109.482 Y83.144 E0.05005
G1 X108.319 Y82.168 E0.06491
G1 X114.608 Y82.168 E0.26890
G1 X114.240 Y81.740 F7800.000
G1 F600
G1 X114.240 Y58.260 E1.00390
G1 X61.240 Y58.260 E2.26604
G1 X61.240 Y53.740 E0.19325
G1 X128.760 Y53.740 E2.88685
G1 X128.760 Y86.260 E1.39041
G1 X61.240 Y86.260 E2.88685
G1 X61.240 Y81.740 E0.19325
G1 X114.180 Y81.740 E2.26347
G1 X114.640 Y81.729 F7800.000
G1 X110.077 Y84.733 F7800.000
G1 F600
G1 X110.425 Y85.082 E0.02115
G1 X111.034 Y85.082 E0.02610
G1 X110.441 Y84.489 E0.03599
G1 X110.471 Y84.436 E0.00262
G1 X110.359 Y83.799 E0.02777
G1 X111.642 Y85.082 E0.07787
G1 X112.250 Y85.082 E0.02610
G1 X110.229 Y83.060 E0.12269
G1 X110.204 Y82.918 E0.00618
G1 X110.695 Y82.918 E0.02109
G1 X112.858 Y85.082 E0.13130
G1 X113.467 Y85.082 E0.02610
G1 X111.303 Y82.918 E0.13130
G1 X111.912 Y82.918 E0.02610
G1 X114.075 Y85.082 E0.13130
G1 X114.683 Y85.082 E0.02610
G1 X112.520 Y82.918 E0.13130
G1 X113.128 Y82.918 E0.02610
G1 X115.291 Y85.082 E0.13130
G1 X115.900 Y85.082 E0.02610
G1 X113.736 Y82.918 E0.13130
G1 X114.345 Y82.918 E0.02610
G1 X116.508 Y85.082 E0.13130
G1 X117.116 Y85.082 E0.02610
G1 X114.953 Y82.918 E0.13130
G1 X115.418 Y82.918 E0.01997
G1 X115.418 Y82.776 E0.00613
G1 X117.724 Y85.082 E0.13996
G1 X118.333 Y85.082 E0.02610
G1 X115.418 Y82.167 E0.17688
G1 X115.418 Y81.559 E0.02610
G1 X118.941 Y85.082 E0.21380
G1 X119.549 Y85.082 E0.02610
G1 X115.418 Y80.951 E0.25071
G1 X115.418 Y80.343 E0.02610
G1 X120.157 Y85.082 E0.28763
G1 X120.766 Y85.082 E0.02610
G1 X115.418 Y79.734 E0.32454
G1 X115.418 Y79.126 E0.02610
G1 X121.374 Y85.082 E0.36146
G1 X121.982 Y85.082 E0.02610
G1 X115.418 Y78.518 E0.39838
G1 X115.418 Y77.909 E0.02610
G1 X122.591 Y85.082 E0.43529
G1 X123.199 Y85.082 E0.02610
G1 X115.418 Y77.301 E0.47221
G1 X115.418 Y76.693 E0.02610
G1 X123.807 Y85.082 E0.50912
G1 X124.415 Y85.082 E0.02610
G1 X115.418 Y76.085 E0.54604
G1 X115.418 Y75.476 E0.02610
G1 X125.216 Y85.274 E0.59466
G1 X109.203 Y85.561 F7800.000
G1 F900
G1 X109.020 Y85.593 E0.00074
G1 X108.000 Y85.552 F7800.000
G1 F900
G1 X108.000 Y85.716 E0.00081
G1 F900
G1 X108.000 Y86.046 E0.00445
G1 X106.980 Y85.593 F7800.000
G1 F900
G1 X106.797 Y85.561 E0.00074
G1 X105.896 Y83.466 F7800.000
G1 F600
G1 X105.348 Y82.918 E0.03347
G1 X104.736 Y82.918 E0.02644
G1 X105.637 Y83.820 E0.05508
G1 X105.546 Y84.341 E0.02282
G1 X104.123 Y82.918 E0.08687
G1 X103.511 Y82.918 E0.02644
G1 X105.674 Y85.082 E0.13214
G1 X105.062 Y85.082 E0.02644
G1 X102.899 Y82.918 E0.13214
G1 X102.287 Y82.918 E0.02644
G1 X104.450 Y85.082 E0.13214
G1 X103.838 Y85.082 E0.02644
G1 X101.675 Y82.918 E0.13214
G1 X101.063 Y82.918 E0.02644
G1 X103.226 Y85.082 E0.13214
G1 X102.614 Y85.082 E0.02644
G1 X100.450 Y82.918 E0.13214
G1 X99.838 Y82.918 E0.02644
G1 X102.002 Y85.082 E0.13214
G1 X101.389 Y85.082 E0.02644
G1 X99.226 Y82.918 E0.13214
G1 X98.614 Y82.918 E0.02644
G1 X100.777 Y85.082 E0.13214
G1 X100.165 Y85.082 E0.02644
G1 X98.002 Y82.918 E0.13214
G1 X97.390 Y82.918 E0.02644
G1 X99.553 Y85.082 E0.13214
G1 X98.941 Y85.082 E0.02644
G1 X96.777 Y82.918 E0.13214
G1 X96.165 Y82.918 E0.02644
G1 X98.329 Y85.082 E0.13214
G1 X97.716 Y85.082 E0.02644
G1 X95.553 Y82.918 E0.13214
G1 X94.941 Y82.918 E0.02644
G1 X97.104 Y85.082 E0.13214
G1 X96.492 Y85.082 E0.02644
G1 X94.329 Y82.918 E0.13214
G1 X93.717 Y82.918 E0.02644
G1 X95.880 Y85.082 E0.13214
G1 X95.268 Y85.082 E0.02644
G1 X93.225 Y83.039 E0.12477
G1 X93.356 Y83.782 E0.03259
G1 X94.656 Y85.082 E0.07938
G1 X94.043 Y85.082 E0.02644
G1 X93.444 Y84.483 E0.03660
G1 X93.220 Y84.871 E0.01936
G1 X93.624 Y85.274 E0.02467
G1 X92.203 Y85.561 F7800.000
G1 F900
G1 X92.020 Y85.593 E0.00074
G1 X91.000 Y85.552 F7800.000
G1 F900
G1 X91.000 Y85.716 E0.00081
G1 F900
G1 X91.000 Y86.046 E0.00445
G1 X89.980 Y85.593 F7800.000
G1 F900
G1 X89.797 Y85.561 E0.00074
G1 X88.895 Y83.468 F7800.000
G1 F600
G1 X88.346 Y82.918 E0.03362
G1 X87.733 Y82.918 E0.02654
G1 X88.637 Y83.823 E0.05534
G1 X88.545 Y84.344 E0.02291
G1 X87.119 Y82.918 E0.08724
G1 X86.506 Y82.918 E0.02654
G1 X88.669 Y85.082 E0.13239
G1 X88.056 Y85.082 E0.02654
G1 X85.893 Y82.918 E0.13239
G1 X85.279 Y82.918 E0.02654
G1 X87.443 Y85.082 E0.13239
G1 X86.829 Y85.082 E0.02654
G1 X84.666 Y82.918 E0.13239
G1 X84.053 Y82.918 E0.02654
G1 X86.216 Y85.082 E0.13239
G1 X85.603 Y85.082 E0.02654
G1 X83.439 Y82.918 E0.13239
G1 X82.826 Y82.918 E0.02654
G1 X84.989 Y85.082 E0.13239
G1 X84.376 Y85.082 E0.02654
G1 X82.213 Y82.918 E0.13239
G1 X81.599 Y82.918 E0.02654
G1 X83.763 Y85.082 E0.13239
G1 X83.149 Y85.082 E0.02654
G1 X80.986 Y82.918 E0.13239
G1 X80.373 Y82.918 E0.02654
G1 X82.536 Y85.082 E0.13239
G1 X81.923 Y85.082 E0.02654
G1 X79.759 Y82.918 E0.13239
G1 X79.146 Y82.918 E0.02654
G1 X81.309 Y85.082 E0.13239
G1 X80.696 Y85.082 E0.02654
G1 X78.533 Y82.918 E0.13239
G1 X77.919 Y82.918 E0.02654
G1 X80.083 Y85.082 E0.13239
G1 X79.469 Y85.082 E0.02654
G1 X77.306 Y82.918 E0.13239
G1 X76.693 Y82.918 E0.02654
G1 X78.856 Y85.082 E0.13239
G1 X78.243 Y85.082 E0.02654
G1 X76.080 Y82.918 E0.13239
G1 X75.466 Y82.918 E0.02654
G1 X77.630 Y85.082 E0.13239
G1 X77.016 Y85.082 E0.02654
G1 X74.853 Y82.918 E0.13239
G1 X74.240 Y82.918 E0.02654
G1 X76.403 Y85.082 E0.13239
G1 X75.790 Y85.082 E0.02654
G1 X73.626 Y82.918 E0.13239
G1 X73.013 Y82.918 E0.02654
G1 X75.176 Y85.082 E0.13239
G1 X74.563 Y85.082 E0.02654
G1 X72.400 Y82.918 E0.13239
G1 X71.786 Y82.918 E0.02654
G1 X73.950 Y85.082 E0.13239
G1 X73.336 Y85.082 E0.02654
G1 X71.173 Y82.918 E0.13239
G1 X70.560 Y82.918 E0.02654
G1 X72.723 Y85.082 E0.13239
G1 X72.110 Y85.082 E0.02654
G1 X69.946 Y82.918 E0.13239
G1 X69.333 Y82.918 E0.02654
G1 X71.496 Y85.082 E0.13239
G1 X70.883 Y85.082 E0.02654
G1 X68.720 Y82.918 E0.13239
G1 X68.106 Y82.918 E0.02654
G1 X70.270 Y85.082 E0.13239
G1 X69.656 Y85.082 E0.02654
G1 X67.493 Y82.918 E0.13239
G1 X66.880 Y82.918 E0.02654
G1 X69.043 Y85.082 E0.13239
G1 X68.430 Y85.082 E0.02654
G1 X66.266 Y82.918 E0.13239
