; generated by Slic3r 1.36.0-prusa3d-win64 on 2017-09-24 at 15:10:43

; 

; external perimeters extrusion width = 0.40mm
; perimeters extrusion width = 0.48mm
; infill extrusion width = 0.48mm
; solid infill extrusion width = 0.48mm
; top infill extrusion width = 0.48mm
; first layer extrusion width = 0.60mm

M104 S185 ; set temperature
G28 ; home all axes
G1 Z5 F5000 ; lift nozzle

; Filament gcode

M109 S185 ; set temperature and wait for it to be reached
G21 ; set units to millimeters
G90 ; use absolute coordinates
M83 ; use relative distances for extrusion
G1 Z0.240 F7800.000
G1 X71.375 Y34.478 F7800.000
;G1 F1800 ; replaced by represure
G1 X71.375 Y34.478 E0.5 F1800.0; long travel extraShot
G1 X71.826 Y33.077 E0.06290
G1 X72.265 Y32.231 E0.04074
G1 X72.810 Y31.450 E0.04074
G1 X73.453 Y30.746 E0.04074
G1 X74.182 Y30.132 E0.04074
G1 X74.984 Y29.619 E0.04074
G1 X75.847 Y29.215 E0.04074
G1 X76.756 Y28.926 E0.04074
G1 X77.700 Y28.759 E0.04103
G1 X111.507 Y28.715 E1.44541
G1 X112.846 Y28.840 E0.05751
G1 X114.145 Y29.212 E0.05779
G1 X115.354 Y29.817 E0.05779
G1 X116.430 Y30.636 E0.05779
G1 X117.332 Y31.633 E0.05751
G1 X118.038 Y32.786 E0.05779
G1 X118.519 Y34.049 E0.05779
G1 X118.759 Y35.379 E0.05779
G1 X118.785 Y104.060 E2.93647
G1 X118.625 Y105.522 E0.06290
G1 X118.174 Y106.923 E0.06290
G1 X117.725 Y107.786 E0.04159
G1 X117.165 Y108.581 E0.04159
G1 X116.504 Y109.295 E0.04159
G1 X115.754 Y109.915 E0.04159
G1 X114.928 Y110.429 E0.04159
G1 X114.041 Y110.828 E0.04159
G1 X113.102 Y111.107 E0.04188
G1 X112.140 Y111.257 E0.04159
G1 X78.387 Y111.285 E1.44316
G1 X76.952 Y111.119 E0.06177
G1 X75.577 Y110.674 E0.06177
G1 X74.686 Y110.207 E0.04302
G1 X73.862 Y109.618 E0.04330
G1 X73.132 Y108.926 E0.04302
G1 X72.501 Y108.134 E0.04330
G1 X71.988 Y107.268 E0.04302
G1 X71.598 Y106.333 E0.04330
G1 X71.343 Y105.360 E0.04302
G1 X71.223 Y104.354 E0.04330
G1 X71.215 Y35.940 E2.92509
;G1 X71.369 Y34.537 E0.06034 ; replaced by coast
G1 X71.369 Y34.537 Z0.24 E-0.0705713291642; coast(1.41142658328) & retract
G1 X71.369 Y34.537 Z0.24 E-0.3; & endwipe
G1 X71.793 Y34.584 F7800.000
;G1 F1800 ; replaced by represure
G1 X71.793 Y34.584 E0.370571329164 F1800.0; tipRepresure
G1 X72.225 Y33.235 E0.06059
G1 X72.641 Y32.438 E0.03842
G1 X73.157 Y31.702 E0.03842
G1 X73.765 Y31.040 E0.03842
G1 X74.459 Y30.460 E0.03870
G1 X75.218 Y29.979 E0.03842
G1 X76.040 Y29.599 E0.03870
G1 X76.898 Y29.333 E0.03842
G1 X77.790 Y29.180 E0.03870
G1 X111.506 Y29.143 E1.44156
G1 X112.773 Y29.262 E0.05441
G1 X113.997 Y29.614 E0.05441
G1 X115.139 Y30.188 E0.05469
G1 X116.151 Y30.961 E0.05441
G1 X117.002 Y31.907 E0.05441
G1 X117.663 Y32.994 E0.05441
G1 X118.114 Y34.191 E0.05469
G1 X118.334 Y35.445 E0.05441
G1 X118.357 Y104.052 E2.93333
G1 X118.204 Y105.438 E0.05964
G1 X117.775 Y106.765 E0.05964
G1 X117.346 Y107.584 E0.03952
G1 X116.814 Y108.333 E0.03925
G1 X116.188 Y109.004 E0.03925
G1 X115.478 Y109.585 E0.03925
G1 X114.696 Y110.067 E0.03925
G1 X113.857 Y110.439 E0.03925
G1 X112.976 Y110.696 E0.03925
G1 X112.068 Y110.833 E0.03925
G1 X78.396 Y110.856 E1.43965
G1 X77.036 Y110.699 E0.05854
G1 X75.735 Y110.275 E0.05854
G1 X74.894 Y109.832 E0.04063
G1 X74.122 Y109.278 E0.04063
G1 X73.435 Y108.622 E0.04063
G1 X72.841 Y107.872 E0.04090
G1 X72.360 Y107.052 E0.04063
G1 X71.997 Y106.174 E0.04063
G1 X71.759 Y105.254 E0.04063
G1 X71.650 Y104.310 E0.04063
G1 X71.643 Y35.942 E2.92311
;G1 X71.787 Y34.644 E0.05584 ; replaced by coast
G1 X71.787 Y34.644 Z0.24 E-0.0652981623019; coast(1.30596324604) & retract
G1 X71.787 Y34.644 Z0.24 E-0.3; & endwipe
G1 X72.211 Y34.691 F7800.000
;G1 F1800 ; replaced by represure
G1 X72.211 Y34.691 E0.365298162302 F1800.0; tipRepresure
G1 X72.622 Y33.396 E0.05808
G1 X73.015 Y32.648 E0.03613
G1 X73.502 Y31.957 E0.03613
G1 X74.080 Y31.332 E0.03640
G1 X74.730 Y30.793 E0.03613
G1 X75.446 Y30.343 E0.03613
G1 X76.220 Y29.989 E0.03640
G1 X77.028 Y29.742 E0.03613
G1 X77.868 Y29.603 E0.03640
G1 X111.506 Y29.572 E1.43822
G1 X112.702 Y29.685 E0.05135
G1 X113.850 Y30.016 E0.05108
G1 X114.922 Y30.558 E0.05135
G1 X115.874 Y31.289 E0.05135
G1 X116.670 Y32.180 E0.05108
G1 X117.291 Y33.208 E0.05135
G1 X117.707 Y34.328 E0.05108
G1 X117.910 Y35.511 E0.05135
G1 X117.928 Y104.050 E2.93040
G1 X117.784 Y105.355 E0.05614
G1 X117.378 Y106.604 E0.05614
G1 X116.975 Y107.368 E0.03693
G1 X116.474 Y108.072 E0.03693
G1 X115.884 Y108.702 E0.03693
G1 X115.214 Y109.247 E0.03693
G1 X114.482 Y109.695 E0.03666
G1 X113.692 Y110.043 E0.03693
G1 X112.862 Y110.283 E0.03693
G1 X112.007 Y110.408 E0.03693
G1 X78.406 Y110.428 E1.43664
G1 X77.126 Y110.280 E0.05508
G1 X75.896 Y109.878 E0.05534
G1 X75.110 Y109.462 E0.03800
G1 X74.385 Y108.938 E0.03827
G1 X73.743 Y108.324 E0.03800
G1 X73.188 Y107.621 E0.03827
G1 X72.740 Y106.854 E0.03800
G1 X72.399 Y106.026 E0.03827
G1 X72.178 Y105.165 E0.03800
G1 X72.077 Y104.276 E0.03827
G1 X72.072 Y35.950 E2.92131
;G1 X72.204 Y34.750 E0.05160 ; replaced by coast
G1 X72.204 Y34.75 Z0.24 E-0.0603619085185; coast(1.20723817037) & retract
G1 X72.204 Y34.75 Z0.24 E-0.3; & endwipe
G1 X108.038 Y73.193 F7800.000
;G1 F300 ; replaced by represure
G1 X108.038 Y73.193 E0.360361908519 F300.0; tipRepresure
G1 X108.038 Y73.193 E0.5 F300.0; long travel extraShot
G1 X108.782 Y72.764 E0.03671
G1 X109.628 Y72.913 E0.03672
G1 X110.180 Y73.571 E0.03671
G1 X110.180 Y74.429 E0.03672
G1 X109.628 Y75.087 E0.03672
G1 X108.782 Y75.236 E0.03671
G1 X108.038 Y74.807 E0.03672
G1 X107.745 Y74.000 E0.03672
;G1 X108.018 Y73.249 E0.03415 ; replaced by coast
G1 X108.018 Y73.249 Z0.24 E-0.0399540360915; coast(0.79908072183) & retract
G1 X108.018 Y73.249 Z0.24 E-0.3; & endwipe
G1 X107.902 Y72.817 F7800.000
G1 X107.597 Y75.542 F7800.000
;G1 F600 ; replaced by represure
G1 X107.597 Y75.542 E0.339954036091 F600.0; tipRepresure
G1 X108.624 Y76.134 E0.05069
G1 X110.084 Y75.877 E0.06339
G1 X110.403 Y75.496 E0.02124
G1 X110.403 Y102.903 E1.17178
G1 X107.597 Y102.903 E0.11997
;G1 X107.597 Y75.602 E1.16728 ; replaced by coast
G1 X107.597 Y80.602 E1.16728 ; extrude all
G1 X107.597 Y75.602 Z0.24 E-0.25; coast(5) & retract
G1 X107.597 Y75.602 Z0.24 E-0.3; & endwipe
G1 X107.689 Y75.100 F7800.000
;G1 F600 ; replaced by represure
G1 X107.689 Y75.1 E0.05 F0.05; represure(0.0,600.0)
G1 X107.689 Y75.1 E0.5 F600.0; tipRepresure
G1 X108.703 Y75.685 E0.05005
G1 X109.856 Y75.482 E0.05005
G1 X110.832 Y74.319 E0.06491
G1 X110.832 Y103.332 E1.24043
G1 X107.168 Y103.332 E0.15661
G1 X107.168 Y74.291 E1.24164
G1 X107.381 Y74.254 E0.00922
;G1 X107.669 Y75.044 E0.03595 ; replaced by coast
G1 X107.669 Y75.044 Z0.24 E-0.0420429542254; coast(0.840859084508) & retract
G1 X107.669 Y75.044 Z0.24 E-0.3; & endwipe
G1 X107.597 Y72.458 F7800.000
;G1 F300 ; replaced by represure
G1 X107.597 Y72.458 E0.342042954225 F300.0; tipRepresure
G1 X107.597 Y58.542 E0.59501
G1 X108.624 Y59.134 E0.05069
G1 X110.084 Y58.877 E0.06339
G1 X110.403 Y58.496 E0.02124
G1 X110.403 Y72.504 E0.59888
G1 X110.084 Y72.123 E0.02124
G1 X108.624 Y71.866 E0.06339
;G1 X107.649 Y72.428 E0.04812 ; replaced by coast
G1 X107.649 Y72.428 Z0.24 E-0.0562687524297; coast(1.12537504859) & retract
G1 X107.649 Y72.428 Z0.24 E-0.3; & endwipe
G1 X109.856 Y72.518 F7800.000
;G1 F600 ; replaced by represure
G1 X109.856 Y72.518 E0.35626875243 F600.0; tipRepresure
G1 X108.703 Y72.315 E0.05006
G1 X107.689 Y72.900 E0.05005
G1 X107.381 Y73.746 E0.03851
G1 X107.168 Y73.709 E0.00922
G1 X107.168 Y57.291 E0.70195
G1 X107.381 Y57.254 E0.00922
G1 X107.689 Y58.100 E0.03852
G1 X108.703 Y58.685 E0.05005
G1 X109.856 Y58.482 E0.05005
G1 X110.832 Y57.319 E0.06491
G1 X110.832 Y73.681 E0.69955
;G1 X109.894 Y72.564 E0.06234 ; replaced by coast
G1 X109.894 Y72.564 Z0.24 E-0.0729303263396; coast(1.45860652679) & retract
G1 X109.894 Y72.564 Z0.24 E-0.3; & endwipe
G1 X108.782 Y58.236 F7800.000
;G1 F300 ; replaced by represure
G1 X108.782 Y58.236 E0.37293032634 F300.0; tipRepresure
G1 X108.038 Y57.807 E0.03672
G1 X107.745 Y57.000 E0.03672
G1 X108.038 Y56.193 E0.03671
G1 X108.782 Y55.764 E0.03671
G1 X109.628 Y55.913 E0.03672
G1 X110.180 Y56.571 E0.03671
G1 X110.180 Y57.429 E0.03672
G1 X109.628 Y58.087 E0.03672
;G1 X108.841 Y58.226 E0.03415 ; replaced by coast
G1 X108.841 Y58.226 Z0.24 E-0.03995904153; coast(0.799180830601) & retract
G1 X108.841 Y58.226 Z0.24 E-0.3; & endwipe
G1 X108.525 Y58.543 F7800.000
G1 X108.642 Y59.033 F7800.000
G1 X91.468 Y46.744 F7800.000
;G1 F300 ; replaced by represure
G1 X91.468 Y46.744 E0.33995904153 F300.0; tipRepresure
G1 X91.468 Y46.744 E0.5 F300.0; long travel extraShot
G1 X90.433 Y47.459 E0.05381
G1 X89.183 Y47.611 E0.05382
G1 X88.006 Y47.164 E0.05382
G1 X87.171 Y46.222 E0.05382
G1 X86.870 Y45.000 E0.05382
G1 X87.171 Y43.778 E0.05382
G1 X88.006 Y42.836 E0.05382
G1 X89.139 Y42.406 E0.05182
G1 X90.422 Y42.534 E0.05513
G1 X91.468 Y43.256 E0.05435
G1 X92.053 Y44.371 E0.05382
G1 X92.053 Y45.629 E0.05382
;G1 X91.496 Y46.691 E0.05125 ; replaced by coast
G1 X91.496 Y46.691 Z0.24 E-0.0599602576712; coast(1.19920515342) & retract
G1 X91.496 Y46.691 Z0.24 E-0.3; & endwipe
G1 X91.138 Y46.451 F7800.000
;G1 F300 ; replaced by represure
G1 X91.138 Y46.451 E0.359960257671 F300.0; tipRepresure
G1 X90.276 Y47.046 E0.04478
G1 X89.236 Y47.173 E0.04479
G1 X88.257 Y46.801 E0.04479
G1 X87.562 Y46.017 E0.04479
G1 X87.311 Y45.000 E0.04479
G1 X87.562 Y43.983 E0.04479
G1 X88.257 Y43.199 E0.04479
G1 X89.197 Y42.842 E0.04299
G1 X90.270 Y42.949 E0.04610
G1 X91.138 Y43.549 E0.04511
G1 X91.625 Y44.476 E0.04479
G1 X91.625 Y45.524 E0.04479
;G1 X91.166 Y46.398 E0.04222 ; replaced by coast
G1 X91.166 Y46.398 Z0.24 E-0.0493598267825; coast(0.98719653565) & retract
G1 X91.166 Y46.398 Z0.24 E-0.3; & endwipe
G1 X90.808 Y46.159 F7800.000
;G1 F300 ; replaced by represure
G1 X90.808 Y46.159 E0.349359826783 F300.0; tipRepresure
G1 X90.120 Y46.634 E0.03575
G1 X89.289 Y46.734 E0.03575
G1 X88.507 Y46.438 E0.03576
G1 X87.953 Y45.812 E0.03575
G1 X87.753 Y45.000 E0.03576
G1 X87.953 Y44.188 E0.03576
G1 X88.507 Y43.562 E0.03575
G1 X89.255 Y43.279 E0.03417
G1 X90.117 Y43.365 E0.03707
G1 X90.808 Y43.841 E0.03587
G1 X91.196 Y44.582 E0.03575
G1 X91.196 Y45.418 E0.03576
;G1 X90.836 Y46.105 E0.03319 ; replaced by coast
G1 X90.836 Y46.105 Z0.24 E-0.0387804396571; coast(0.775608793143) & retract
G1 X90.836 Y46.105 Z0.24 E-0.3; & endwipe
G1 X90.934 Y46.538 F7800.000
G1 X107.597 Y49.903 F7800.000
;G1 F600 ; replaced by represure
G1 X107.597 Y49.903 E0.338780439657 F600.0; tipRepresure
G1 X82.403 Y49.903 E1.07718
G1 X82.403 Y55.504 E0.23945
G1 X82.084 Y55.123 E0.02124
G1 X80.624 Y54.866 E0.06339
G1 X79.597 Y55.458 E0.05068
G1 X79.597 Y37.097 E0.78505
G1 X110.403 Y37.097 E1.31713
G1 X110.403 Y55.504 E0.78698
G1 X110.084 Y55.123 E0.02124
G1 X108.624 Y54.866 E0.06339
G1 X107.597 Y55.458 E0.05068
;G1 X107.597 Y49.963 E0.23495 ; replaced by coast
G1 X107.597 Y54.963 E0.23495 ; extrude all
G1 X107.597 Y49.963 Z0.24 E-0.25; coast(5) & retract
G1 X107.597 Y49.963 Z0.24 E-0.3; & endwipe
G1 X107.168 Y50.332 F7800.000
;G1 F600 ; replaced by represure
G1 X107.168 Y50.332 E0.05 F0.05; represure(0.0,600.0)
G1 X107.168 Y50.332 E0.5 F600.0; tipRepresure
G1 X82.832 Y50.332 E1.04054
G1 X82.832 Y56.681 E0.27147
G1 X81.856 Y55.518 E0.06490
G1 X80.703 Y55.315 E0.05006
G1 X79.689 Y55.900 E0.05005
G1 X79.381 Y56.746 E0.03851
G1 X79.168 Y56.709 E0.00922
G1 X79.168 Y36.668 E0.85683
G1 X110.832 Y36.668 E1.35377
G1 X110.832 Y56.681 E0.85563
G1 X109.856 Y55.518 E0.06490
G1 X108.703 Y55.315 E0.05006
G1 X107.689 Y55.900 E0.05005
G1 X107.381 Y56.746 E0.03851
G1 X107.168 Y56.709 E0.00922
;G1 X107.168 Y50.392 E0.27010 ; replaced by coast
G1 X107.168 Y55.392 E0.2701 ; extrude all
G1 X107.168 Y50.392 Z0.24 E-0.25; coast(5) & retract
G1 X107.168 Y50.392 Z0.24 E-0.3; & endwipe
G1 X107.500 Y50.000 F7800.000
G1 X107.500 Y47.000 F7800.000
G1 X104.000 Y43.500 F7800.000
G1 X98.395 Y43.500 F7800.000
G1 X96.351 Y45.605 F7800.000
G1 X94.613 Y47.000 F7800.000
G1 X92.429 Y48.178 F7800.000
G1 X90.557 Y48.678 F7800.000
G1 X88.739 Y48.714 F7800.000
G1 X86.750 Y48.246 F7800.000
G1 X85.539 Y47.701 F7800.000
G1 X83.323 Y46.177 F7800.000
G1 X82.500 Y47.000 F7800.000
G1 X81.000 Y50.000 F7800.000
G1 X81.000 Y53.507 F7800.000
G1 X82.235 Y55.042 F7800.000
G1 X82.500 Y55.770 F7800.000
G1 X82.180 Y56.571 F7800.000
;G1 F300 ; replaced by represure
G1 X82.18 Y56.571 E0.05 F0.05; represure(5.0,300.0)
G1 X82.18 Y56.571 E0.5 F300.0; tipRepresure
G1 X82.18 Y56.571 E0.5 F300.0; long travel extraShot
G1 X82.180 Y57.429 E0.03672
G1 X81.628 Y58.087 E0.03672
G1 X80.782 Y58.236 E0.03672
G1 X80.038 Y57.807 E0.03672
G1 X79.745 Y57.000 E0.03672
G1 X80.038 Y56.193 E0.03671
G1 X80.782 Y55.764 E0.03671
G1 X81.628 Y55.913 E0.03672
;G1 X82.141 Y56.525 E0.03415 ; replaced by coast
G1 X82.141 Y56.525 Z0.24 E-0.0399284672884; coast(0.798569345768) & retract
G1 X82.141 Y56.525 Z0.24 E-0.3; & endwipe
G1 X82.574 Y56.640 F7800.000
G1 X82.403 Y58.496 F7800.000
;G1 F300 ; replaced by represure
G1 X82.403 Y58.496 E0.339928467288 F300.0; tipRepresure
G1 X82.403 Y72.504 E0.59888
G1 X82.084 Y72.123 E0.02124
G1 X80.624 Y71.866 E0.06339
G1 X79.597 Y72.458 E0.05068
G1 X79.597 Y58.542 E0.59501
G1 X80.624 Y59.134 E0.05069
G1 X82.084 Y58.877 E0.06339
;G1 X82.364 Y58.542 E0.01867 ; replaced by coast
G1 X82.364 Y58.542 Z0.24 E-0.0218303114957; coast(0.436606229914) & retract
G1 X82.364 Y58.542 Z0.24 E-0.3; & endwipe
G1 X79.689 Y58.100 F7800.000
;G1 F600 ; replaced by represure
G1 X79.689 Y58.1 E0.321830311496 F600.0; tipRepresure
G1 X80.703 Y58.685 E0.05005
G1 X81.856 Y58.482 E0.05005
G1 X82.832 Y57.319 E0.06491
G1 X82.832 Y73.681 E0.69955
G1 X81.856 Y72.518 E0.06490
G1 X80.703 Y72.315 E0.05006
G1 X79.689 Y72.900 E0.05005
G1 X79.381 Y73.746 E0.03851
G1 X79.168 Y73.709 E0.00922
G1 X79.168 Y57.291 E0.70195
G1 X79.381 Y57.254 E0.00922
;G1 X79.668 Y58.044 E0.03595 ; replaced by coast
G1 X79.668 Y58.044 Z0.24 E-0.042025855137; coast(0.840517102741) & retract
G1 X79.668 Y58.044 Z0.24 E-0.3; & endwipe
G1 X80.782 Y72.764 F7800.000
;G1 F300 ; replaced by represure
G1 X80.782 Y72.764 E0.342025855137 F300.0; tipRepresure
G1 X81.628 Y72.913 E0.03672
G1 X82.180 Y73.571 E0.03671
G1 X82.180 Y74.429 E0.03672
G1 X81.628 Y75.087 E0.03672
G1 X80.782 Y75.236 E0.03672
G1 X80.038 Y74.807 E0.03672
G1 X79.745 Y74.000 E0.03672
G1 X80.038 Y73.193 E0.03671
;G1 X80.730 Y72.794 E0.03415 ; replaced by coast
G1 X80.73 Y72.794 Z0.24 E-0.0399394854749; coast(0.798789709498) & retract
G1 X80.73 Y72.794 Z0.24 E-0.3; & endwipe
G1 X80.919 Y72.388 F7800.000
G1 X79.597 Y75.542 F7800.000
;G1 F600 ; replaced by represure
G1 X79.597 Y75.542 E0.339939485475 F600.0; tipRepresure
G1 X80.624 Y76.134 E0.05069
G1 X82.084 Y75.877 E0.06339
G1 X82.403 Y75.496 E0.02124
G1 X82.403 Y102.903 E1.17178
G1 X79.597 Y102.903 E0.11997
;G1 X79.597 Y75.602 E1.16728 ; replaced by coast
G1 X79.597 Y80.602 E1.16728 ; extrude all
G1 X79.597 Y75.602 Z0.24 E-0.25; coast(5) & retract
G1 X79.597 Y75.602 Z0.24 E-0.3; & endwipe
G1 X79.689 Y75.100 F7800.000
;G1 F600 ; replaced by represure
G1 X79.689 Y75.1 E0.05 F0.05; represure(0.0,600.0)
G1 X79.689 Y75.1 E0.5 F600.0; tipRepresure
G1 X80.703 Y75.685 E0.05005
G1 X81.856 Y75.482 E0.05005
G1 X82.832 Y74.319 E0.06491
G1 X82.832 Y103.332 E1.24044
G1 X79.168 Y103.332 E0.15661
G1 X79.168 Y74.291 E1.24164
G1 X79.381 Y74.254 E0.00922
;G1 X79.668 Y75.044 E0.03595 ; replaced by coast
G1 X79.668 Y75.044 Z0.24 E-0.042025855137; coast(0.840517102741) & retract
G1 X79.668 Y75.044 Z0.24 E-0.3; & endwipe
G1 X79.500 Y75.374 F7800.000
G1 X107.500 Y50.000 F7800.000
G1 X106.740 Y50.760 F7800.000
;G1 F600 ; replaced by represure
G1 X106.74 Y50.76 E0.342025855137 F600.0; tipRepresure
G1 X106.74 Y50.76 E0.5 F600.0; long travel extraShot
G1 X83.260 Y50.760 E1.00390
G1 X83.260 Y103.760 E2.26604
G1 X78.740 Y103.760 E0.19325
G1 X78.740 Y36.240 E2.88685
G1 X111.260 Y36.240 E1.39041
G1 X111.260 Y103.760 E2.88685
G1 X106.740 Y103.760 E0.19325
;G1 X106.740 Y50.820 E2.26347 ; replaced by coast
G1 X106.74 Y55.82 E2.26347 ; extrude all
G1 X106.74 Y50.82 Z0.24 E-0.25; coast(5) & retract
G1 X106.74 Y50.82 Z0.24 E-0.3; & endwipe
G1 X106.729 Y50.360 F7800.000
