; generated by Slic3r 1.33.3-prusa3d-win64 on 2017-05-20 at 01:32:20

; external perimeters extrusion width = 0.40mm
; perimeters extrusion width = 0.48mm
; infill extrusion width = 0.48mm
; solid infill extrusion width = 0.48mm
; top infill extrusion width = 0.48mm

M104 S185 ; set temperature
G28 ; home all axes
G1 Z5 F5000 ; lift nozzle

M109 S185 ; set temperature and wait for it to be reached
G21 ; set units to millimeters
G90 ; use absolute coordinates
M83 ; use relative distances for extrusion
G1 Z0.240 F7800.000
G1 X72.164 Y40.404 F7800.000
G1 F1800
G1 X72.411 Y40.000 E0.02024
G1 X72.683 Y39.613 E0.02024
G1 X72.981 Y39.245 E0.02024
G1 X73.301 Y38.896 E0.02024
G1 X73.643 Y38.569 E0.02024
G1 X74.006 Y38.265 E0.02024
G1 X74.388 Y37.986 E0.02024
G1 X74.788 Y37.731 E0.02024
G1 X75.202 Y37.503 E0.02024
G1 X75.631 Y37.303 E0.02024
G1 X76.072 Y37.131 E0.02024
G1 X76.523 Y36.988 E0.02024
G1 X76.983 Y36.874 E0.02024
G1 X77.456 Y36.790 E0.02052
G1 X77.926 Y36.737 E0.02024
G1 X78.399 Y36.715 E0.02024
G1 X111.500 Y36.715 E1.41525
G1 X112.073 Y36.737 E0.02451
G1 X112.859 Y36.842 E0.03391
G1 X113.635 Y37.034 E0.03420
G1 X114.386 Y37.311 E0.03420
G1 X115.102 Y37.667 E0.03420
G1 X115.769 Y38.096 E0.03391
G1 X116.390 Y38.600 E0.03420
G1 X116.948 Y39.163 E0.03391
G1 X117.446 Y39.790 E0.03420
G1 X117.738 Y40.236 E0.02280
G1 X118.000 Y40.708 E0.02309
G1 X118.225 Y41.199 E0.02309
G1 X118.414 Y41.705 E0.02309
G1 X118.566 Y42.223 E0.02309
G1 X118.678 Y42.751 E0.02309
G1 X118.750 Y43.287 E0.02309
G1 X118.783 Y43.826 E0.02309
G1 X118.783 Y96.200 E2.23930
G1 X118.711 Y97.037 E0.03590
G1 X118.542 Y97.866 E0.03619
G1 X118.281 Y98.664 E0.03590
G1 X117.926 Y99.433 E0.03619
G1 X117.485 Y100.155 E0.03619
G1 X116.967 Y100.816 E0.03590
G1 X116.376 Y101.413 E0.03590
G1 X115.716 Y101.942 E0.03619
G1 X115.275 Y102.231 E0.02252
G1 X114.809 Y102.490 E0.02280
G1 X114.326 Y102.715 E0.02280
G1 X113.833 Y102.902 E0.02252
G1 X113.328 Y103.052 E0.02252
G1 X112.814 Y103.166 E0.02252
G1 X112.286 Y103.243 E0.02280
G1 X111.761 Y103.281 E0.02252
G1 X78.207 Y103.280 E1.43464
G1 X77.378 Y103.198 E0.03562
G1 X76.570 Y103.025 E0.03533
G1 X75.780 Y102.759 E0.03562
G1 X75.026 Y102.404 E0.03562
G1 X74.323 Y101.969 E0.03533
G1 X73.669 Y101.454 E0.03562
G1 X73.078 Y100.866 E0.03562
G1 X72.558 Y100.216 E0.03562
G1 X72.255 Y99.753 E0.02366
G1 X71.988 Y99.268 E0.02366
G1 X71.759 Y98.764 E0.02366
G1 X71.567 Y98.238 E0.02394
G1 X71.417 Y97.706 E0.02366
G1 X71.307 Y97.156 E0.02394
G1 X71.240 Y96.607 E0.02366
G1 X71.215 Y96.054 E0.02366
G1 X71.216 Y43.880 E2.23074
G1 X71.237 Y43.434 E0.01910
G1 X71.285 Y42.990 E0.01910
G1 X71.360 Y42.549 E0.01910
G1 X71.463 Y42.115 E0.01910
G1 X71.594 Y41.680 E0.01938
G1 X71.749 Y41.262 E0.01910
G1 X71.929 Y40.853 E0.01910
G1 X72.134 Y40.456 E0.01910
G1 X72.508 Y40.667 F7800.000
G1 F1800
G1 X72.737 Y40.284 E0.01908
G1 X72.995 Y39.912 E0.01936
G1 X73.272 Y39.563 E0.01908
G1 X73.577 Y39.227 E0.01936
G1 X73.902 Y38.913 E0.01936
G1 X74.243 Y38.624 E0.01908
G1 X74.602 Y38.359 E0.01908
G1 X74.983 Y38.114 E0.01936
G1 X75.373 Y37.898 E0.01908
G1 X75.782 Y37.705 E0.01936
G1 X76.198 Y37.541 E0.01908
G1 X76.629 Y37.403 E0.01936
G1 X77.062 Y37.295 E0.01908
G1 X77.508 Y37.215 E0.01936
G1 X77.951 Y37.165 E0.01908
G1 X78.403 Y37.144 E0.01936
G1 X111.506 Y37.143 E1.41534
G1 X112.011 Y37.162 E0.02157
G1 X112.754 Y37.259 E0.03207
G1 X113.489 Y37.438 E0.03235
G1 X114.200 Y37.697 E0.03235
G1 X114.878 Y38.033 E0.03235
G1 X115.515 Y38.441 E0.03235
G1 X116.103 Y38.917 E0.03235
G1 X116.635 Y39.455 E0.03235
G1 X117.104 Y40.049 E0.03235
G1 X117.379 Y40.471 E0.02157
G1 X117.623 Y40.913 E0.02157
G1 X117.833 Y41.372 E0.02157
G1 X118.011 Y41.851 E0.02185
G1 X118.152 Y42.335 E0.02157
G1 X118.257 Y42.835 E0.02185
G1 X118.325 Y43.335 E0.02157
G1 X118.355 Y43.845 E0.02185
G1 X118.355 Y96.181 E2.23765
G1 X118.288 Y96.974 E0.03400
G1 X118.129 Y97.753 E0.03400
G1 X117.882 Y98.509 E0.03400
G1 X117.548 Y99.231 E0.03400
G1 X117.133 Y99.909 E0.03400
G1 X116.643 Y100.535 E0.03400
G1 X116.083 Y101.100 E0.03400
G1 X115.457 Y101.600 E0.03428
G1 X115.040 Y101.873 E0.02129
G1 X114.604 Y102.114 E0.02129
G1 X114.152 Y102.323 E0.02129
G1 X113.686 Y102.499 E0.02129
G1 X113.209 Y102.641 E0.02129
G1 X112.722 Y102.747 E0.02129
G1 X112.229 Y102.818 E0.02129
G1 X111.732 Y102.853 E0.02129
G1 X78.235 Y102.852 E1.43220
G1 X77.450 Y102.776 E0.03373
G1 X76.685 Y102.612 E0.03345
G1 X75.943 Y102.362 E0.03345
G1 X75.229 Y102.027 E0.03373
G1 X74.564 Y101.615 E0.03345
G1 X73.945 Y101.126 E0.03373
G1 X73.391 Y100.574 E0.03345
G1 X72.900 Y99.957 E0.03373
G1 X72.614 Y99.517 E0.02240
G1 X72.365 Y99.064 E0.02212
G1 X72.149 Y98.586 E0.02240
G1 X71.973 Y98.100 E0.02212
G1 X71.833 Y97.602 E0.02212
G1 X71.730 Y97.088 E0.02240
G1 X71.667 Y96.575 E0.02212
G1 X71.643 Y96.051 E0.02240
G1 X71.644 Y43.896 E2.22990
G1 X71.706 Y43.071 E0.03538
G1 X71.868 Y42.260 E0.03538
G1 X72.126 Y41.473 E0.03538
G1 X72.290 Y41.093 E0.01770
G1 X72.479 Y40.720 E0.01790
G1 X72.852 Y40.930 F7800.000
G1 F1800
G1 X73.064 Y40.568 E0.01794
G1 X73.304 Y40.215 E0.01821
G1 X73.566 Y39.880 E0.01821
G1 X73.849 Y39.562 E0.01821
G1 X74.153 Y39.264 E0.01821
G1 X74.476 Y38.986 E0.01821
G1 X74.817 Y38.731 E0.01821
G1 X75.174 Y38.499 E0.01821
G1 X75.546 Y38.291 E0.01821
G1 X75.930 Y38.108 E0.01821
G1 X76.326 Y37.950 E0.01821
G1 X76.731 Y37.820 E0.01821
G1 X77.144 Y37.716 E0.01821
G1 X77.563 Y37.640 E0.01821
G1 X77.986 Y37.592 E0.01821
G1 X78.412 Y37.572 E0.01821
G1 X111.500 Y37.572 E1.41470
G1 X111.957 Y37.588 E0.01955
G1 X112.659 Y37.677 E0.03025
G1 X113.353 Y37.844 E0.03052
G1 X114.023 Y38.088 E0.03052
G1 X114.663 Y38.404 E0.03052
G1 X115.264 Y38.789 E0.03052
G1 X115.819 Y39.238 E0.03052
G1 X116.320 Y39.746 E0.03052
G1 X116.762 Y40.307 E0.03052
G1 X117.021 Y40.706 E0.02035
G1 X117.249 Y41.124 E0.02035
G1 X117.446 Y41.557 E0.02035
G1 X117.611 Y42.004 E0.02035
G1 X117.740 Y42.455 E0.02008
G1 X117.837 Y42.921 E0.02035
G1 X117.900 Y43.393 E0.02035
G1 X117.927 Y43.868 E0.02035
G1 X117.926 Y96.163 E2.23589
G1 X117.864 Y96.905 E0.03185
G1 X117.715 Y97.642 E0.03212
G1 X117.481 Y98.355 E0.03212
G1 X117.166 Y99.037 E0.03212
G1 X116.776 Y99.672 E0.03185
G1 X116.312 Y100.263 E0.03212
G1 X115.786 Y100.791 E0.03185
G1 X115.198 Y101.258 E0.03212
G1 X114.810 Y101.511 E0.01981
G1 X114.399 Y101.738 E0.02008
G1 X113.978 Y101.932 E0.01981
G1 X113.538 Y102.097 E0.02008
G1 X113.087 Y102.229 E0.02008
G1 X112.635 Y102.328 E0.01981
G1 X112.169 Y102.394 E0.02008
G1 X111.701 Y102.425 E0.02008
G1 X78.262 Y102.424 E1.42969
G1 X77.527 Y102.354 E0.03158
G1 X76.804 Y102.201 E0.03158
G1 X76.104 Y101.965 E0.03158
G1 X75.430 Y101.648 E0.03185
G1 X74.802 Y101.258 E0.03158
G1 X74.223 Y100.799 E0.03158
G1 X73.701 Y100.277 E0.03158
G1 X73.242 Y99.698 E0.03158
G1 X72.979 Y99.294 E0.02062
G1 X72.745 Y98.865 E0.02088
G1 X72.544 Y98.420 E0.02088
G1 X72.378 Y97.961 E0.02088
G1 X72.248 Y97.496 E0.02062
G1 X72.152 Y97.017 E0.02088
G1 X72.094 Y96.532 E0.02088
G1 X72.072 Y96.044 E0.02088
G1 X72.072 Y43.912 E2.22893
G1 X72.128 Y43.151 E0.03265
G1 X72.274 Y42.401 E0.03265
G1 X72.507 Y41.674 E0.03265
G1 X72.824 Y40.983 E0.03250
G1 X108.372 Y69.913 F7800.000
G1 F300
G1 X109.195 Y69.768 E0.03573
G1 X109.961 Y70.191 E0.03739
G1 X110.255 Y71.000 E0.03683
G1 X109.962 Y71.807 E0.03672
G1 X109.218 Y72.236 E0.03672
G1 X108.372 Y72.087 E0.03671
G1 X107.820 Y71.429 E0.03672
G1 X107.820 Y70.571 E0.03672
G1 X108.334 Y69.959 E0.03415
G1 X108.372 Y69.513 F7800.000
G1 X107.916 Y72.877 F7800.000
G1 F600
G1 X109.376 Y73.134 E0.06339
G1 X110.403 Y72.542 E0.05069
G1 X110.403 Y94.903 E0.95607
G1 X107.597 Y94.903 E0.11997
G1 X107.597 Y72.496 E0.95800
G1 X107.878 Y72.831 E0.01867
G1 X108.144 Y72.482 F7800.000
G1 F600
G1 X109.297 Y72.685 E0.05005
G1 X110.311 Y72.100 E0.05005
G1 X110.619 Y71.254 E0.03851
G1 X110.832 Y71.291 E0.00922
G1 X110.832 Y95.332 E1.02786
G1 X107.168 Y95.332 E0.15661
G1 X107.168 Y71.319 E1.02666
G1 X108.106 Y72.436 E0.06234
G1 X109.345 Y68.871 F7800.000
G1 F300
G1 X107.916 Y69.123 E0.06201
G1 X107.597 Y69.504 E0.02124
G1 X107.597 Y55.496 E0.59888
G1 X107.916 Y55.877 E0.02124
G1 X109.376 Y56.134 E0.06339
G1 X110.403 Y55.542 E0.05069
G1 X110.403 Y69.456 E0.59491
G1 X109.397 Y68.900 E0.04913
G1 X110.308 Y69.893 F7800.000
G1 F600
G1 X109.270 Y69.319 E0.05073
G1 X108.144 Y69.518 E0.04887
G1 X107.168 Y70.681 E0.06491
G1 X107.168 Y54.319 E0.69955
G1 X108.144 Y55.482 E0.06491
G1 X109.297 Y55.685 E0.05005
G1 X110.311 Y55.100 E0.05005
G1 X110.619 Y54.254 E0.03851
G1 X110.832 Y54.291 E0.00922
G1 X110.832 Y70.709 E0.70195
G1 X110.619 Y70.746 E0.00922
G1 X110.329 Y69.950 E0.03625
G1 X110.403 Y52.458 F7800.000
G1 F600
G1 X109.376 Y51.866 E0.05069
G1 X107.916 Y52.123 E0.06339
G1 X107.597 Y52.504 E0.02124
G1 X107.597 Y46.903 E0.23945
G1 X82.403 Y46.903 E1.07718
G1 X82.403 Y52.458 E0.23752
G1 X81.376 Y51.866 E0.05069
G1 X79.916 Y52.123 E0.06339
G1 X79.597 Y52.504 E0.02124
G1 X79.597 Y45.097 E0.31667
G1 X110.403 Y45.097 E1.31713
G1 X110.403 Y52.398 E0.31217
G1 X110.311 Y52.900 F7800.000
G1 F600
G1 X109.297 Y52.315 E0.05005
G1 X108.144 Y52.518 E0.05005
G1 X107.168 Y53.681 E0.06491
G1 X107.168 Y47.332 E0.27147
G1 X82.832 Y47.332 E1.04054
G1 X82.832 Y53.709 E0.27267
G1 X82.619 Y53.746 E0.00922
G1 X82.311 Y52.900 E0.03851
G1 X81.297 Y52.315 E0.05005
G1 X80.144 Y52.518 E0.05005
G1 X79.168 Y53.681 E0.06491
G1 X79.168 Y44.668 E0.38533
G1 X110.832 Y44.668 E1.35377
G1 X110.832 Y53.709 E0.38652
G1 X110.619 Y53.746 E0.00922
G1 X110.331 Y52.956 E0.03595
G1 X109.962 Y53.193 F7800.000
G1 F300
G1 X110.255 Y54.000 E0.03672
G1 X109.962 Y54.807 E0.03672
G1 X109.218 Y55.236 E0.03672
G1 X108.372 Y55.087 E0.03671
G1 X107.820 Y54.429 E0.03672
G1 X107.820 Y53.571 E0.03672
G1 X108.372 Y52.913 E0.03672
G1 X109.218 Y52.764 E0.03671
G1 X109.910 Y53.163 E0.03415
G1 X110.356 Y53.124 F7800.000
G1 X110.500 Y52.626 F7800.000
G1 X79.968 Y55.788 F7800.000
G1 X79.916 Y55.877 F7800.000
G1 F300
G1 X81.376 Y56.134 E0.06339
G1 X82.403 Y55.542 E0.05069
G1 X82.403 Y69.456 E0.59490
G1 X81.345 Y68.871 E0.05170
G1 X79.916 Y69.123 E0.06201
G1 X79.597 Y69.504 E0.02124
G1 X79.597 Y55.496 E0.59888
G1 X79.878 Y55.831 E0.01867
G1 X80.144 Y55.482 F7800.000
G1 F600
G1 X81.297 Y55.685 E0.05005
G1 X82.311 Y55.100 E0.05005
G1 X82.619 Y54.254 E0.03851
G1 X82.832 Y54.291 E0.00922
G1 X82.832 Y70.709 E0.70195
G1 X82.619 Y70.746 E0.00922
G1 X82.309 Y69.893 E0.03881
G1 X81.270 Y69.319 E0.05073
G1 X80.144 Y69.518 E0.04887
G1 X79.168 Y70.681 E0.06491
G1 X79.168 Y54.319 E0.69955
G1 X80.106 Y55.436 E0.06234
G1 X80.372 Y55.087 F7800.000
G1 F300
G1 X79.820 Y54.429 E0.03672
G1 X79.820 Y53.571 E0.03672
G1 X80.372 Y52.913 E0.03672
G1 X81.218 Y52.764 E0.03672
G1 X81.962 Y53.193 E0.03672
G1 X82.255 Y54.000 E0.03672
G1 X81.962 Y54.807 E0.03672
G1 X81.218 Y55.236 E0.03672
G1 X80.431 Y55.098 E0.03415
G1 X80.026 Y55.287 F7800.000
G1 X81.195 Y69.768 F7800.000
G1 F300
G1 X81.961 Y70.191 E0.03739
G1 X82.255 Y71.000 E0.03683
G1 X81.962 Y71.807 E0.03672
G1 X81.218 Y72.236 E0.03672
G1 X80.372 Y72.087 E0.03672
G1 X79.820 Y71.429 E0.03672
G1 X79.820 Y70.571 E0.03672
G1 X80.372 Y69.913 E0.03672
G1 X81.136 Y69.778 E0.03317
G1 X81.448 Y69.458 F7800.000
G1 X79.916 Y72.877 F7800.000
G1 F600
G1 X81.376 Y73.134 E0.06339
G1 X82.403 Y72.542 E0.05069
G1 X82.403 Y94.903 E0.95607
G1 X79.597 Y94.903 E0.11997
G1 X79.597 Y72.496 E0.95800
G1 X79.878 Y72.831 E0.01867
G1 X80.144 Y72.482 F7800.000
G1 F600
G1 X81.297 Y72.685 E0.05005
G1 X82.311 Y72.100 E0.05005
G1 X82.619 Y71.254 E0.03851
G1 X82.832 Y71.291 E0.00922
G1 X82.832 Y95.332 E1.02786
G1 X79.168 Y95.332 E0.15661
G1 X79.168 Y71.319 E1.02666
G1 X80.106 Y72.436 E0.06234
G1 X79.968 Y72.788 F7800.000
G1 X107.500 Y47.000 F7800.000
G1 X106.740 Y47.760 F7800.000
G1 F600
G1 X83.260 Y47.760 E1.00390
G1 X83.260 Y95.760 E2.05226
G1 X78.740 Y95.760 E0.19325
G1 X78.740 Y44.240 E2.20276
G1 X111.260 Y44.240 E1.39041
G1 X111.260 Y95.760 E2.20276
G1 X106.740 Y95.760 E0.19325
G1 X106.740 Y47.820 E2.04970
G1 X106.727 Y47.360 F7800.000
G1 X107.263 Y46.774 F7800.000
G1 F600
G1 X105.907 Y45.418 E0.08305
G1 X105.293 Y45.418 E0.02658
G1 X106.456 Y46.582 E0.07124
G1 X105.843 Y46.582 E0.02658
G1 X104.679 Y45.418 E0.07124
G1 X104.066 Y45.418 E0.02658
G1 X105.229 Y46.582 E0.07124
G1 X104.615 Y46.582 E0.02658
G1 X103.452 Y45.418 E0.07124
G1 X102.838 Y45.418 E0.02658
G1 X104.001 Y46.582 E0.07124
G1 X103.388 Y46.582 E0.02658
G1 X102.224 Y45.418 E0.07124
G1 X101.611 Y45.418 E0.02658
G1 X102.774 Y46.582 E0.07124
G1 X102.160 Y46.582 E0.02658
G1 X100.997 Y45.418 E0.07124
G1 X100.383 Y45.418 E0.02658
G1 X101.546 Y46.582 E0.07124
G1 X100.933 Y46.582 E0.02658
G1 X99.769 Y45.418 E0.07124
G1 X99.156 Y45.418 E0.02658
G1 X100.319 Y46.582 E0.07124
G1 X99.705 Y46.582 E0.02658
G1 X98.542 Y45.418 E0.07124
G1 X97.928 Y45.418 E0.02658
G1 X99.091 Y46.582 E0.07124
G1 X98.478 Y46.582 E0.02658
G1 X97.314 Y45.418 E0.07124
G1 X96.701 Y45.418 E0.02658
G1 X97.864 Y46.582 E0.07124
G1 X97.250 Y46.582 E0.02658
G1 X96.087 Y45.418 E0.07124
G1 X95.473 Y45.418 E0.02658
G1 X96.636 Y46.582 E0.07124
G1 X96.023 Y46.582 E0.02658
G1 X94.859 Y45.418 E0.07124
G1 X94.245 Y45.418 E0.02658
G1 X95.409 Y46.582 E0.07124
G1 X94.795 Y46.582 E0.02658
G1 X93.632 Y45.418 E0.07124
G1 X93.018 Y45.418 E0.02658
G1 X94.181 Y46.582 E0.07124
G1 X93.568 Y46.582 E0.02658
G1 X92.404 Y45.418 E0.07124
G1 X91.790 Y45.418 E0.02658
G1 X92.954 Y46.582 E0.07124
G1 X92.340 Y46.582 E0.02658
G1 X91.177 Y45.418 E0.07124
G1 X90.563 Y45.418 E0.02658
G1 X91.726 Y46.582 E0.07124
G1 X91.112 Y46.582 E0.02658
G1 X89.949 Y45.418 E0.07124
G1 X89.335 Y45.418 E0.02658
G1 X90.499 Y46.582 E0.07124
G1 X89.885 Y46.582 E0.02658
G1 X88.722 Y45.418 E0.07124
G1 X88.108 Y45.418 E0.02658
G1 X89.271 Y46.582 E0.07124
G1 X88.657 Y46.582 E0.02658
G1 X87.494 Y45.418 E0.07124
G1 X86.880 Y45.418 E0.02658
G1 X88.044 Y46.582 E0.07124
G1 X87.430 Y46.582 E0.02658
G1 X86.267 Y45.418 E0.07124
G1 X85.653 Y45.418 E0.02658
G1 X86.816 Y46.582 E0.07124
G1 X86.202 Y46.582 E0.02658
G1 X85.039 Y45.418 E0.07124
G1 X84.425 Y45.418 E0.02658
G1 X85.589 Y46.582 E0.07124
G1 X84.975 Y46.582 E0.02658
G1 X83.812 Y45.418 E0.07124
G1 X83.198 Y45.418 E0.02658
G1 X84.361 Y46.582 E0.07124
G1 X83.747 Y46.582 E0.02658
G1 X82.584 Y45.418 E0.07124
G1 X81.970 Y45.418 E0.02658
G1 X83.134 Y46.582 E0.07124
G1 X82.520 Y46.582 E0.02658
G1 X81.357 Y45.418 E0.07124
G1 X80.743 Y45.418 E0.02658
G1 X82.082 Y46.757 E0.08199
G1 X82.082 Y47.371 E0.02658
G1 X80.129 Y45.418 E0.11958
G1 X79.918 Y45.418 E0.00912
G1 X79.918 Y45.821 E0.01745
G1 X82.082 Y47.985 E0.13248
G1 X82.082 Y48.598 E0.02658
G1 X79.918 Y46.435 E0.13248
G1 X79.918 Y47.049 E0.02658
G1 X82.082 Y49.212 E0.13248
G1 X82.082 Y49.826 E0.02658
G1 X79.918 Y47.663 E0.13248
G1 X79.918 Y48.276 E0.02658
G1 X82.082 Y50.440 E0.13248
G1 X82.082 Y51.054 E0.02658
G1 X79.918 Y48.890 E0.13248
G1 X79.918 Y49.504 E0.02658
G1 X82.082 Y51.667 E0.13248
G1 X82.082 Y51.902 E0.01015
G1 X81.436 Y51.529 E0.03230
G1 X81.345 Y51.545 E0.00398
G1 X79.918 Y50.118 E0.08739
G1 X79.918 Y50.731 E0.02658
G1 X80.824 Y51.637 E0.05544
G1 X80.302 Y51.729 E0.02294
G1 X79.726 Y51.152 E0.03529
G1 X79.899 Y51.820 F7800.000
G1 X79.899 Y51.820 F7800.000
G1 X81.000 Y50.507 F7800.000
G1 X81.000 Y47.000 F7800.000
G1 X81.036 Y46.536 F7800.000
G1 X82.500 Y46.000 F7800.000
G1 X107.500 Y46.000 F7800.000
G1 X108.964 Y46.536 F7800.000
G1 X109.000 Y47.000 F7800.000
G1 X109.000 Y50.507 F7800.000
G1 X107.899 Y51.820 F7800.000
G1 X108.144 Y51.952 F7800.000
G1 F600
G1 X107.918 Y51.726 E0.01385
G1 X107.918 Y51.112 E0.02658
G1 X108.500 Y51.694 E0.03561
G1 X109.022 Y51.602 E0.02294
G1 X107.918 Y50.499 E0.06756
G1 X107.918 Y49.885 E0.02658
G1 X109.735 Y51.702 E0.11127
G1 X110.082 Y51.902 E0.01733
G1 X110.082 Y51.434 E0.02024
G1 X107.918 Y49.271 E0.13248
G1 X107.918 Y48.657 E0.02658
G1 X110.082 Y50.821 E0.13248
G1 X110.082 Y50.207 E0.02658
G1 X107.918 Y48.044 E0.13248
G1 X107.918 Y47.430 E0.02658
G1 X110.082 Y49.593 E0.13248
G1 X110.082 Y48.979 E0.02658
G1 X106.521 Y45.418 E0.21808
G1 X107.134 Y45.418 E0.02658
G1 X110.082 Y48.366 E0.18049
G1 X110.082 Y47.752 E0.02658
G1 X107.748 Y45.418 E0.14291
