; generated by Slic3r 1.33.3-prusa3d-win64 on 2017-05-21 at 16:04:16

; external perimeters extrusion width = 0.40mm
; perimeters extrusion width = 0.48mm
; infill extrusion width = 0.48mm
; solid infill extrusion width = 0.48mm
; top infill extrusion width = 0.48mm
; support material extrusion width = 0.40mm

M104 S185 ; set temperature
G28 ; home all axes
G1 Z5 F5000 ; lift nozzle

M109 S185 ; set temperature and wait for it to be reached
G21 ; set units to millimeters
G90 ; use absolute coordinates
M83 ; use relative distances for extrusion
G1 Z0.240 F7800.000
G1 X73.314 Y62.630 F7800.000
G1 F1800
G1 X74.220 Y61.624 E0.05784
G1 X74.773 Y61.103 E0.03249
G1 X75.132 Y60.816 E0.01967
G1 X76.060 Y60.143 E0.04901
G1 X76.744 Y59.716 E0.03448
G1 X77.185 Y59.494 E0.02109
G1 X78.201 Y59.040 E0.04758
G1 X78.893 Y58.780 E0.03163
G1 X79.440 Y58.629 E0.02423
G1 X80.515 Y58.398 E0.04702
G1 X81.239 Y58.282 E0.03135
G1 X82.017 Y58.239 E0.03334
G1 X108.050 Y58.240 E1.11305
G1 X108.557 Y58.263 E0.02166
G1 X109.060 Y58.321 E0.02166
G1 X110.425 Y58.598 E0.05955
G1 X111.139 Y58.791 E0.03163
G1 X111.837 Y59.057 E0.03192
G1 X113.110 Y59.638 E0.05984
G1 X113.551 Y59.887 E0.02166
G1 X113.974 Y60.167 E0.02166
G1 X115.027 Y60.939 E0.05584
G1 X115.655 Y61.497 E0.03590
G1 X116.742 Y62.697 E0.06924
G1 X117.049 Y63.092 E0.02138
G1 X117.331 Y63.513 E0.02166
G1 X118.021 Y64.707 E0.05898
G1 X118.347 Y65.394 E0.03249
G1 X118.511 Y65.831 E0.01995
G1 X118.865 Y66.921 E0.04902
G1 X119.060 Y67.710 E0.03477
G1 X119.135 Y68.191 E0.02081
G1 X119.252 Y69.305 E0.04788
G1 X119.285 Y70.051 E0.03192
G1 X119.260 Y70.610 E0.02394
G1 X119.145 Y71.717 E0.04756
G1 X119.024 Y72.467 E0.03249
G1 X118.870 Y73.061 E0.02622
G1 X118.471 Y74.284 E0.05500
G1 X118.254 Y74.821 E0.02480
G1 X117.998 Y75.335 E0.02451
G1 X117.372 Y76.420 E0.05358
G1 X117.028 Y76.936 E0.02651
G1 X116.647 Y77.416 E0.02622
G1 X115.780 Y78.376 E0.05528
G1 X115.373 Y78.770 E0.02423
G1 X114.937 Y79.131 E0.02423
G1 X113.902 Y79.884 E0.05471
G1 X113.360 Y80.225 E0.02736
G1 X112.827 Y80.501 E0.02565
G1 X111.633 Y81.029 E0.05584
G1 X111.075 Y81.230 E0.02537
G1 X110.502 Y81.385 E0.02537
G1 X109.046 Y81.681 E0.06354
G1 X108.516 Y81.740 E0.02280
G1 X107.976 Y81.761 E0.02309
G1 X81.936 Y81.760 E1.11334
G1 X81.437 Y81.737 E0.02138
G1 X80.940 Y81.679 E0.02138
G1 X79.582 Y81.403 E0.05927
G1 X79.013 Y81.257 E0.02508
G1 X78.465 Y81.068 E0.02480
G1 X77.250 Y80.536 E0.05670
G1 X76.837 Y80.334 E0.01967
G1 X76.432 Y80.102 E0.01995
G1 X76.048 Y79.849 E0.01967
G1 X75.089 Y79.151 E0.05071
G1 X74.636 Y78.778 E0.02508
G1 X74.192 Y78.346 E0.02651
G1 X73.405 Y77.475 E0.05015
G1 X73.115 Y77.127 E0.01938
G1 X72.844 Y76.755 E0.01967
G1 X72.580 Y76.339 E0.02109
G1 X71.951 Y75.237 E0.05424
G1 X71.705 Y74.719 E0.02451
G1 X71.504 Y74.189 E0.02423
G1 X71.135 Y73.077 E0.05010
G1 X70.978 Y72.477 E0.02651
G1 X70.873 Y71.873 E0.02622
G1 X70.749 Y70.708 E0.05009
G1 X70.716 Y70.162 E0.02337
G1 X70.725 Y69.609 E0.02366
G1 X70.897 Y67.959 E0.07093
G1 X70.996 Y67.442 E0.02252
G1 X71.130 Y66.939 E0.02223
G1 X71.513 Y65.760 E0.05301
G1 X71.746 Y65.179 E0.02679
G1 X72.011 Y64.648 E0.02537
G1 X72.642 Y63.557 E0.05387
G1 X72.940 Y63.107 E0.02309
G1 X73.276 Y62.675 E0.02337
G1 X73.636 Y62.913 F7800.000
G1 F1800
G1 X74.525 Y61.925 E0.05681
G1 X75.042 Y61.436 E0.03041
G1 X75.391 Y61.158 E0.01908
G1 X76.299 Y60.499 E0.04797
G1 X76.940 Y60.098 E0.03235
G1 X77.361 Y59.884 E0.02019
G1 X78.362 Y59.438 E0.04685
G1 X79.009 Y59.193 E0.02958
G1 X79.671 Y59.016 E0.02931
G1 X80.737 Y58.791 E0.04658
G1 X81.249 Y58.712 E0.02212
G1 X82.017 Y58.668 E0.03290
G1 X107.996 Y58.668 E1.11077
G1 X108.687 Y58.705 E0.02958
G1 X109.377 Y58.814 E0.02986
G1 X110.562 Y59.070 E0.05184
G1 X111.266 Y59.288 E0.03152
G1 X112.686 Y59.906 E0.06621
G1 X113.406 Y60.302 E0.03511
G1 X114.635 Y61.178 E0.06454
G1 X115.204 Y61.656 E0.03179
G1 X115.541 Y61.996 E0.02046
G1 X116.305 Y62.844 E0.04879
G1 X116.803 Y63.488 E0.03483
G1 X117.036 Y63.854 E0.01853
G1 X117.588 Y64.809 E0.04713
G1 X117.904 Y65.446 E0.03041
G1 X118.091 Y65.928 E0.02212
G1 X118.435 Y66.982 E0.04742
G1 X118.619 Y67.689 E0.03124
G1 X118.706 Y68.213 E0.02268
G1 X118.821 Y69.296 E0.04659
G1 X118.857 Y70.007 E0.03041
G1 X118.820 Y70.711 E0.03014
G1 X118.704 Y71.800 E0.04684
G1 X118.613 Y72.342 E0.02350
G1 X118.464 Y72.925 E0.02572
G1 X118.074 Y74.121 E0.05378
G1 X117.873 Y74.625 E0.02323
G1 X117.629 Y75.118 E0.02350
G1 X117.010 Y76.191 E0.05295
G1 X116.688 Y76.676 E0.02489
G1 X116.322 Y77.136 E0.02516
G1 X115.488 Y78.061 E0.05322
G1 X115.099 Y78.440 E0.02323
G1 X114.687 Y78.783 E0.02295
G1 X113.670 Y79.523 E0.05377
G1 X113.167 Y79.842 E0.02544
G1 X112.651 Y80.110 E0.02489
G1 X111.495 Y80.623 E0.05404
G1 X110.979 Y80.811 E0.02350
G1 X110.449 Y80.957 E0.02350
G1 X109.014 Y81.252 E0.06262
G1 X108.520 Y81.310 E0.02129
G1 X108.022 Y81.332 E0.02129
G1 X81.997 Y81.332 E1.11271
G1 X81.313 Y81.295 E0.02931
G1 X80.629 Y81.188 E0.02958
G1 X79.532 Y80.953 E0.04797
G1 X78.978 Y80.797 E0.02461
G1 X78.451 Y80.600 E0.02406
G1 X77.396 Y80.132 E0.04935
G1 X76.940 Y79.902 E0.02185
G1 X76.502 Y79.639 E0.02185
G1 X75.222 Y78.712 E0.06759
G1 X74.848 Y78.392 E0.02102
G1 X74.494 Y78.042 E0.02129
G1 X73.682 Y77.141 E0.05184
G1 X73.331 Y76.702 E0.02406
G1 X73.000 Y76.207 E0.02544
G1 X72.418 Y75.201 E0.04967
G1 X72.200 Y74.776 E0.02046
G1 X72.010 Y74.329 E0.02074
G1 X71.488 Y72.760 E0.07070
G1 X71.366 Y72.237 E0.02295
G1 X71.285 Y71.707 E0.02295
G1 X71.166 Y70.555 E0.04949
G1 X71.143 Y69.954 E0.02572
G1 X71.170 Y69.392 E0.02406
G1 X71.307 Y68.117 E0.05486
G1 X71.399 Y67.601 E0.02240
G1 X71.529 Y67.100 E0.02212
G1 X71.909 Y65.928 E0.05267
G1 X72.122 Y65.387 E0.02489
G1 X72.384 Y64.860 E0.02516
G1 X73.000 Y63.793 E0.05267
G1 X73.282 Y63.366 E0.02185
G1 X73.597 Y62.959 E0.02205
G1 X73.955 Y63.199 F7800.000
G1 F1800
G1 X74.826 Y62.230 E0.05574
G1 X75.312 Y61.769 E0.02864
G1 X75.645 Y61.503 E0.01821
G1 X76.538 Y60.855 E0.04717
G1 X77.142 Y60.475 E0.03052
G1 X77.544 Y60.271 E0.01928
G1 X78.529 Y59.832 E0.04609
G1 X79.144 Y59.600 E0.02811
G1 X79.767 Y59.433 E0.02757
G1 X80.816 Y59.212 E0.04583
G1 X81.311 Y59.136 E0.02142
G1 X82.017 Y59.096 E0.03025
G1 X107.989 Y59.096 E1.11044
G1 X108.621 Y59.129 E0.02704
G1 X109.252 Y59.225 E0.02731
G1 X110.435 Y59.480 E0.05172
G1 X111.093 Y59.681 E0.02945
G1 X112.484 Y60.285 E0.06483
G1 X113.155 Y60.650 E0.03265
G1 X114.365 Y61.511 E0.06349
G1 X114.894 Y61.953 E0.02945
G1 X115.221 Y62.281 E0.01981
G1 X115.972 Y63.114 E0.04797
G1 X116.434 Y63.707 E0.03212
G1 X116.664 Y64.065 E0.01821
G1 X117.209 Y65.010 E0.04663
G1 X117.505 Y65.604 E0.02838
G1 X117.687 Y66.071 E0.02142
G1 X118.023 Y67.102 E0.04637
G1 X118.196 Y67.756 E0.02891
G1 X118.280 Y68.262 E0.02196
G1 X118.394 Y69.335 E0.04611
G1 X118.428 Y69.991 E0.02811
G1 X118.395 Y70.654 E0.02838
G1 X118.281 Y71.726 E0.04608
G1 X118.201 Y72.220 E0.02142
G1 X118.057 Y72.791 E0.02517
G1 X117.677 Y73.959 E0.05253
G1 X117.487 Y74.437 E0.02196
G1 X117.258 Y74.903 E0.02222
G1 X116.647 Y75.962 E0.05227
G1 X116.343 Y76.421 E0.02356
G1 X116.001 Y76.853 E0.02356
G1 X115.182 Y77.761 E0.05226
G1 X114.819 Y78.115 E0.02169
G1 X114.425 Y78.444 E0.02196
G1 X113.426 Y79.171 E0.05279
G1 X112.950 Y79.472 E0.02410
G1 X112.467 Y79.723 E0.02329
G1 X111.327 Y80.229 E0.05332
G1 X110.832 Y80.408 E0.02249
G1 X110.325 Y80.546 E0.02249
G1 X108.956 Y80.828 E0.05975
G1 X108.489 Y80.883 E0.02008
G1 X108.020 Y80.904 E0.02008
G1 X81.998 Y80.904 E1.11258
G1 X81.373 Y80.870 E0.02677
G1 X80.754 Y80.776 E0.02677
G1 X79.644 Y80.539 E0.04851
G1 X79.126 Y80.395 E0.02303
G1 X78.621 Y80.207 E0.02303
G1 X77.590 Y79.749 E0.04824
G1 X77.153 Y79.530 E0.02088
G1 X76.739 Y79.282 E0.02062
G1 X75.506 Y78.390 E0.06510
G1 X75.148 Y78.086 E0.02008
G1 X74.813 Y77.756 E0.02008
G1 X74.012 Y76.867 E0.05119
G1 X73.683 Y76.456 E0.02249
G1 X73.369 Y75.988 E0.02410
G1 X72.797 Y75.001 E0.04877
G1 X72.594 Y74.606 E0.01901
G1 X72.418 Y74.197 E0.01901
G1 X71.907 Y72.666 E0.06904
G1 X71.790 Y72.172 E0.02169
G1 X71.712 Y71.671 E0.02169
G1 X71.593 Y70.528 E0.04911
G1 X71.572 Y69.971 E0.02383
G1 X71.597 Y69.433 E0.02303
G1 X71.729 Y68.194 E0.05331
G1 X71.814 Y67.713 E0.02088
G1 X71.936 Y67.233 E0.02115
G1 X72.311 Y66.076 E0.05200
G1 X72.510 Y65.569 E0.02329
G1 X72.757 Y65.070 E0.02383
G1 X73.359 Y64.027 E0.05146
G1 X73.624 Y63.624 E0.02062
G1 X73.916 Y63.245 E0.02046
G1 X80.594 Y68.865 F7800.000
G1 F300
G1 X81.506 Y67.836 E0.05881
G1 X82.646 Y67.403 E0.05214
G1 X83.924 Y67.535 E0.05491
G1 X84.969 Y68.256 E0.05427
G1 X85.553 Y69.371 E0.05382
G1 X85.553 Y70.629 E0.05381
G1 X84.969 Y71.744 E0.05382
G1 X83.933 Y72.459 E0.05382
G1 X82.683 Y72.611 E0.05382
G1 X81.506 Y72.164 E0.05382
G1 X80.671 Y71.222 E0.05382
G1 X80.378 Y70.033 E0.05236
G1 X80.583 Y68.924 E0.04821
G1 X80.994 Y69.060 F7800.000
G1 F300
G1 X81.757 Y68.199 E0.04920
G1 X82.703 Y67.840 E0.04329
G1 X83.771 Y67.950 E0.04588
G1 X84.638 Y68.549 E0.04506
G1 X85.125 Y69.476 E0.04479
G1 X85.125 Y70.524 E0.04478
G1 X84.638 Y71.451 E0.04479
G1 X83.776 Y72.046 E0.04479
G1 X82.736 Y72.173 E0.04478
G1 X81.757 Y71.801 E0.04479
G1 X81.062 Y71.017 E0.04479
G1 X80.816 Y70.020 E0.04390
G1 X80.983 Y69.119 E0.03917
G1 X81.393 Y69.255 F7800.000
G1 F300
G1 X82.007 Y68.562 E0.03959
G1 X82.760 Y68.277 E0.03443
G1 X83.618 Y68.365 E0.03685
G1 X84.308 Y68.841 E0.03585
G1 X84.696 Y69.582 E0.03575
G1 X84.696 Y70.418 E0.03575
G1 X84.308 Y71.159 E0.03575
G1 X83.620 Y71.634 E0.03576
G1 X82.789 Y71.734 E0.03575
G1 X82.007 Y71.438 E0.03575
G1 X81.453 Y70.812 E0.03576
G1 X81.255 Y70.007 E0.03543
G1 X81.383 Y69.314 E0.03013
G1 X81.175 Y68.920 F7800.000
G1 X80.684 Y68.909 F7800.000
G1 X80.684 Y68.909 F7800.000
G1 X80.171 Y68.455 F7800.000
G1 X80.240 Y68.358 F7800.000
G1 X80.630 Y67.923 F7800.000
G1 X81.070 Y67.523 F7800.000
G1 X81.096 Y67.504 F7800.000
G1 X81.351 Y67.360 F7800.000
G1 X81.608 Y67.254 F7800.000
G1 X82.193 Y67.082 F7800.000
G1 X82.480 Y67.030 F7800.000
G1 X82.710 Y67.015 F7800.000
G1 X83.946 Y67.078 F7800.000
G1 X84.233 Y67.130 F7800.000
G1 X85.454 Y67.511 F7800.000
G1 X85.981 Y67.752 F7800.000
G1 X87.191 Y68.484 F7800.000
G1 X88.326 Y69.395 F7800.000
G1 X88.932 Y70.000 F7800.000
G1 X101.068 Y70.000 F7800.000
G1 X101.674 Y69.395 F7800.000
G1 X104.544 Y69.395 F7800.000
G1 X104.447 Y69.371 F7800.000
G1 F300
G1 X105.032 Y68.256 E0.05382
G1 X106.067 Y67.541 E0.05382
G1 X107.278 Y67.394 E0.05214
G1 X108.487 Y67.828 E0.05491
G1 X109.329 Y68.778 E0.05427
G1 X109.632 Y70.010 E0.05426
G1 X109.303 Y71.251 E0.05491
G1 X108.494 Y72.164 E0.05214
G1 X107.317 Y72.611 E0.05382
G1 X106.067 Y72.459 E0.05382
G1 X105.032 Y71.744 E0.05382
G1 X104.447 Y70.629 E0.05382
G1 X104.447 Y69.431 E0.05125
G1 X104.875 Y69.476 F7800.000
G1 F300
G1 X105.362 Y68.549 E0.04479
G1 X106.224 Y67.954 E0.04479
G1 X107.229 Y67.832 E0.04329
G1 X108.239 Y68.194 E0.04588
G1 X108.938 Y68.983 E0.04506
G1 X109.190 Y70.006 E0.04506
G1 X108.915 Y71.043 E0.04588
G1 X108.243 Y71.801 E0.04329
G1 X107.264 Y72.173 E0.04479
G1 X106.224 Y72.046 E0.04478
G1 X105.362 Y71.451 E0.04479
G1 X104.875 Y70.524 E0.04479
G1 X104.875 Y69.536 E0.04222
G1 X105.304 Y69.582 F7800.000
G1 F300
G1 X105.692 Y68.841 E0.03575
G1 X106.380 Y68.366 E0.03576
G1 X107.180 Y68.269 E0.03443
G1 X107.991 Y68.560 E0.03685
G1 X108.547 Y69.188 E0.03585
G1 X108.748 Y70.002 E0.03585
G1 X108.527 Y70.835 E0.03685
G1 X107.993 Y71.438 E0.03443
G1 X107.211 Y71.734 E0.03575
G1 X106.380 Y71.634 E0.03575
G1 X105.692 Y71.159 E0.03576
G1 X105.304 Y70.418 E0.03575
G1 X105.304 Y69.642 E0.03319
G1 X105.015 Y69.305 F7800.000
G1 X107.855 Y66.622 F7800.000
G1 F600
G1 X108.550 Y66.769 E0.03036
G1 X109.198 Y67.058 E0.03036
G1 X109.773 Y67.476 E0.03036
G1 X110.248 Y68.003 E0.03036
G1 X110.603 Y68.618 E0.03036
G1 X110.823 Y69.294 E0.03036
G1 X110.897 Y70.000 E0.03036
G1 X110.823 Y70.706 E0.03036
G1 X110.603 Y71.382 E0.03036
G1 X110.248 Y71.997 E0.03036
G1 X109.773 Y72.524 E0.03036
G1 X109.198 Y72.942 E0.03036
G1 X108.550 Y73.231 E0.03036
G1 X107.855 Y73.378 E0.03036
G1 X82.145 Y73.378 E1.09925
G1 X81.450 Y73.231 E0.03036
G1 X80.802 Y72.942 E0.03036
G1 X80.227 Y72.524 E0.03036
G1 X79.752 Y71.997 E0.03036
G1 X79.413 Y71.410 E0.02894
G1 X79.177 Y70.702 E0.03194
G1 X79.103 Y70.000 E0.03017
G1 X79.177 Y69.294 E0.03036
G1 X79.397 Y68.618 E0.03036
G1 X79.752 Y68.003 E0.03036
G1 X80.227 Y67.476 E0.03036
G1 X80.802 Y67.058 E0.03036
G1 X81.450 Y66.769 E0.03036
G1 X82.145 Y66.622 E0.03036
G1 X107.795 Y66.622 E1.09669
G1 X107.900 Y66.193 F7800.000
G1 F600
G1 X108.683 Y66.360 E0.03421
G1 X109.414 Y66.685 E0.03421
G1 X110.061 Y67.155 E0.03421
G1 X110.597 Y67.750 E0.03421
G1 X110.997 Y68.443 E0.03421
G1 X111.244 Y69.204 E0.03421
G1 X111.328 Y70.000 E0.03421
G1 X111.244 Y70.796 E0.03421
G1 X110.997 Y71.557 E0.03421
G1 X110.597 Y72.250 E0.03421
G1 X110.061 Y72.845 E0.03421
G1 X109.414 Y73.315 E0.03421
G1 X108.683 Y73.640 E0.03421
G1 X107.900 Y73.807 E0.03421
G1 X82.100 Y73.807 E1.10310
G1 X81.317 Y73.640 E0.03421
G1 X80.586 Y73.315 E0.03421
G1 X79.939 Y72.845 E0.03421
G1 X79.403 Y72.250 E0.03421
G1 X79.021 Y71.587 E0.03272
G1 X78.756 Y70.793 E0.03579
G1 X78.672 Y70.000 E0.03410
G1 X78.756 Y69.204 E0.03421
G1 X79.003 Y68.443 E0.03421
G1 X79.403 Y67.750 E0.03421
G1 X79.939 Y67.155 E0.03421
G1 X80.586 Y66.685 E0.03421
G1 X81.317 Y66.360 E0.03421
G1 X82.100 Y66.193 E0.03421
G1 X107.840 Y66.193 E1.10054
G1 X107.945 Y65.765 F7800.000
G1 F600
G1 X108.816 Y65.950 E0.03807
G1 X109.629 Y66.312 E0.03806
G1 X110.350 Y66.835 E0.03807
G1 X110.945 Y67.497 E0.03807
G1 X111.391 Y68.268 E0.03807
G1 X111.666 Y69.115 E0.03806
G1 X111.759 Y70.000 E0.03807
G1 X111.666 Y70.885 E0.03807
G1 X111.391 Y71.732 E0.03806
G1 X110.945 Y72.503 E0.03807
G1 X110.350 Y73.165 E0.03807
G1 X109.629 Y73.688 E0.03807
G1 X108.816 Y74.050 E0.03806
G1 X107.945 Y74.235 E0.03807
G1 X82.055 Y74.235 E1.10695
G1 X81.184 Y74.050 E0.03807
G1 X80.371 Y73.688 E0.03806
G1 X79.650 Y73.165 E0.03807
G1 X79.055 Y72.503 E0.03807
G1 X78.628 Y71.764 E0.03650
G1 X78.334 Y70.884 E0.03964
G1 X78.241 Y70.000 E0.03802
G1 X78.334 Y69.115 E0.03807
G1 X78.609 Y68.268 E0.03806
G1 X79.055 Y67.497 E0.03807
G1 X79.650 Y66.835 E0.03807
G1 X80.371 Y66.312 E0.03807
G1 X81.184 Y65.950 E0.03806
G1 X82.055 Y65.765 E0.03807
G1 X107.885 Y65.765 E1.10439
G1 X108.096 Y66.135 F7800.000
G1 X107.584 Y67.049 F7800.000
G1 F900
G1 X107.362 Y67.011 E0.00845
G1 F900
G1 X106.836 Y67.033 E0.01567
G1 F900
G1 X105.942 Y67.087 E0.03371
G1 X105.762 Y67.596 F7800.000
G1 F600
G1 X105.109 Y66.943 E0.03989
G1 X104.497 Y66.943 E0.02646
G1 X105.261 Y67.707 E0.04670
G1 X104.899 Y67.957 E0.01902
G1 X103.884 Y66.943 E0.06198
G1 X103.272 Y66.943 E0.02646
G1 X104.640 Y68.311 E0.08358
G1 X104.429 Y68.713 E0.01960
G1 X102.660 Y66.943 E0.10812
G1 X102.047 Y66.943 E0.02646
G1 X104.218 Y69.114 E0.13266
G1 X104.125 Y69.291 E0.00865
G1 X104.125 Y69.633 E0.01477
G1 X101.435 Y66.943 E0.16440
G1 X100.822 Y66.943 E0.02646
G1 X104.125 Y70.246 E0.20181
G1 X104.125 Y70.709 E0.01999
G1 X104.291 Y71.023 E0.01537
G1 X100.210 Y66.943 E0.24933
G1 X99.598 Y66.943 E0.02646
G1 X105.618 Y72.963 E0.36783
G1 X105.612 Y73.057 E0.00408
G1 X105.099 Y73.057 E0.02214
G1 X98.985 Y66.943 E0.37359
G1 X98.373 Y66.943 E0.02646
G1 X104.487 Y73.057 E0.37359
G1 X103.875 Y73.057 E0.02646
G1 X97.761 Y66.943 E0.37359
G1 X97.148 Y66.943 E0.02646
G1 X103.262 Y73.057 E0.37359
G1 X102.650 Y73.057 E0.02646
G1 X96.536 Y66.943 E0.37359
G1 X95.923 Y66.943 E0.02646
G1 X102.037 Y73.057 E0.37359
G1 X101.425 Y73.057 E0.02646
G1 X95.311 Y66.943 E0.37359
G1 X94.699 Y66.943 E0.02646
G1 X100.813 Y73.057 E0.37359
G1 X100.200 Y73.057 E0.02646
G1 X94.086 Y66.943 E0.37359
G1 X93.474 Y66.943 E0.02646
G1 X99.588 Y73.057 E0.37359
G1 X98.976 Y73.057 E0.02646
G1 X92.862 Y66.943 E0.37359
G1 X92.249 Y66.943 E0.02646
G1 X98.363 Y73.057 E0.37359
G1 X97.751 Y73.057 E0.02646
G1 X91.637 Y66.943 E0.37359
G1 X91.024 Y66.943 E0.02646
G1 X97.138 Y73.057 E0.37359
G1 X96.526 Y73.057 E0.02646
G1 X90.412 Y66.943 E0.37359
G1 X89.800 Y66.943 E0.02646
G1 X95.914 Y73.057 E0.37359
G1 X95.301 Y73.057 E0.02646
G1 X89.187 Y66.943 E0.37359
G1 X88.575 Y66.943 E0.02646
G1 X94.689 Y73.057 E0.37359
