; generated by Slic3r 1.33.3-prusa3d-win64 on 2017-05-21 at 16:37:47

; external perimeters extrusion width = 0.40mm
; perimeters extrusion width = 0.48mm
; infill extrusion width = 0.48mm
; solid infill extrusion width = 0.48mm
; top infill extrusion width = 0.48mm
; support material extrusion width = 0.40mm

M104 S185 ; set temperature
G28 ; home all axes
G1 Z5 F5000 ; lift nozzle

M109 S185 ; set temperature and wait for it to be reached
G21 ; set units to millimeters
G90 ; use absolute coordinates
M83 ; use relative distances for extrusion
G1 Z0.240 F7800.000
G1 X76.814 Y62.630 F7800.000
G1 F1800
G1 X77.715 Y61.629 E0.05756
G1 X78.262 Y61.112 E0.03220
G1 X78.627 Y60.820 E0.01995
G1 X79.544 Y60.154 E0.04844
G1 X80.204 Y59.739 E0.03334
G1 X80.667 Y59.502 E0.02223
G1 X81.670 Y59.054 E0.04701
G1 X82.336 Y58.798 E0.03049
G1 X83.037 Y58.606 E0.03106
G1 X84.119 Y58.377 E0.04730
G1 X84.587 Y58.300 E0.02024
G1 X85.051 Y58.255 E0.01995
G1 X85.517 Y58.239 E0.01995
G1 X104.689 Y58.261 E0.81968
G1 X105.208 Y58.288 E0.02223
G1 X105.731 Y58.353 E0.02252
G1 X107.243 Y58.674 E0.06609
G1 X107.696 Y58.809 E0.02024
G1 X108.140 Y58.974 E0.02024
G1 X109.610 Y59.638 E0.06896
G1 X110.309 Y60.053 E0.03477
G1 X111.379 Y60.825 E0.05641
G1 X111.764 Y61.134 E0.02109
G1 X112.131 Y61.473 E0.02138
G1 X113.073 Y62.500 E0.05955
G1 X113.533 Y63.070 E0.03135
G1 X113.937 Y63.690 E0.03163
G1 X114.556 Y64.772 E0.05328
G1 X114.887 Y65.493 E0.03391
G1 X115.388 Y66.998 E0.06782
G1 X115.501 Y67.430 E0.01910
G1 X115.588 Y67.868 E0.01910
G1 X115.761 Y69.398 E0.06583
G1 X115.783 Y70.204 E0.03448
G1 X115.754 Y70.677 E0.02024
G1 X115.627 Y71.869 E0.05127
G1 X115.553 Y72.330 E0.01995
G1 X115.449 Y72.785 E0.01995
G1 X115.033 Y74.103 E0.05909
G1 X114.825 Y74.651 E0.02508
G1 X114.551 Y75.223 E0.02708
G1 X113.976 Y76.243 E0.05010
G1 X113.677 Y76.725 E0.02423
G1 X113.341 Y77.181 E0.02423
G1 X112.262 Y78.395 E0.06945
G1 X111.868 Y78.774 E0.02337
G1 X111.447 Y79.123 E0.02337
G1 X110.424 Y79.869 E0.05414
G1 X109.924 Y80.188 E0.02537
G1 X109.364 Y80.484 E0.02708
G1 X108.232 Y80.988 E0.05299
G1 X107.740 Y81.176 E0.02252
G1 X107.235 Y81.328 E0.02252
G1 X105.598 Y81.673 E0.07152
G1 X105.035 Y81.739 E0.02423
G1 X104.470 Y81.761 E0.02418
G1 X85.383 Y81.759 E0.81609
G1 X84.864 Y81.730 E0.02223
G1 X84.348 Y81.664 E0.02223
G1 X82.770 Y81.329 E0.06896
G1 X82.266 Y81.178 E0.02252
G1 X81.780 Y80.993 E0.02223
G1 X80.653 Y80.492 E0.05272
G1 X80.115 Y80.211 E0.02594
G1 X79.597 Y79.883 E0.02622
G1 X78.599 Y79.159 E0.05271
G1 X78.201 Y78.835 E0.02195
G1 X77.821 Y78.480 E0.02223
G1 X76.715 Y77.252 E0.07067
G1 X76.390 Y76.821 E0.02309
G1 X76.097 Y76.367 E0.02309
G1 X75.520 Y75.366 E0.04939
G1 X75.259 Y74.841 E0.02508
G1 X75.045 Y74.309 E0.02451
G1 X74.663 Y73.166 E0.05152
G1 X74.507 Y72.607 E0.02480
G1 X74.397 Y72.038 E0.02480
G1 X74.251 Y70.728 E0.05636
G1 X74.219 Y70.269 E0.01967
G1 X74.217 Y69.809 E0.01967
G1 X74.244 Y69.350 E0.01967
G1 X74.368 Y68.171 E0.05070
G1 X74.457 Y67.624 E0.02366
G1 X74.612 Y66.997 E0.02765
G1 X74.966 Y65.899 E0.04930
G1 X75.116 Y65.486 E0.01881
G1 X75.290 Y65.082 E0.01881
G1 X75.531 Y64.613 E0.02252
G1 X76.159 Y63.529 E0.05358
G1 X76.452 Y63.091 E0.02252
G1 X76.776 Y62.675 E0.02252
G1 X77.136 Y62.913 F7800.000
G1 F1800
G1 X78.021 Y61.930 E0.05653
G1 X78.532 Y61.445 E0.03014
G1 X78.886 Y61.162 E0.01936
G1 X79.788 Y60.506 E0.04769
G1 X80.412 Y60.113 E0.03152
G1 X80.855 Y59.887 E0.02129
G1 X81.844 Y59.446 E0.04630
G1 X82.478 Y59.203 E0.02903
G1 X83.133 Y59.024 E0.02903
G1 X84.205 Y58.797 E0.04686
G1 X84.659 Y58.723 E0.01963
G1 X85.090 Y58.682 E0.01853
G1 X85.517 Y58.668 E0.01825
G1 X104.678 Y58.689 E0.81927
G1 X105.169 Y58.715 E0.02102
G1 X105.657 Y58.775 E0.02102
G1 X107.093 Y59.078 E0.06276
G1 X107.534 Y59.207 E0.01963
G1 X107.965 Y59.365 E0.01963
G1 X109.400 Y60.013 E0.06732
G1 X110.068 Y60.407 E0.03317
G1 X111.104 Y61.154 E0.05460
G1 X111.478 Y61.453 E0.02046
G1 X111.830 Y61.778 E0.02046
G1 X112.745 Y62.776 E0.05792
G1 X113.177 Y63.309 E0.02931
G1 X113.556 Y63.887 E0.02958
G1 X114.168 Y64.956 E0.05266
G1 X114.481 Y65.631 E0.03179
G1 X114.973 Y67.106 E0.06649
G1 X115.161 Y67.912 E0.03538
G1 X115.332 Y69.412 E0.06456
G1 X115.355 Y70.168 E0.03235
G1 X115.328 Y70.627 E0.01963
G1 X115.205 Y71.793 E0.05015
G1 X115.138 Y72.215 E0.01825
G1 X115.044 Y72.638 E0.01853
G1 X114.539 Y74.213 E0.07069
G1 X114.333 Y74.701 E0.02268
G1 X114.090 Y75.172 E0.02268
G1 X113.518 Y76.177 E0.04941
G1 X113.178 Y76.689 E0.02627
G1 X112.815 Y77.144 E0.02489
G1 X111.962 Y78.089 E0.05446
G1 X111.585 Y78.453 E0.02240
G1 X111.181 Y78.787 E0.02240
G1 X110.180 Y79.516 E0.05294
G1 X109.701 Y79.823 E0.02433
G1 X109.174 Y80.099 E0.02544
G1 X108.061 Y80.595 E0.05211
G1 X107.589 Y80.775 E0.02157
G1 X107.106 Y80.919 E0.02157
G1 X105.533 Y81.249 E0.06870
G1 X105.007 Y81.311 E0.02268
G1 X104.470 Y81.332 E0.02295
G1 X85.400 Y81.331 E0.81535
G1 X84.909 Y81.304 E0.02102
G1 X84.422 Y81.242 E0.02102
G1 X82.919 Y80.925 E0.06566
G1 X82.435 Y80.783 E0.02157
G1 X81.963 Y80.605 E0.02157
G1 X80.843 Y80.108 E0.05239
G1 X80.344 Y79.848 E0.02406
G1 X79.841 Y79.531 E0.02544
G1 X78.870 Y78.826 E0.05128
G1 X78.493 Y78.521 E0.02074
G1 X78.133 Y78.186 E0.02102
G1 X77.057 Y76.993 E0.06870
G1 X76.744 Y76.581 E0.02212
G1 X76.467 Y76.152 E0.02185
G1 X75.900 Y75.168 E0.04857
G1 X75.652 Y74.670 E0.02378
G1 X75.447 Y74.160 E0.02350
G1 X75.076 Y73.051 E0.04997
G1 X74.927 Y72.522 E0.02350
G1 X74.821 Y71.976 E0.02378
G1 X74.677 Y70.684 E0.05557
G1 X74.648 Y70.258 E0.01825
G1 X74.645 Y69.825 E0.01853
G1 X74.670 Y69.392 E0.01853
G1 X74.792 Y68.232 E0.04988
G1 X74.874 Y67.721 E0.02212
G1 X75.023 Y67.119 E0.02654
G1 X75.372 Y66.039 E0.04853
G1 X75.676 Y65.269 E0.03538
G1 X75.906 Y64.820 E0.02157
G1 X76.521 Y63.760 E0.05240
G1 X76.793 Y63.351 E0.02102
G1 X77.097 Y62.959 E0.02122
G1 X77.455 Y63.199 F7800.000
G1 F1800
G1 X78.322 Y62.235 E0.05547
G1 X78.808 Y61.773 E0.02864
G1 X79.140 Y61.507 E0.01821
G1 X80.033 Y60.858 E0.04717
G1 X80.620 Y60.488 E0.02971
G1 X81.039 Y60.274 E0.02008
G1 X82.018 Y59.837 E0.04582
G1 X82.614 Y59.609 E0.02731
G1 X83.230 Y59.441 E0.02731
G1 X84.285 Y59.218 E0.04610
G1 X84.724 Y59.147 E0.01901
G1 X85.517 Y59.096 E0.03399
G1 X104.662 Y59.117 E0.81854
G1 X105.125 Y59.141 E0.01981
G1 X105.585 Y59.198 E0.01981
G1 X106.953 Y59.484 E0.05976
G1 X107.380 Y59.607 E0.01901
G1 X107.798 Y59.760 E0.01901
G1 X109.198 Y60.390 E0.06564
G1 X109.834 Y60.766 E0.03158
G1 X110.835 Y61.488 E0.05279
G1 X111.334 Y61.898 E0.02757
G1 X111.788 Y62.354 E0.02756
G1 X112.657 Y63.335 E0.05602
G1 X112.930 Y63.702 E0.01955
G1 X113.176 Y64.087 E0.01955
G1 X113.782 Y65.142 E0.05199
G1 X114.075 Y65.771 E0.02971
G1 X114.557 Y67.209 E0.06484
G1 X114.735 Y67.965 E0.03319
G1 X114.904 Y69.434 E0.06324
G1 X114.927 Y70.135 E0.02998
G1 X114.902 Y70.585 E0.01928
G1 X114.782 Y71.719 E0.04876
G1 X114.638 Y72.495 E0.03372
G1 X114.527 Y72.886 E0.01741
G1 X114.148 Y74.035 E0.05173
G1 X113.955 Y74.498 E0.02142
G1 X113.724 Y74.949 E0.02169
G1 X113.154 Y75.950 E0.04923
G1 X112.836 Y76.430 E0.02463
G1 X112.493 Y76.861 E0.02356
G1 X111.656 Y77.788 E0.05338
G1 X111.301 Y78.132 E0.02115
G1 X110.920 Y78.448 E0.02115
G1 X109.937 Y79.163 E0.05199
G1 X109.483 Y79.453 E0.02303
G1 X108.984 Y79.715 E0.02410
G1 X107.885 Y80.205 E0.05145
G1 X107.439 Y80.373 E0.02035
G1 X106.977 Y80.509 E0.02062
G1 X105.474 Y80.825 E0.06564
G1 X104.977 Y80.884 E0.02142
G1 X104.476 Y80.904 E0.02142
G1 X85.417 Y80.903 E0.81489
G1 X84.954 Y80.878 E0.01981
G1 X84.494 Y80.820 E0.01981
G1 X83.059 Y80.519 E0.06270
G1 X82.590 Y80.383 E0.02088
G1 X82.138 Y80.214 E0.02062
G1 X81.033 Y79.723 E0.05172
G1 X80.565 Y79.481 E0.02249
G1 X80.089 Y79.181 E0.02410
G1 X79.130 Y78.485 E0.05065
G1 X78.774 Y78.198 E0.01955
G1 X78.440 Y77.886 E0.01955
G1 X77.394 Y76.728 E0.06671
G1 X77.102 Y76.345 E0.02062
G1 X76.836 Y75.935 E0.02088
G1 X76.279 Y74.968 E0.04770
G1 X76.044 Y74.498 E0.02249
G1 X75.850 Y74.015 E0.02222
G1 X75.487 Y72.929 E0.04896
G1 X75.344 Y72.423 E0.02249
G1 X75.244 Y71.907 E0.02249
G1 X75.104 Y70.647 E0.05420
G1 X75.076 Y70.241 E0.01741
G1 X75.074 Y69.834 E0.01741
G1 X75.097 Y69.427 E0.01741
G1 X75.216 Y68.293 E0.04876
G1 X75.293 Y67.811 E0.02088
G1 X75.434 Y67.239 E0.02517
G1 X75.777 Y66.177 E0.04771
G1 X76.059 Y65.461 E0.03292
G1 X76.279 Y65.031 E0.02062
G1 X76.879 Y63.995 E0.05119
G1 X77.135 Y63.609 E0.01981
G1 X77.416 Y63.245 E0.01966
G1 X101.447 Y69.371 F7800.000
G1 F300
G1 X102.032 Y68.256 E0.05382
G1 X103.146 Y67.487 E0.05788
G1 X104.305 Y67.404 E0.04968
G1 X105.487 Y67.828 E0.05371
G1 X106.329 Y68.778 E0.05427
G1 X106.632 Y70.010 E0.05426
G1 X106.303 Y71.251 E0.05491
G1 X105.494 Y72.164 E0.05214
G1 X104.317 Y72.611 E0.05382
G1 X103.067 Y72.459 E0.05382
G1 X102.064 Y71.766 E0.05214
G1 X101.447 Y70.640 E0.05491
G1 X101.447 Y69.431 E0.05170
G1 X101.875 Y69.476 F7800.000
G1 F300
G1 X102.362 Y68.549 E0.04479
G1 X103.293 Y67.906 E0.04837
G1 X104.245 Y67.837 E0.04082
G1 X105.239 Y68.194 E0.04515
G1 X105.938 Y68.983 E0.04506
G1 X106.190 Y70.006 E0.04506
G1 X105.915 Y71.043 E0.04588
G1 X105.243 Y71.801 E0.04329
G1 X104.264 Y72.173 E0.04479
G1 X103.224 Y72.046 E0.04479
G1 X102.391 Y71.471 E0.04329
G1 X101.875 Y70.530 E0.04588
G1 X101.875 Y69.536 E0.04249
G1 X102.304 Y69.582 F7800.000
G1 F300
G1 X102.692 Y68.841 E0.03575
G1 X103.440 Y68.325 E0.03886
G1 X104.186 Y68.271 E0.03195
G1 X104.991 Y68.560 E0.03658
G1 X105.547 Y69.188 E0.03585
G1 X105.748 Y70.002 E0.03585
G1 X105.527 Y70.835 E0.03685
G1 X104.993 Y71.438 E0.03443
G1 X104.211 Y71.734 E0.03575
G1 X103.380 Y71.634 E0.03575
G1 X102.718 Y71.176 E0.03443
G1 X102.304 Y70.420 E0.03685
G1 X102.304 Y69.642 E0.03329
G1 X102.014 Y69.306 F7800.000
G1 X88.553 Y69.371 F7800.000
G1 F300
G1 X88.553 Y70.629 E0.05382
G1 X87.968 Y71.744 E0.05382
G1 X86.855 Y72.512 E0.05782
G1 X85.658 Y72.601 E0.05135
G1 X84.506 Y72.164 E0.05266
G1 X83.671 Y71.222 E0.05382
G1 X83.378 Y70.033 E0.05236
G1 X83.594 Y68.865 E0.05078
G1 X84.506 Y67.836 E0.05881
G1 X85.646 Y67.403 E0.05214
G1 X86.924 Y67.535 E0.05491
G1 X87.968 Y68.256 E0.05426
G1 X88.526 Y69.318 E0.05125
G1 X88.125 Y69.476 F7800.000
G1 F300
G1 X88.125 Y70.524 E0.04479
G1 X87.638 Y71.451 E0.04479
G1 X86.708 Y72.093 E0.04834
G1 X85.721 Y72.167 E0.04231
G1 X84.757 Y71.801 E0.04408
G1 X84.062 Y71.017 E0.04479
G1 X83.816 Y70.020 E0.04390
G1 X83.994 Y69.060 E0.04174
G1 X84.757 Y68.199 E0.04920
G1 X85.703 Y67.840 E0.04329
G1 X86.771 Y67.950 E0.04588
G1 X87.638 Y68.549 E0.04506
G1 X88.097 Y69.423 E0.04222
G1 X87.696 Y69.582 F7800.000
G1 F300
G1 X87.696 Y70.418 E0.03575
G1 X87.308 Y71.159 E0.03575
G1 X86.560 Y71.675 E0.03885
G1 X85.784 Y71.732 E0.03328
G1 X85.007 Y71.438 E0.03550
G1 X84.453 Y70.812 E0.03576
G1 X84.255 Y70.007 E0.03543
G1 X84.393 Y69.255 E0.03270
G1 X85.007 Y68.562 E0.03959
G1 X85.760 Y68.277 E0.03443
G1 X86.618 Y68.365 E0.03685
G1 X87.308 Y68.841 E0.03585
G1 X87.669 Y69.529 E0.03319
G1 X88.081 Y69.693 F7800.000
G1 X85.644 Y66.622 F7800.000
G1 F600
G1 X104.452 Y66.642 E0.80411
G1 X105.050 Y66.769 E0.02615
G1 X105.698 Y67.058 E0.03036
G1 X106.273 Y67.476 E0.03036
G1 X106.748 Y68.003 E0.03036
G1 X107.103 Y68.618 E0.03036
G1 X107.323 Y69.294 E0.03036
G1 X107.397 Y70.000 E0.03036
G1 X107.323 Y70.706 E0.03036
G1 X107.114 Y71.350 E0.02894
G1 X106.745 Y72.000 E0.03194
G1 X106.273 Y72.524 E0.03017
G1 X105.698 Y72.942 E0.03036
G1 X105.050 Y73.231 E0.03036
G1 X104.355 Y73.378 E0.03036
G1 X85.645 Y73.378 E0.79996
G1 X84.950 Y73.231 E0.03036
G1 X84.302 Y72.942 E0.03036
G1 X83.727 Y72.524 E0.03036
G1 X83.252 Y71.997 E0.03036
G1 X82.913 Y71.410 E0.02894
G1 X82.677 Y70.702 E0.03194
G1 X82.603 Y70.000 E0.03017
G1 X82.677 Y69.294 E0.03036
G1 X82.897 Y68.618 E0.03036
G1 X83.252 Y68.003 E0.03036
G1 X83.727 Y67.476 E0.03036
G1 X84.302 Y67.058 E0.03036
G1 X84.950 Y66.769 E0.03036
G1 X85.586 Y66.634 E0.02777
G1 X85.600 Y66.193 F7800.000
G1 F600
G1 X104.497 Y66.214 E0.80796
G1 X105.183 Y66.360 E0.02999
G1 X105.914 Y66.685 E0.03421
G1 X106.561 Y67.155 E0.03421
G1 X107.097 Y67.750 E0.03421
G1 X107.497 Y68.443 E0.03421
G1 X107.744 Y69.204 E0.03421
G1 X107.828 Y70.000 E0.03421
G1 X107.744 Y70.796 E0.03421
G1 X107.508 Y71.524 E0.03272
G1 X107.095 Y72.252 E0.03579
G1 X106.561 Y72.845 E0.03410
G1 X105.914 Y73.315 E0.03421
G1 X105.183 Y73.640 E0.03421
G1 X104.400 Y73.807 E0.03422
G1 X85.600 Y73.807 E0.80381
G1 X84.817 Y73.640 E0.03422
G1 X84.086 Y73.315 E0.03421
G1 X83.439 Y72.845 E0.03421
G1 X82.903 Y72.250 E0.03421
G1 X82.521 Y71.587 E0.03272
G1 X82.256 Y70.793 E0.03579
G1 X82.172 Y70.000 E0.03410
G1 X82.256 Y69.204 E0.03421
G1 X82.503 Y68.443 E0.03421
G1 X82.903 Y67.750 E0.03421
G1 X83.439 Y67.155 E0.03421
G1 X84.086 Y66.685 E0.03421
G1 X84.817 Y66.360 E0.03421
G1 X85.541 Y66.206 E0.03163
G1 X85.555 Y65.765 F7800.000
G1 F600
G1 X104.542 Y65.785 E0.81182
G1 X105.316 Y65.950 E0.03383
G1 X106.129 Y66.312 E0.03806
G1 X106.850 Y66.835 E0.03807
G1 X107.445 Y67.497 E0.03807
G1 X107.891 Y68.268 E0.03807
G1 X108.166 Y69.115 E0.03806
G1 X108.259 Y70.000 E0.03807
G1 X108.166 Y70.885 E0.03807
G1 X107.902 Y71.697 E0.03650
G1 X107.445 Y72.504 E0.03964
G1 X106.850 Y73.165 E0.03802
G1 X106.129 Y73.688 E0.03807
G1 X105.316 Y74.050 E0.03806
G1 X104.445 Y74.235 E0.03807
G1 X85.555 Y74.235 E0.80766
G1 X84.684 Y74.050 E0.03807
G1 X83.871 Y73.688 E0.03806
G1 X83.150 Y73.165 E0.03807
G1 X82.555 Y72.503 E0.03807
G1 X82.128 Y71.764 E0.03650
G1 X81.834 Y70.884 E0.03964
G1 X81.741 Y70.000 E0.03802
G1 X81.834 Y69.115 E0.03807
G1 X82.109 Y68.268 E0.03806
G1 X82.555 Y67.497 E0.03807
G1 X83.150 Y66.835 E0.03807
G1 X83.871 Y66.312 E0.03807
G1 X84.684 Y65.950 E0.03806
G1 X85.496 Y65.777 E0.03550
G1 X85.790 Y66.088 F7800.000
G1 X85.635 Y67.016 F7800.000
G1 F900
G1 X85.320 Y67.100 E0.00938
G1 F900
G1 X85.080 Y67.170 E0.00890
G1 X84.414 Y67.456 E0.02590
G1 F900
G1 X84.262 Y67.549 E0.00525
G1 X84.004 Y67.783 E0.01028
G1 F900
G1 X83.588 Y68.248 E0.02161
G1 X83.385 Y68.529 E0.01203
G1 F900
G1 X83.247 Y68.741 E0.00700
G1 X83.159 Y69.074 E0.00956
G1 F900
G1 X83.081 Y69.380 E0.01073
G1 X82.991 Y70.009 E0.02166
G1 F900
G1 X83.043 Y70.346 E0.00989
G1 F900
G1 X83.089 Y70.613 E0.00968
G1 X83.273 Y71.248 E0.02371
G1 F900
G1 X83.357 Y71.431 E0.00611
G1 X83.588 Y71.752 E0.01209
G1 X84.004 Y72.217 E0.01901
G1 X84.262 Y72.451 E0.01063
G1 X84.503 Y72.592 E0.00853
G1 F900
G1 X85.080 Y72.830 E0.02228
G1 X85.567 Y72.973 E0.01812
G1 F900
G1 X85.686 Y72.989 E0.00340
G1 F900
G1 X87.065 Y72.938 E0.04699
G1 X87.239 Y72.404 F7800.000
G1 F600
G1 X87.893 Y73.057 E0.04007
G1 X88.507 Y73.057 E0.02665
G1 X87.741 Y72.291 E0.04697
G1 X88.105 Y72.040 E0.01916
G1 X89.122 Y73.057 E0.06236
G1 X89.736 Y73.057 E0.02665
G1 X88.363 Y71.684 E0.08422
G1 X88.575 Y71.281 E0.01974
G1 X90.351 Y73.057 E0.10894
G1 X90.966 Y73.057 E0.02665
G1 X88.786 Y70.878 E0.13365
G1 X88.875 Y70.709 E0.00828
G1 X88.875 Y70.352 E0.01548
G1 X91.580 Y73.057 E0.16590
G1 X92.195 Y73.057 E0.02665
G1 X88.875 Y69.737 E0.20359
G1 X88.875 Y69.291 E0.01932
G1 X88.688 Y68.936 E0.01741
G1 X93.002 Y73.250 E0.26455
G1 X87.203 Y66.837 F7800.000
G1 F600
G1 X93.424 Y73.057 E0.38147
G1 X94.038 Y73.057 E0.02665
G1 X87.927 Y66.946 E0.37478
G1 X88.542 Y66.946 E0.02668
G1 X94.653 Y73.057 E0.37474
G1 X95.268 Y73.057 E0.02665
G1 X89.158 Y66.947 E0.37470
G1 X89.773 Y66.948 E0.02668
G1 X95.882 Y73.057 E0.37466
G1 X96.497 Y73.057 E0.02665
G1 X90.388 Y66.948 E0.37461
G1 X91.003 Y66.949 E0.02668
G1 X97.111 Y73.057 E0.37457
G1 X97.726 Y73.057 E0.02665
G1 X91.619 Y66.950 E0.37453
G1 X92.234 Y66.950 E0.02668
G1 X98.341 Y73.057 E0.37449
G1 X98.955 Y73.057 E0.02665
G1 X92.849 Y66.951 E0.37445
G1 X93.464 Y66.952 E0.02668
G1 X99.570 Y73.057 E0.37441
G1 X100.184 Y73.057 E0.02665
G1 X94.080 Y66.952 E0.37437
G1 X94.695 Y66.953 E0.02668
G1 X100.799 Y73.057 E0.37433
G1 X101.414 Y73.057 E0.02665
G1 X95.310 Y66.954 E0.37429
G1 X95.925 Y66.954 E0.02668
G1 X102.028 Y73.057 E0.37425
G1 X102.612 Y73.057 E0.02531
G1 X102.614 Y73.028 E0.00127
G1 X96.541 Y66.955 E0.37242
G1 X97.156 Y66.956 E0.02668
G1 X101.371 Y71.171 E0.25849
G1 X101.125 Y70.722 E0.02219
G1 X101.125 Y70.310 E0.01785
G1 X97.771 Y66.956 E0.20569
G1 X98.386 Y66.957 E0.02668
