; generated by Slic3r 1.33.3-prusa3d-win64 on 2017-05-21 at 16:57:36

; external perimeters extrusion width = 0.40mm
; perimeters extrusion width = 0.48mm
; infill extrusion width = 0.48mm
; solid infill extrusion width = 0.48mm
; top infill extrusion width = 0.48mm
; support material extrusion width = 0.40mm

M104 S185 ; set temperature
G28 ; home all axes
G1 Z5 F5000 ; lift nozzle

M109 S185 ; set temperature and wait for it to be reached
G21 ; set units to millimeters
G90 ; use absolute coordinates
M83 ; use relative distances for extrusion
G1 Z0.240 F7800.000
G1 X79.814 Y62.629 F7800.000
;G1 F1800 ; replaced by represure
G1 X79.814 Y62.629 E0.5 F600; long travel extraShot
G1 X80.715 Y61.629 E0.05755
G1 X81.252 Y61.120 E0.03163
G1 X81.622 Y60.824 E0.02024
G1 X82.527 Y60.166 E0.04787
G1 X83.169 Y59.758 E0.03249
G1 X83.787 Y59.447 E0.02959
G1 X84.781 Y59.006 E0.04649
G1 X85.286 Y58.815 E0.02309
G1 X85.985 Y58.618 E0.03106
G1 X87.448 Y58.320 E0.06383
G1 X87.971 Y58.261 E0.02252
G1 X88.497 Y58.239 E0.02252
G1 X101.799 Y58.263 E0.56872
G1 X102.391 Y58.306 E0.02537
G1 X102.977 Y58.397 E0.02537
G1 X104.152 Y58.651 E0.05140
G1 X104.873 Y58.871 E0.03220
G1 X105.276 Y59.030 E0.01853
G1 X106.304 Y59.489 E0.04815
G1 X106.965 Y59.836 E0.03192
G1 X107.419 Y60.128 E0.02309
G1 X108.326 Y60.785 E0.04787
G1 X108.919 Y61.271 E0.03277
G1 X109.318 Y61.664 E0.02394
G1 X110.059 Y62.485 E0.04730
G1 X110.525 Y63.060 E0.03163
G1 X110.934 Y63.684 E0.03192
G1 X111.486 Y64.643 E0.04729
G1 X111.727 Y65.119 E0.02280
G1 X112.021 Y65.862 E0.03420
G1 X112.371 Y66.940 E0.04845
G1 X112.509 Y67.462 E0.02309
G1 X112.638 Y68.218 E0.03277
G1 X112.755 Y69.338 E0.04816
G1 X112.783 Y69.804 E0.01995
G1 X112.758 Y70.637 E0.03562
G1 X112.638 Y71.783 E0.04927
G1 X112.571 Y72.231 E0.01938
G1 X112.393 Y72.984 E0.03306
G1 X111.974 Y74.273 E0.05796
G1 X111.782 Y74.749 E0.02195
G1 X111.558 Y75.211 E0.02195
G1 X110.932 Y76.318 E0.05438
G1 X110.647 Y76.769 E0.02280
G1 X110.387 Y77.124 E0.01881
G1 X110.101 Y77.468 E0.01910
G1 X109.321 Y78.332 E0.04978
G1 X108.908 Y78.739 E0.02480
G1 X108.437 Y79.131 E0.02622
G1 X107.505 Y79.811 E0.04930
G1 X107.140 Y80.057 E0.01881
G1 X106.767 Y80.277 E0.01853
G1 X106.303 Y80.512 E0.02223
G1 X105.170 Y81.014 E0.05300
G1 X104.689 Y81.193 E0.02195
G1 X104.196 Y81.338 E0.02195
G1 X102.664 Y81.662 E0.06696
G1 X102.168 Y81.727 E0.02138
G1 X101.669 Y81.758 E0.02138
G1 X88.450 Y81.760 E0.56521
G1 X87.811 Y81.725 E0.02736
G1 X87.177 Y81.634 E0.02736
G1 X85.874 Y81.355 E0.05699
G1 X85.140 Y81.134 E0.03277
G1 X84.718 Y80.967 E0.01938
G1 X83.641 Y80.486 E0.05043
G1 X83.243 Y80.283 E0.01910
G1 X82.858 Y80.056 E0.01910
G1 X82.494 Y79.810 E0.01881
G1 X81.452 Y79.044 E0.05528
G1 X81.032 Y78.684 E0.02366
G1 X80.637 Y78.287 E0.02394
G1 X79.844 Y77.405 E0.05072
G1 X79.475 Y76.940 E0.02537
G1 X79.138 Y76.436 E0.02594
G1 X78.560 Y75.439 E0.04928
G1 X78.310 Y74.960 E0.02309
G1 X78.096 Y74.464 E0.02309
G1 X77.603 Y72.970 E0.06726
G1 X77.474 Y72.459 E0.02252
G1 X77.382 Y71.934 E0.02280
G1 X77.246 Y70.682 E0.05386
G1 X77.217 Y70.176 E0.02166
G1 X77.219 Y69.736 E0.01881
G1 X77.249 Y69.297 E0.01881
G1 X77.371 Y68.144 E0.04956
G1 X77.470 Y67.559 E0.02537
G1 X77.620 Y66.971 E0.02594
G1 X77.975 Y65.874 E0.04930
G1 X78.126 Y65.461 E0.01881
G1 X78.302 Y65.057 E0.01881
G1 X78.537 Y64.601 E0.02195
G1 X79.163 Y63.523 E0.05330
G1 X79.452 Y63.091 E0.02223
;G1 X79.776 Y62.675 E0.02252 ; replaced by coast
G1 X79.776 Y62.675 Z0.24 E-0.0263643698958; coast(0.527287397915) & retract
G1 X79.776 Y62.675 Z0.24 E-0.3; & endwipe
G1 X80.136 Y62.913 F7800.000
;G1 F1800 ; replaced by represure
G1 X80.136 Y62.913 E0.326364369896 F600; tipRepresure
G1 X81.016 Y61.935 E0.05625
G1 X81.522 Y61.453 E0.02986
G1 X81.880 Y61.166 E0.01963
G1 X82.772 Y60.518 E0.04714
G1 X83.378 Y60.132 E0.03069
G1 X83.838 Y59.895 E0.02212
G1 X84.820 Y59.456 E0.04603
G1 X85.429 Y59.219 E0.02793
G1 X86.083 Y59.035 E0.02903
G1 X87.518 Y58.743 E0.06261
G1 X88.006 Y58.688 E0.02102
G1 X88.504 Y58.668 E0.02129
G1 X101.772 Y58.691 E0.56731
G1 X102.327 Y58.731 E0.02378
G1 X102.877 Y58.815 E0.02378
G1 X104.024 Y59.061 E0.05017
G1 X104.687 Y59.259 E0.02958
G1 X105.097 Y59.420 E0.01881
G1 X106.104 Y59.868 E0.04713
G1 X106.729 Y60.194 E0.03014
G1 X107.170 Y60.477 E0.02240
G1 X108.057 Y61.120 E0.04686
G1 X108.614 Y61.573 E0.03069
G1 X109.107 Y62.068 E0.02986
G1 X109.835 Y62.878 E0.04658
G1 X110.173 Y63.304 E0.02323
G1 X110.559 Y63.893 E0.03014
G1 X111.107 Y64.842 E0.04685
G1 X111.330 Y65.280 E0.02102
G1 X111.614 Y65.995 E0.03290
G1 X111.958 Y67.057 E0.04770
G1 X112.089 Y67.550 E0.02185
G1 X112.212 Y68.264 E0.03096
G1 X112.328 Y69.367 E0.04742
G1 X112.354 Y69.800 E0.01853
G1 X112.332 Y70.588 E0.03373
G1 X112.213 Y71.723 E0.04877
G1 X112.151 Y72.145 E0.01825
G1 X111.984 Y72.857 E0.03124
G1 X111.584 Y74.091 E0.05549
G1 X111.400 Y74.554 E0.02129
G1 X111.183 Y75.002 E0.02129
G1 X110.564 Y76.099 E0.05384
G1 X110.301 Y76.515 E0.02102
G1 X110.054 Y76.854 E0.01798
G1 X109.786 Y77.178 E0.01798
G1 X109.015 Y78.032 E0.04919
G1 X108.628 Y78.414 E0.02323
G1 X108.176 Y78.791 E0.02516
G1 X107.254 Y79.463 E0.04880
G1 X106.560 Y79.902 E0.03511
G1 X106.121 Y80.124 E0.02102
G1 X105.001 Y80.620 E0.05239
G1 X104.546 Y80.789 E0.02074
G1 X104.075 Y80.927 E0.02102
G1 X102.597 Y81.239 E0.06455
G1 X102.123 Y81.301 E0.02046
G1 X101.651 Y81.330 E0.02019
G1 X88.465 Y81.332 E0.56380
G1 X87.864 Y81.300 E0.02572
G1 X87.269 Y81.215 E0.02572
G1 X85.994 Y80.944 E0.05571
G1 X85.325 Y80.745 E0.02986
G1 X84.897 Y80.578 E0.01963
G1 X83.843 Y80.108 E0.04935
G1 X83.468 Y79.918 E0.01798
G1 X83.105 Y79.705 E0.01798
G1 X82.751 Y79.467 E0.01825
G1 X81.732 Y78.720 E0.05404
G1 X81.334 Y78.379 E0.02240
G1 X80.963 Y78.009 E0.02240
G1 X80.174 Y77.131 E0.05046
G1 X79.823 Y76.691 E0.02406
G1 X79.504 Y76.213 E0.02461
G1 X78.938 Y75.237 E0.04823
G1 X78.698 Y74.778 E0.02212
G1 X78.496 Y74.309 E0.02185
G1 X78.020 Y72.869 E0.06484
G1 X77.895 Y72.380 E0.02157
G1 X77.806 Y71.877 E0.02185
G1 X77.673 Y70.646 E0.05295
G1 X77.645 Y70.174 E0.02019
G1 X77.674 Y69.347 E0.03538
G1 X77.795 Y68.207 E0.04905
G1 X77.887 Y67.658 E0.02378
G1 X78.031 Y67.094 E0.02489
G1 X78.380 Y66.014 E0.04853
G1 X78.684 Y65.251 E0.03511
G1 X78.909 Y64.814 E0.02102
G1 X79.521 Y63.760 E0.05213
G1 X79.793 Y63.351 E0.02102
;G1 X80.097 Y62.958 E0.02122 ; replaced by coast
G1 X80.097 Y62.958 Z0.24 E-0.0248427554832; coast(0.496855109665) & retract
G1 X80.097 Y62.958 Z0.24 E-0.3; & endwipe
G1 X80.451 Y63.204 F7800.000
;G1 F1800 ; replaced by represure
G1 X80.451 Y63.204 E0.324842755483 F600; tipRepresure
G1 X81.318 Y62.239 E0.05546
G1 X81.793 Y61.785 E0.02811
G1 X82.135 Y61.511 E0.01874
G1 X83.017 Y60.869 E0.04664
G1 X83.582 Y60.509 E0.02864
G1 X84.135 Y60.230 E0.02649
G1 X85.104 Y59.800 E0.04531
G1 X85.567 Y59.625 E0.02115
G1 X86.188 Y59.451 E0.02757
G1 X87.587 Y59.166 E0.06109
G1 X88.048 Y59.114 E0.01981
G1 X88.511 Y59.096 E0.01981
G1 X101.753 Y59.119 E0.56616
G1 X102.265 Y59.155 E0.02196
G1 X102.779 Y59.232 E0.02222
G1 X103.898 Y59.471 E0.04892
G1 X104.505 Y59.649 E0.02704
G1 X104.920 Y59.810 E0.01901
G1 X105.910 Y60.251 E0.04637
G1 X106.500 Y60.556 E0.02838
G1 X106.927 Y60.830 E0.02169
G1 X107.800 Y61.462 E0.04610
G1 X108.315 Y61.881 E0.02838
G1 X108.780 Y62.345 E0.02811
G1 X109.501 Y63.147 E0.04610
G1 X109.821 Y63.549 E0.02196
G1 X110.183 Y64.098 E0.02811
G1 X110.725 Y65.037 E0.04636
G1 X110.930 Y65.438 E0.01928
G1 X111.203 Y66.118 E0.03132
G1 X111.546 Y67.173 E0.04745
G1 X111.669 Y67.633 E0.02035
G1 X111.785 Y68.306 E0.02918
G1 X111.925 Y69.797 E0.06404
G1 X111.905 Y70.548 E0.03212
G1 X111.731 Y72.060 E0.06508
G1 X111.574 Y72.731 E0.02945
G1 X111.195 Y73.906 E0.05280
G1 X111.019 Y74.355 E0.02062
G1 X110.811 Y74.790 E0.02062
G1 X110.199 Y75.875 E0.05325
G1 X109.955 Y76.261 E0.01955
G1 X109.468 Y76.890 E0.03399
G1 X108.708 Y77.733 E0.04856
G1 X108.347 Y78.090 E0.02169
G1 X107.915 Y78.452 E0.02410
G1 X107.008 Y79.113 E0.04797
G1 X106.358 Y79.525 E0.03292
G1 X105.939 Y79.736 E0.02008
G1 X104.844 Y80.222 E0.05118
G1 X104.410 Y80.383 E0.01981
G1 X103.959 Y80.514 E0.02008
G1 X102.530 Y80.816 E0.06243
G1 X102.083 Y80.875 E0.01928
G1 X101.633 Y80.902 E0.01928
G1 X88.473 Y80.904 E0.56265
G1 X87.917 Y80.875 E0.02383
G1 X87.359 Y80.796 E0.02410
G1 X86.120 Y80.533 E0.05413
G1 X85.507 Y80.355 E0.02731
G1 X85.080 Y80.190 E0.01955
G1 X84.044 Y79.728 E0.04851
G1 X83.356 Y79.356 E0.03346
G1 X83.012 Y79.127 E0.01767
G1 X82.015 Y78.398 E0.05279
G1 X81.639 Y78.077 E0.02115
G1 X81.288 Y77.729 E0.02115
G1 X80.503 Y76.857 E0.05012
G1 X80.171 Y76.441 E0.02276
G1 X79.869 Y75.988 E0.02329
G1 X79.316 Y75.034 E0.04716
G1 X79.088 Y74.601 E0.02088
G1 X78.897 Y74.159 E0.02062
G1 X78.438 Y72.773 E0.06244
G1 X78.317 Y72.306 E0.02062
G1 X78.232 Y71.825 E0.02088
G1 X78.100 Y70.609 E0.05227
G1 X78.074 Y70.172 E0.01874
G1 X78.101 Y69.390 E0.03346
G1 X78.219 Y68.268 E0.04822
G1 X78.303 Y67.762 E0.02196
G1 X78.440 Y67.221 E0.02383
G1 X78.783 Y66.159 E0.04771
G1 X79.064 Y65.449 E0.03265
G1 X79.282 Y65.026 E0.02035
G1 X79.879 Y63.995 E0.05093
G1 X80.131 Y63.614 E0.01955
;G1 X80.412 Y63.250 E0.01966 ; replaced by coast
G1 X80.412 Y63.25 Z0.24 E-0.0229922269474; coast(0.459844538948) & retract
G1 X80.412 Y63.25 Z0.24 E-0.3; & endwipe
G1 X98.447 Y69.371 F7800.000
;G1 F300 ; replaced by represure
G1 X98.447 Y69.371 E0.322992226947 F600; tipRepresure
G1 X99.032 Y68.256 E0.05382
G1 X100.146 Y67.487 E0.05788
G1 X101.305 Y67.404 E0.04968
G1 X102.487 Y67.828 E0.05371
G1 X103.329 Y68.778 E0.05426
G1 X103.630 Y70.000 E0.05382
G1 X103.329 Y71.222 E0.05382
G1 X102.494 Y72.164 E0.05382
G1 X101.317 Y72.611 E0.05382
G1 X100.067 Y72.459 E0.05382
G1 X99.064 Y71.766 E0.05214
G1 X98.447 Y70.640 E0.05491
;G1 X98.447 Y69.431 E0.05170 ; replaced by coast
G1 X98.447 Y69.431 Z0.24 E-0.06045; coast(1.209) & retract
G1 X98.447 Y69.431 Z0.24 E-0.3; & endwipe
G1 X98.875 Y69.476 F7800.000
;G1 F300 ; replaced by represure
G1 X98.875 Y69.476 E0.36045 F600; tipRepresure
G1 X99.362 Y68.549 E0.04479
G1 X100.293 Y67.906 E0.04837
G1 X101.245 Y67.837 E0.04082
G1 X102.239 Y68.194 E0.04515
G1 X102.938 Y68.983 E0.04506
G1 X103.189 Y70.000 E0.04479
G1 X102.938 Y71.017 E0.04479
G1 X102.243 Y71.801 E0.04479
G1 X101.264 Y72.173 E0.04479
G1 X100.224 Y72.046 E0.04479
G1 X99.391 Y71.471 E0.04329
G1 X98.875 Y70.530 E0.04588
;G1 X98.875 Y69.536 E0.04249 ; replaced by coast
G1 X98.875 Y69.536 Z0.24 E-0.0497; coast(0.994) & retract
G1 X98.875 Y69.536 Z0.24 E-0.3; & endwipe
G1 X99.304 Y69.582 F7800.000
;G1 F300 ; replaced by represure
G1 X99.304 Y69.582 E0.3497 F600; tipRepresure
G1 X99.692 Y68.841 E0.03575
G1 X100.440 Y68.325 E0.03886
G1 X101.186 Y68.271 E0.03195
G1 X101.991 Y68.560 E0.03658
G1 X102.547 Y69.188 E0.03585
G1 X102.747 Y70.000 E0.03575
G1 X102.547 Y70.812 E0.03575
G1 X101.993 Y71.438 E0.03575
G1 X101.211 Y71.734 E0.03575
G1 X100.380 Y71.634 E0.03575
G1 X99.718 Y71.176 E0.03443
G1 X99.304 Y70.420 E0.03685
;G1 X99.304 Y69.642 E0.03329 ; replaced by coast
G1 X99.304 Y69.642 Z0.24 E-0.0389; coast(0.778) & retract
G1 X99.304 Y69.642 Z0.24 E-0.3; & endwipe
G1 X99.014 Y69.306 F7800.000
G1 X91.553 Y69.371 F7800.000
;G1 F300 ; replaced by represure
G1 X91.553 Y69.371 E0.3389 F600; tipRepresure
G1 X91.553 Y70.629 E0.05382
G1 X90.968 Y71.744 E0.05382
G1 X89.855 Y72.512 E0.05782
G1 X88.658 Y72.601 E0.05135
G1 X87.506 Y72.164 E0.05266
G1 X86.671 Y71.222 E0.05382
G1 X86.370 Y70.000 E0.05382
G1 X86.671 Y68.778 E0.05382
G1 X87.506 Y67.836 E0.05382
G1 X88.646 Y67.403 E0.05214
G1 X89.924 Y67.535 E0.05491
G1 X90.968 Y68.256 E0.05426
;G1 X91.526 Y69.318 E0.05125 ; replaced by coast
G1 X91.526 Y69.318 Z0.24 E-0.0599834977306; coast(1.19966995461) & retract
G1 X91.526 Y69.318 Z0.24 E-0.3; & endwipe
G1 X91.125 Y69.476 F7800.000
;G1 F300 ; replaced by represure
G1 X91.125 Y69.476 E0.359983497731 F600; tipRepresure
G1 X91.125 Y70.524 E0.04479
G1 X90.638 Y71.451 E0.04479
G1 X89.708 Y72.093 E0.04834
G1 X88.721 Y72.167 E0.04231
G1 X87.757 Y71.801 E0.04408
G1 X87.062 Y71.017 E0.04479
G1 X86.811 Y70.000 E0.04479
G1 X87.062 Y68.983 E0.04479
G1 X87.757 Y68.199 E0.04479
G1 X88.703 Y67.840 E0.04329
G1 X89.771 Y67.950 E0.04588
G1 X90.638 Y68.549 E0.04506
;G1 X91.097 Y69.423 E0.04222 ; replaced by coast
G1 X91.097 Y69.423 Z0.24 E-0.0493598267825; coast(0.98719653565) & retract
G1 X91.097 Y69.423 Z0.24 E-0.3; & endwipe
G1 X90.696 Y69.582 F7800.000
;G1 F300 ; replaced by represure
G1 X90.696 Y69.582 E0.349359826783 F600; tipRepresure
G1 X90.696 Y70.418 E0.03575
G1 X90.308 Y71.159 E0.03575
G1 X89.560 Y71.675 E0.03885
G1 X88.784 Y71.732 E0.03328
G1 X88.007 Y71.438 E0.03550
G1 X87.453 Y70.812 E0.03575
G1 X87.253 Y70.000 E0.03575
G1 X87.453 Y69.188 E0.03575
G1 X88.007 Y68.562 E0.03575
G1 X88.760 Y68.277 E0.03443
G1 X89.618 Y68.365 E0.03685
G1 X90.308 Y68.841 E0.03585
;G1 X90.669 Y69.529 E0.03319 ; replaced by coast
G1 X90.669 Y69.529 Z0.24 E-0.0388479407434; coast(0.776958814867) & retract
G1 X90.669 Y69.529 Z0.24 E-0.3; & endwipe
G1 X91.081 Y69.693 F7800.000
G1 X88.644 Y66.622 F7800.000
;G1 F600 ; replaced by represure
G1 X88.644 Y66.622 E0.338847940743 F600; tipRepresure
G1 X101.451 Y66.642 E0.54758
G1 X102.050 Y66.769 E0.02616
G1 X102.698 Y67.058 E0.03036
G1 X103.273 Y67.476 E0.03036
G1 X103.748 Y68.003 E0.03036
G1 X104.103 Y68.618 E0.03036
G1 X104.323 Y69.294 E0.03036
G1 X104.397 Y70.000 E0.03036
G1 X104.323 Y70.706 E0.03036
G1 X104.114 Y71.350 E0.02894
G1 X103.745 Y72.000 E0.03194
G1 X103.273 Y72.524 E0.03017
G1 X102.698 Y72.942 E0.03036
G1 X102.050 Y73.231 E0.03036
G1 X101.355 Y73.378 E0.03036
G1 X88.645 Y73.378 E0.54343
G1 X87.950 Y73.231 E0.03036
G1 X87.302 Y72.942 E0.03036
G1 X86.727 Y72.524 E0.03036
G1 X86.252 Y71.997 E0.03036
G1 X85.897 Y71.382 E0.03036
G1 X85.677 Y70.706 E0.03036
G1 X85.603 Y70.000 E0.03036
G1 X85.677 Y69.294 E0.03036
G1 X85.897 Y68.618 E0.03036
G1 X86.252 Y68.003 E0.03036
G1 X86.727 Y67.476 E0.03036
G1 X87.302 Y67.058 E0.03036
G1 X87.950 Y66.769 E0.03036
;G1 X88.585 Y66.634 E0.02776 ; replaced by coast
G1 X88.585 Y66.634 Z0.24 E-0.0324595902624; coast(0.649191805247) & retract
G1 X88.585 Y66.634 Z0.24 E-0.3; & endwipe
G1 X88.599 Y66.193 F7800.000
;G1 F600 ; replaced by represure
G1 X88.599 Y66.193 E0.332459590262 F600; tipRepresure
G1 X101.497 Y66.214 E0.55143
G1 X102.183 Y66.360 E0.02999
G1 X102.914 Y66.685 E0.03421
G1 X103.561 Y67.155 E0.03421
G1 X104.097 Y67.750 E0.03421
G1 X104.497 Y68.443 E0.03422
G1 X104.744 Y69.204 E0.03421
G1 X104.828 Y70.000 E0.03421
G1 X104.744 Y70.796 E0.03421
G1 X104.508 Y71.524 E0.03272
G1 X104.095 Y72.252 E0.03579
G1 X103.561 Y72.845 E0.03410
G1 X102.914 Y73.315 E0.03421
G1 X102.183 Y73.640 E0.03421
G1 X101.400 Y73.807 E0.03421
G1 X88.600 Y73.807 E0.54728
G1 X87.817 Y73.640 E0.03421
G1 X87.086 Y73.315 E0.03421
G1 X86.439 Y72.845 E0.03421
G1 X85.903 Y72.250 E0.03421
G1 X85.503 Y71.557 E0.03422
G1 X85.256 Y70.796 E0.03421
G1 X85.172 Y70.000 E0.03421
G1 X85.256 Y69.204 E0.03421
G1 X85.503 Y68.443 E0.03421
G1 X85.903 Y67.750 E0.03422
G1 X86.439 Y67.155 E0.03421
G1 X87.086 Y66.685 E0.03421
G1 X87.817 Y66.360 E0.03421
;G1 X88.541 Y66.206 E0.03163 ; replaced by coast
G1 X88.541 Y66.206 Z0.24 E-0.0370098635501; coast(0.740197271003) & retract
G1 X88.541 Y66.206 Z0.24 E-0.3; & endwipe
G1 X88.555 Y65.765 F7800.000
;G1 F600 ; replaced by represure
G1 X88.555 Y65.765 E0.33700986355 F600; tipRepresure
G1 X101.542 Y65.785 E0.55528
G1 X102.316 Y65.950 E0.03383
G1 X103.129 Y66.312 E0.03807
G1 X103.850 Y66.835 E0.03807
G1 X104.445 Y67.497 E0.03807
G1 X104.891 Y68.268 E0.03807
G1 X105.166 Y69.115 E0.03806
G1 X105.259 Y70.000 E0.03807
G1 X105.166 Y70.885 E0.03807
G1 X104.902 Y71.697 E0.03650
G1 X104.445 Y72.504 E0.03964
G1 X103.850 Y73.165 E0.03802
G1 X103.129 Y73.688 E0.03807
G1 X102.316 Y74.050 E0.03807
G1 X101.445 Y74.235 E0.03807
G1 X88.555 Y74.235 E0.55113
G1 X87.684 Y74.050 E0.03807
G1 X86.871 Y73.688 E0.03807
G1 X86.150 Y73.165 E0.03807
G1 X85.555 Y72.503 E0.03807
G1 X85.109 Y71.732 E0.03807
G1 X84.834 Y70.885 E0.03806
G1 X84.741 Y70.000 E0.03807
G1 X84.834 Y69.115 E0.03807
G1 X85.109 Y68.268 E0.03806
G1 X85.555 Y67.497 E0.03807
G1 X86.150 Y66.835 E0.03807
