; generated by Slic3r 1.33.3-prusa3d-win64 on 2017-05-21 at 16:06:37

; external perimeters extrusion width = 0.40mm
; perimeters extrusion width = 0.48mm
; infill extrusion width = 0.48mm
; solid infill extrusion width = 0.48mm
; top infill extrusion width = 0.48mm
; support material extrusion width = 0.40mm

M104 S185 ; set temperature
G28 ; home all axes
G1 Z5 F5000 ; lift nozzle

M109 S185 ; set temperature and wait for it to be reached
G21 ; set units to millimeters
G90 ; use absolute coordinates
M83 ; use relative distances for extrusion
G1 Z0.240 F7800.000
G1 X50.047 Y60.881 F7800.000
G1 F1800
G1 X51.093 Y60.120 E0.05528
G1 X51.640 Y59.775 E0.02765
G1 X52.191 Y59.491 E0.02651
G1 X53.460 Y58.934 E0.05926
G1 X53.868 Y58.788 E0.01853
G1 X54.278 Y58.669 E0.01824
G1 X55.554 Y58.390 E0.05585
G1 X56.179 Y58.289 E0.02708
G1 X56.804 Y58.243 E0.02679
G1 X133.015 Y58.247 E3.25842
G1 X133.846 Y58.295 E0.03562
G1 X134.380 Y58.378 E0.02309
G1 X135.438 Y58.601 E0.04623
G1 X136.165 Y58.799 E0.03220
G1 X136.702 Y58.999 E0.02451
G1 X137.713 Y59.447 E0.04730
G1 X138.373 Y59.782 E0.03163
G1 X139.012 Y60.194 E0.03249
G1 X139.911 Y60.849 E0.04758
G1 X140.339 Y61.200 E0.02366
G1 X140.877 Y61.727 E0.03220
G1 X141.626 Y62.560 E0.04787
G1 X141.929 Y62.931 E0.02052
G1 X142.400 Y63.627 E0.03590
G1 X142.976 Y64.625 E0.04929
G1 X143.213 Y65.088 E0.02223
G1 X143.502 Y65.805 E0.03306
G1 X143.855 Y66.889 E0.04873
G1 X143.970 Y67.300 E0.01824
G1 X144.128 Y68.138 E0.03647
G1 X144.280 Y69.724 E0.06811
G1 X144.268 Y70.504 E0.03334
G1 X144.139 Y71.776 E0.05468
G1 X144.029 Y72.447 E0.02907
G1 X143.855 Y73.112 E0.02936
G1 X143.439 Y74.367 E0.05653
G1 X143.269 Y74.780 E0.01910
G1 X143.073 Y75.181 E0.01910
G1 X142.395 Y76.381 E0.05894
G1 X142.008 Y76.964 E0.02992
G1 X141.593 Y77.478 E0.02822
G1 X140.867 Y78.283 E0.04636
G1 X140.559 Y78.597 E0.01881
G1 X139.979 Y79.099 E0.03277
G1 X138.907 Y79.880 E0.05671
G1 X138.366 Y80.222 E0.02736
G1 X137.797 Y80.515 E0.02736
G1 X136.652 Y81.022 E0.05356
G1 X135.979 Y81.259 E0.03049
G1 X135.515 Y81.382 E0.02052
G1 X134.453 Y81.608 E0.04644
G1 X133.788 Y81.715 E0.02879
G1 X132.976 Y81.761 E0.03477
G1 X57.030 Y81.761 E3.24712
G1 X56.198 Y81.713 E0.03562
G1 X55.618 Y81.623 E0.02508
G1 X54.322 Y81.343 E0.05671
G1 X53.740 Y81.169 E0.02594
G1 X53.169 Y80.946 E0.02622
G1 X52.081 Y80.457 E0.05101
G1 X51.472 Y80.126 E0.02964
G1 X51.064 Y79.860 E0.02081
G1 X50.207 Y79.238 E0.04530
G1 X49.731 Y78.862 E0.02594
G1 X49.219 Y78.375 E0.03021
G1 X48.382 Y77.448 E0.05339
G1 X48.016 Y76.990 E0.02508
G1 X47.687 Y76.504 E0.02508
G1 X47.033 Y75.391 E0.05521
G1 X46.747 Y74.825 E0.02708
G1 X46.510 Y74.231 E0.02736
G1 X46.116 Y73.015 E0.05465
G1 X45.973 Y72.453 E0.02480
G1 X45.874 Y71.881 E0.02480
G1 X45.739 Y70.602 E0.05500
G1 X45.715 Y69.949 E0.02793
G1 X45.744 Y69.350 E0.02565
G1 X45.886 Y68.032 E0.05668
G1 X45.999 Y67.429 E0.02622
G1 X46.161 Y66.838 E0.02622
G1 X46.515 Y65.759 E0.04855
G1 X46.759 Y65.160 E0.02765
G1 X47.016 Y64.655 E0.02423
G1 X47.746 Y63.392 E0.06235
G1 X48.243 Y62.715 E0.03590
G1 X49.102 Y61.751 E0.05520
G1 X49.533 Y61.315 E0.02622
G1 X50.000 Y60.918 E0.02622
G1 X50.303 Y61.225 F7800.000
G1 F1800
G1 X51.330 Y60.477 E0.05433
G1 X51.850 Y60.148 E0.02627
G1 X52.373 Y59.879 E0.02516
G1 X53.607 Y59.336 E0.05764
G1 X54.388 Y59.083 E0.03511
G1 X55.642 Y58.810 E0.05488
G1 X56.229 Y58.715 E0.02544
G1 X56.823 Y58.671 E0.02544
G1 X133.008 Y58.675 E3.25734
G1 X133.770 Y58.718 E0.03262
G1 X134.294 Y58.797 E0.02268
G1 X135.335 Y59.017 E0.04550
G1 X136.022 Y59.203 E0.03041
G1 X136.674 Y59.453 E0.02986
G1 X137.668 Y59.898 E0.04658
G1 X138.151 Y60.148 E0.02323
G1 X138.760 Y60.540 E0.03096
G1 X139.651 Y61.189 E0.04713
G1 X140.056 Y61.521 E0.02240
G1 X140.559 Y62.015 E0.03014
G1 X141.296 Y62.834 E0.04714
G1 X141.584 Y63.185 E0.01936
G1 X142.033 Y63.848 E0.03428
G1 X142.600 Y64.831 E0.04851
G1 X142.821 Y65.263 E0.02074
G1 X143.098 Y65.946 E0.03152
G1 X143.553 Y67.399 E0.06511
G1 X143.703 Y68.194 E0.03455
G1 X143.852 Y69.742 E0.06649
G1 X143.841 Y70.472 E0.03124
G1 X143.716 Y71.697 E0.05264
G1 X143.613 Y72.342 E0.02793
G1 X143.449 Y72.974 E0.02793
G1 X143.041 Y74.206 E0.05549
G1 X142.879 Y74.601 E0.01825
G1 X142.695 Y74.979 E0.01798
G1 X142.031 Y76.155 E0.05771
G1 X141.667 Y76.704 E0.02820
G1 X141.273 Y77.193 E0.02682
G1 X140.550 Y77.995 E0.04615
G1 X140.260 Y78.290 E0.01770
G1 X139.712 Y78.763 E0.03096
G1 X138.659 Y79.531 E0.05571
G1 X138.150 Y79.852 E0.02572
G1 X137.610 Y80.129 E0.02599
G1 X136.495 Y80.623 E0.05211
G1 X135.855 Y80.849 E0.02903
G1 X135.417 Y80.965 E0.01936
G1 X134.358 Y81.190 E0.04630
G1 X133.719 Y81.291 E0.02765
G1 X132.977 Y81.332 E0.03179
G1 X57.030 Y81.332 E3.24716
G1 X56.268 Y81.290 E0.03262
G1 X55.705 Y81.203 E0.02433
G1 X54.438 Y80.930 E0.05543
G1 X53.886 Y80.766 E0.02461
G1 X53.350 Y80.557 E0.02461
G1 X52.279 Y80.077 E0.05018
G1 X51.704 Y79.766 E0.02793
G1 X51.225 Y79.448 E0.02461
G1 X50.375 Y78.830 E0.04492
G1 X50.017 Y78.542 E0.01963
G1 X49.530 Y78.079 E0.02875
G1 X48.707 Y77.169 E0.05244
G1 X48.360 Y76.735 E0.02378
G1 X48.052 Y76.279 E0.02350
G1 X47.411 Y75.189 E0.05410
G1 X47.139 Y74.652 E0.02572
G1 X46.914 Y74.087 E0.02599
G1 X46.531 Y72.906 E0.05308
G1 X46.394 Y72.374 E0.02350
G1 X46.299 Y71.826 E0.02378
G1 X46.167 Y70.568 E0.05406
G1 X46.143 Y69.954 E0.02627
G1 X46.171 Y69.386 E0.02433
G1 X46.310 Y68.098 E0.05541
G1 X46.415 Y67.532 E0.02461
G1 X46.567 Y66.976 E0.02461
G1 X46.914 Y65.915 E0.04775
G1 X47.145 Y65.346 E0.02627
G1 X47.388 Y64.867 E0.02295
G1 X48.098 Y63.636 E0.06075
G1 X48.576 Y62.984 E0.03455
G1 X49.415 Y62.044 E0.05390
G1 X49.820 Y61.634 E0.02461
G1 X50.256 Y61.261 E0.02453
G1 X50.555 Y61.571 F7800.000
G1 F1800
G1 X51.568 Y60.833 E0.05360
G1 X52.055 Y60.525 E0.02463
G1 X52.550 Y60.269 E0.02383
G1 X53.755 Y59.739 E0.05627
G1 X54.499 Y59.497 E0.03346
G1 X55.724 Y59.230 E0.05360
G1 X56.280 Y59.140 E0.02410
G1 X56.842 Y59.099 E0.02410
G1 X133.008 Y59.104 E3.25651
G1 X133.633 Y59.135 E0.02677
G1 X134.314 Y59.238 E0.02945
G1 X135.343 Y59.458 E0.04500
G1 X135.827 Y59.590 E0.02142
G1 X136.454 Y59.825 E0.02864
G1 X137.445 Y60.266 E0.04637
G1 X137.836 Y60.464 E0.01874
G1 X138.452 Y60.848 E0.03105
G1 X139.350 Y61.500 E0.04743
G1 X139.678 Y61.761 E0.01794
G1 X140.169 Y62.226 E0.02891
G1 X141.038 Y63.190 E0.05547
G1 X141.321 Y63.549 E0.01955
G1 X141.579 Y63.927 E0.01955
G1 X142.345 Y65.264 E0.06590
G1 X142.643 Y65.947 E0.03185
G1 X143.029 Y67.120 E0.05280
G1 X143.194 Y67.749 E0.02784
G1 X143.295 Y68.393 E0.02784
G1 X143.422 Y69.703 E0.05628
G1 X143.427 Y70.160 E0.01955
G1 X143.398 Y70.623 E0.01981
G1 X143.272 Y71.800 E0.05063
G1 X143.153 Y72.434 E0.02757
G1 X143.042 Y72.839 E0.01794
G1 X142.719 Y73.835 E0.04477
G1 X142.484 Y74.435 E0.02757
G1 X142.218 Y74.960 E0.02517
G1 X141.680 Y75.907 E0.04656
G1 X141.427 Y76.303 E0.02008
G1 X141.030 Y76.819 E0.02784
G1 X140.182 Y77.761 E0.05418
G1 X139.759 Y78.169 E0.02517
G1 X139.294 Y78.541 E0.02543
G1 X138.265 Y79.279 E0.05413
G1 X137.907 Y79.497 E0.01794
G1 X137.529 Y79.694 E0.01821
G1 X136.367 Y80.212 E0.05439
G1 X135.772 Y80.427 E0.02704
G1 X135.331 Y80.545 E0.01955
G1 X134.301 Y80.765 E0.04503
G1 X133.726 Y80.859 E0.02490
G1 X132.970 Y80.904 E0.03237
G1 X57.030 Y80.904 E3.24688
G1 X56.410 Y80.874 E0.02650
G1 X55.822 Y80.789 E0.02543
G1 X54.590 Y80.526 E0.05387
G1 X54.066 Y80.375 E0.02329
G1 X53.557 Y80.180 E0.02329
G1 X52.482 Y79.699 E0.05038
G1 X51.946 Y79.412 E0.02597
G1 X51.486 Y79.109 E0.02356
G1 X50.645 Y78.497 E0.04449
G1 X50.322 Y78.239 E0.01767
G1 X49.843 Y77.788 E0.02811
G1 X49.045 Y76.904 E0.05092
G1 X48.719 Y76.499 E0.02222
G1 X48.427 Y76.070 E0.02222
G1 X47.788 Y74.986 E0.05377
G1 X47.536 Y74.489 E0.02383
G1 X47.322 Y73.954 E0.02463
G1 X46.952 Y72.821 E0.05098
G1 X46.819 Y72.312 E0.02249
G1 X46.727 Y71.788 E0.02276
G1 X46.595 Y70.547 E0.05334
G1 X46.572 Y69.978 E0.02436
G1 X46.597 Y69.433 E0.02329
G1 X46.732 Y68.175 E0.05411
G1 X46.828 Y67.645 E0.02303
G1 X46.971 Y67.120 E0.02329
G1 X47.314 Y66.071 E0.04718
G1 X47.529 Y65.536 E0.02463
G1 X47.758 Y65.084 E0.02169
G1 X48.448 Y63.885 E0.05914
G1 X48.902 Y63.263 E0.03292
G1 X49.720 Y62.345 E0.05258
G1 X50.098 Y61.961 E0.02303
G1 X50.508 Y61.608 E0.02314
G1 X129.447 Y69.371 F7800.000
G1 F300
G1 X130.032 Y68.256 E0.05382
G1 X131.067 Y67.541 E0.05382
G1 X132.220 Y67.401 E0.04963
G1 X133.477 Y67.817 E0.05662
G1 X134.329 Y68.778 E0.05490
G1 X134.630 Y70.000 E0.05382
G1 X134.329 Y71.222 E0.05382
G1 X133.494 Y72.164 E0.05382
G1 X132.317 Y72.611 E0.05382
G1 X131.067 Y72.459 E0.05381
G1 X130.032 Y71.744 E0.05382
G1 X129.447 Y70.629 E0.05382
G1 X129.447 Y69.431 E0.05125
G1 X129.875 Y69.476 F7800.000
G1 F300
G1 X130.362 Y68.549 E0.04479
G1 X131.224 Y67.954 E0.04479
G1 X132.176 Y67.838 E0.04101
G1 X133.233 Y68.187 E0.04758
G1 X133.938 Y68.983 E0.04545
G1 X134.188 Y70.000 E0.04479
G1 X133.938 Y71.017 E0.04479
G1 X133.243 Y71.801 E0.04479
G1 X132.264 Y72.173 E0.04479
G1 X131.224 Y72.046 E0.04478
G1 X130.362 Y71.451 E0.04479
G1 X129.875 Y70.524 E0.04479
G1 X129.875 Y69.536 E0.04222
G1 X130.304 Y69.582 F7800.000
G1 F300
G1 X130.692 Y68.841 E0.03575
G1 X131.380 Y68.366 E0.03576
G1 X132.133 Y68.275 E0.03240
G1 X132.989 Y68.558 E0.03855
G1 X133.547 Y69.188 E0.03599
G1 X133.747 Y70.000 E0.03575
G1 X133.547 Y70.812 E0.03575
G1 X132.993 Y71.438 E0.03576
G1 X132.211 Y71.734 E0.03575
G1 X131.380 Y71.634 E0.03575
G1 X130.692 Y71.159 E0.03576
G1 X130.304 Y70.418 E0.03575
G1 X130.304 Y69.642 E0.03319
G1 X130.015 Y69.305 F7800.000
G1 X60.553 Y69.371 F7800.000
G1 F300
G1 X60.553 Y70.629 E0.05381
G1 X59.968 Y71.744 E0.05382
G1 X58.933 Y72.459 E0.05382
G1 X57.683 Y72.611 E0.05382
G1 X56.506 Y72.164 E0.05382
G1 X55.671 Y71.222 E0.05382
G1 X55.372 Y70.007 E0.05352
G1 X55.655 Y68.797 E0.05313
G1 X56.506 Y67.836 E0.05490
G1 X57.646 Y67.403 E0.05214
G1 X58.923 Y67.535 E0.05489
G1 X59.968 Y68.254 E0.05421
G1 X60.526 Y69.318 E0.05134
G1 X60.125 Y69.476 F7800.000
G1 F300
G1 X60.125 Y70.524 E0.04478
G1 X59.638 Y71.451 E0.04479
G1 X58.776 Y72.046 E0.04479
G1 X57.736 Y72.173 E0.04478
G1 X56.757 Y71.801 E0.04479
G1 X56.062 Y71.017 E0.04479
G1 X55.813 Y70.004 E0.04460
G1 X56.047 Y69.000 E0.04410
G1 X56.757 Y68.199 E0.04575
G1 X57.703 Y67.840 E0.04329
G1 X58.770 Y67.950 E0.04586
G1 X59.637 Y68.547 E0.04501
G1 X60.097 Y69.423 E0.04230
G1 X59.696 Y69.582 F7800.000
G1 F300
G1 X59.696 Y70.418 E0.03575
G1 X59.308 Y71.159 E0.03575
G1 X58.620 Y71.634 E0.03576
G1 X57.789 Y71.734 E0.03575
G1 X57.007 Y71.438 E0.03575
G1 X56.453 Y70.812 E0.03576
G1 X56.253 Y70.001 E0.03569
G1 X56.440 Y69.203 E0.03507
G1 X57.007 Y68.562 E0.03660
G1 X57.760 Y68.277 E0.03443
G1 X58.618 Y68.365 E0.03684
G1 X59.307 Y68.840 E0.03580
G1 X59.669 Y69.529 E0.03326
G1 X60.081 Y69.693 F7800.000
G1 X57.145 Y66.622 F7800.000
G1 F600
G1 X132.892 Y66.629 E3.23860
G1 X133.550 Y66.769 E0.02876
G1 X134.198 Y67.058 E0.03036
G1 X134.773 Y67.476 E0.03036
G1 X135.248 Y68.003 E0.03036
G1 X135.603 Y68.618 E0.03036
G1 X135.823 Y69.294 E0.03036
G1 X135.897 Y70.000 E0.03036
G1 X135.823 Y70.706 E0.03036
G1 X135.614 Y71.350 E0.02894
G1 X135.245 Y72.000 E0.03194
G1 X134.773 Y72.524 E0.03017
G1 X134.198 Y72.942 E0.03036
G1 X133.550 Y73.231 E0.03036
G1 X132.855 Y73.378 E0.03036
G1 X57.145 Y73.378 E3.23702
G1 X56.450 Y73.231 E0.03036
G1 X55.802 Y72.942 E0.03036
G1 X55.227 Y72.524 E0.03036
G1 X54.774 Y72.021 E0.02894
G1 X54.395 Y71.377 E0.03194
G1 X54.177 Y70.706 E0.03017
G1 X54.103 Y70.000 E0.03036
G1 X54.177 Y69.294 E0.03036
G1 X54.386 Y68.650 E0.02894
G1 X54.755 Y68.000 E0.03194
G1 X55.227 Y67.476 E0.03017
G1 X55.802 Y67.058 E0.03036
G1 X56.450 Y66.769 E0.03036
G1 X57.086 Y66.634 E0.02780
G1 X54.405 Y67.748 F7800.000
G1 F600
G1 X54.939 Y67.155 E0.03410
G1 X55.586 Y66.685 E0.03421
G1 X56.317 Y66.360 E0.03421
G1 X57.100 Y66.193 E0.03421
G1 X132.937 Y66.201 E3.24245
G1 X133.683 Y66.360 E0.03261
G1 X134.414 Y66.685 E0.03421
G1 X135.061 Y67.155 E0.03421
G1 X135.597 Y67.750 E0.03421
G1 X135.997 Y68.443 E0.03422
G1 X136.244 Y69.204 E0.03421
G1 X136.328 Y70.000 E0.03421
G1 X136.244 Y70.796 E0.03421
G1 X136.008 Y71.524 E0.03272
G1 X135.595 Y72.252 E0.03579
G1 X135.061 Y72.845 E0.03410
G1 X134.414 Y73.315 E0.03421
G1 X133.683 Y73.640 E0.03421
G1 X132.900 Y73.807 E0.03421
G1 X57.100 Y73.807 E3.24088
G1 X56.317 Y73.640 E0.03421
G1 X55.586 Y73.315 E0.03421
G1 X54.939 Y72.845 E0.03421
G1 X54.427 Y72.276 E0.03272
G1 X54.002 Y71.554 E0.03579
G1 X53.756 Y70.796 E0.03410
G1 X53.672 Y70.000 E0.03421
G1 X53.756 Y69.204 E0.03421
G1 X53.992 Y68.476 E0.03272
G1 X54.375 Y67.800 E0.03322
G1 X54.055 Y67.496 F7800.000
G1 F600
G1 X54.650 Y66.835 E0.03802
G1 X55.371 Y66.312 E0.03807
G1 X56.184 Y65.950 E0.03806
G1 X57.055 Y65.765 E0.03806
G1 X132.982 Y65.772 E3.24630
G1 X133.816 Y65.950 E0.03646
G1 X134.629 Y66.312 E0.03806
G1 X135.350 Y66.835 E0.03807
G1 X135.945 Y67.497 E0.03807
G1 X136.391 Y68.268 E0.03807
G1 X136.666 Y69.115 E0.03806
G1 X136.759 Y70.000 E0.03807
G1 X136.666 Y70.885 E0.03807
G1 X136.402 Y71.697 E0.03650
G1 X135.945 Y72.504 E0.03964
G1 X135.350 Y73.165 E0.03802
G1 X134.629 Y73.688 E0.03807
G1 X133.816 Y74.050 E0.03806
G1 X132.945 Y74.235 E0.03807
G1 X57.055 Y74.235 E3.24473
G1 X56.184 Y74.050 E0.03807
G1 X55.371 Y73.688 E0.03806
G1 X54.650 Y73.165 E0.03807
G1 X54.079 Y72.530 E0.03650
G1 X53.609 Y71.731 E0.03964
G1 X53.334 Y70.885 E0.03802
G1 X53.241 Y70.000 E0.03807
G1 X53.334 Y69.115 E0.03807
G1 X53.598 Y68.303 E0.03650
G1 X54.026 Y67.548 E0.03708
G1 X54.453 Y67.538 F7800.000
G1 X56.013 Y68.199 F7800.000
G1 F600
G1 X55.493 Y67.679 E0.03427
G1 X55.171 Y68.018 E0.02183
G1 X55.566 Y68.413 E0.02604
G1 X55.360 Y68.645 E0.01446
G1 X55.318 Y68.826 E0.00870
G1 X54.895 Y68.404 E0.02787
G1 X54.682 Y68.780 E0.02019
G1 X54.664 Y68.834 E0.00265
G1 X55.193 Y69.362 E0.03484
G1 X55.067 Y69.898 E0.02569
G1 X54.502 Y69.333 E0.03728
G1 X54.493 Y69.361 E0.00136
G1 X54.434 Y69.926 E0.02652
G1 X55.477 Y70.969 E0.06880
G1 X54.518 Y71.333 F7800.000
G1 F600
G1 X55.946 Y72.760 E0.09418
G1 X56.139 Y72.292 F7800.000
G1 F600
G1 X54.278 Y70.431 E0.12280
G1 X56.166 Y72.563 F7800.000
G1 F900
G1 X56.608 Y72.746 E0.02329
G1 X57.193 Y72.918 E0.02972
G1 F900
G1 X57.461 Y72.967 E0.01066
G1 F900
G1 X57.677 Y72.996 E0.00716
G1 X58.137 Y72.968 E0.01518
G1 F900
G1 X59.058 Y72.913 E0.03881
G1 X59.236 Y72.405 F7800.000
G1 F600
G1 X59.888 Y73.057 E0.03970
G1 X60.499 Y73.057 E0.02630
G1 X59.736 Y72.295 E0.04645
G1 X60.098 Y72.045 E0.01891
G1 X61.109 Y73.057 E0.06163
G1 X61.720 Y73.057 E0.02630
G1 X60.357 Y71.695 E0.08300
G1 X60.567 Y71.294 E0.01948
G1 X62.330 Y73.057 E0.10740
G1 X62.941 Y73.057 E0.02630
G1 X60.778 Y70.894 E0.13179
G1 X60.875 Y70.709 E0.00901
G1 X60.875 Y70.380 E0.01414
G1 X63.551 Y73.057 E0.16307
G1 X64.162 Y73.057 E0.02630
G1 X60.875 Y69.770 E0.20026
G1 X60.875 Y69.291 E0.02060
G1 X60.729 Y69.013 E0.01354
G1 X64.965 Y73.250 E0.25810
G1 X59.198 Y66.872 F7800.000
G1 F600
G1 X65.383 Y73.057 E0.37678
G1 X65.994 Y73.057 E0.02630
G1 X59.880 Y66.943 E0.37245
G1 X60.491 Y66.943 E0.02630
G1 X66.604 Y73.057 E0.37245
G1 X67.215 Y73.057 E0.02630
G1 X61.101 Y66.943 E0.37244
G1 X61.712 Y66.943 E0.02630
G1 X67.825 Y73.057 E0.37244
G1 X68.436 Y73.057 E0.02630
G1 X62.322 Y66.944 E0.37244
G1 X62.933 Y66.944 E0.02630
G1 X69.046 Y73.057 E0.37243
G1 X69.657 Y73.057 E0.02630
G1 X63.544 Y66.944 E0.37243
G1 X64.154 Y66.944 E0.02630
G1 X70.267 Y73.057 E0.37243
G1 X70.878 Y73.057 E0.02630
G1 X64.765 Y66.944 E0.37242
G1 X65.375 Y66.944 E0.02630
G1 X71.489 Y73.057 E0.37242
G1 X72.099 Y73.057 E0.02630
G1 X65.986 Y66.944 E0.37241
G1 X66.597 Y66.944 E0.02630
G1 X72.710 Y73.057 E0.37241
G1 X73.320 Y73.057 E0.02630
G1 X67.207 Y66.944 E0.37241
G1 X67.818 Y66.944 E0.02630
G1 X73.931 Y73.057 E0.37240
G1 X74.541 Y73.057 E0.02630
G1 X68.428 Y66.944 E0.37240
G1 X69.039 Y66.944 E0.02630
G1 X75.152 Y73.057 E0.37239
G1 X75.762 Y73.057 E0.02630
G1 X69.650 Y66.944 E0.37239
G1 X70.260 Y66.944 E0.02630
G1 X76.373 Y73.057 E0.37239
G1 X76.983 Y73.057 E0.02630
G1 X70.871 Y66.944 E0.37238
G1 X71.481 Y66.944 E0.02630
G1 X77.594 Y73.057 E0.37238
G1 X78.205 Y73.057 E0.02630
G1 X72.092 Y66.945 E0.37238
G1 X72.703 Y66.945 E0.02630
G1 X78.815 Y73.057 E0.37237
