; generated by Slic3r 1.33.3-prusa3d-win64 on 2017-06-18 at 13:42:09

; external perimeters extrusion width = 0.40mm
; perimeters extrusion width = 0.48mm
; infill extrusion width = 0.48mm
; solid infill extrusion width = 0.48mm
; top infill extrusion width = 0.48mm
; support material extrusion width = 0.40mm

M104 S185 ; set temperature
G28 ; home all axes
G1 Z5 F5000 ; lift nozzle

M109 S185 ; set temperature and wait for it to be reached
G21 ; set units to millimeters
G90 ; use absolute coordinates
M83 ; use relative distances for extrusion
G1 Z0.240 F7800.000
G1 X72.314 Y62.630 F7800.000
G1 F1800
G1 X73.220 Y61.624 E0.05784
G1 X73.773 Y61.103 E0.03249
G1 X74.132 Y60.816 E0.01967
G1 X75.060 Y60.143 E0.04901
G1 X75.744 Y59.716 E0.03448
G1 X76.185 Y59.494 E0.02109
G1 X77.201 Y59.040 E0.04758
G1 X77.893 Y58.780 E0.03163
G1 X78.440 Y58.629 E0.02423
G1 X79.515 Y58.398 E0.04702
G1 X80.232 Y58.283 E0.03106
G1 X81.024 Y58.239 E0.03391
G1 X109.100 Y58.260 E1.20038
G1 X109.818 Y58.299 E0.03078
G1 X110.530 Y58.408 E0.03078
G1 X111.691 Y58.661 E0.05081
G1 X112.442 Y58.896 E0.03363
G1 X113.889 Y59.528 E0.06753
G1 X114.274 Y59.727 E0.01853
G1 X114.653 Y59.951 E0.01881
G1 X115.906 Y60.845 E0.06581
G1 X116.507 Y61.353 E0.03363
G1 X116.854 Y61.703 E0.02109
G1 X117.634 Y62.570 E0.04987
G1 X117.909 Y62.905 E0.01853
G1 X118.163 Y63.256 E0.01853
G1 X118.403 Y63.633 E0.01910
G1 X118.963 Y64.602 E0.04787
G1 X119.298 Y65.277 E0.03220
G1 X119.494 Y65.780 E0.02309
G1 X119.831 Y66.815 E0.04655
G1 X120.027 Y67.563 E0.03306
G1 X120.114 Y68.083 E0.02252
G1 X120.244 Y69.227 E0.04924
G1 X120.285 Y69.979 E0.03220
G1 X120.248 Y70.738 E0.03249
G1 X120.131 Y71.843 E0.04749
G1 X120.039 Y72.395 E0.02394
G1 X119.880 Y73.029 E0.02793
G1 X119.482 Y74.252 E0.05500
G1 X119.268 Y74.791 E0.02480
G1 X119.011 Y75.311 E0.02480
G1 X118.375 Y76.414 E0.05443
G1 X118.032 Y76.931 E0.02651
G1 X117.651 Y77.411 E0.02622
G1 X116.794 Y78.361 E0.05471
G1 X116.383 Y78.761 E0.02451
G1 X115.942 Y79.127 E0.02451
G1 X114.907 Y79.880 E0.05471
G1 X114.366 Y80.222 E0.02736
G1 X113.827 Y80.501 E0.02594
G1 X112.633 Y81.029 E0.05584
G1 X112.081 Y81.228 E0.02508
G1 X111.508 Y81.383 E0.02537
G1 X110.065 Y81.678 E0.06297
G1 X109.549 Y81.738 E0.02223
G1 X109.023 Y81.761 E0.02252
G1 X80.996 Y81.761 E1.19828
G1 X80.284 Y81.723 E0.03049
G1 X79.579 Y81.615 E0.03049
G1 X78.432 Y81.369 E0.05015
G1 X77.854 Y81.207 E0.02565
G1 X77.292 Y80.998 E0.02565
G1 X76.220 Y80.523 E0.05015
G1 X75.737 Y80.280 E0.02309
G1 X75.269 Y79.999 E0.02337
G1 X73.947 Y79.040 E0.06981
G1 X73.552 Y78.702 E0.02223
G1 X73.178 Y78.331 E0.02252
G1 X72.353 Y77.415 E0.05272
G1 X71.979 Y76.946 E0.02565
G1 X71.634 Y76.430 E0.02651
G1 X71.020 Y75.369 E0.05243
G1 X70.790 Y74.918 E0.02166
G1 X70.591 Y74.451 E0.02166
G1 X70.065 Y72.835 E0.07267
G1 X69.940 Y72.290 E0.02394
G1 X69.856 Y71.729 E0.02423
G1 X69.737 Y70.575 E0.04959
G1 X69.715 Y69.942 E0.02708
G1 X69.744 Y69.350 E0.02537
G1 X69.886 Y68.032 E0.05668
G1 X69.983 Y67.500 E0.02309
G1 X70.120 Y66.971 E0.02337
G1 X70.507 Y65.779 E0.05358
G1 X70.735 Y65.203 E0.02651
G1 X71.008 Y64.654 E0.02622
G1 X71.639 Y63.563 E0.05387
G1 X71.940 Y63.107 E0.02337
G1 X72.276 Y62.675 E0.02337
G1 X72.636 Y62.913 F7800.000
G1 F1800
G1 X73.525 Y61.925 E0.05681
G1 X74.047 Y61.432 E0.03069
G1 X74.391 Y61.158 E0.01881
G1 X75.304 Y60.495 E0.04824
G1 X75.951 Y60.092 E0.03262
G1 X76.367 Y59.881 E0.01991
G1 X77.368 Y59.435 E0.04685
G1 X78.027 Y59.187 E0.03014
G1 X78.545 Y59.044 E0.02295
G1 X79.610 Y58.816 E0.04658
G1 X80.294 Y58.707 E0.02958
G1 X81.023 Y58.668 E0.03124
G1 X109.092 Y58.688 E1.20009
G1 X109.751 Y58.722 E0.02820
G1 X110.409 Y58.821 E0.02848
G1 X111.562 Y59.070 E0.05042
G1 X112.272 Y59.290 E0.03179
G1 X113.686 Y59.906 E0.06593
G1 X114.406 Y60.302 E0.03511
G1 X115.635 Y61.178 E0.06454
G1 X116.199 Y61.652 E0.03152
G1 X116.537 Y61.991 E0.02046
G1 X117.301 Y62.839 E0.04879
G1 X117.796 Y63.478 E0.03455
G1 X118.033 Y63.848 E0.01881
G1 X118.585 Y64.803 E0.04713
G1 X118.899 Y65.434 E0.03014
G1 X119.089 Y65.922 E0.02240
G1 X119.419 Y66.934 E0.04553
G1 X119.604 Y67.635 E0.03096
G1 X119.689 Y68.139 E0.02185
G1 X119.817 Y69.261 E0.04831
G1 X119.857 Y69.965 E0.03014
G1 X119.823 Y70.682 E0.03069
G1 X119.707 Y71.774 E0.04697
G1 X119.626 Y72.279 E0.02185
G1 X119.471 Y72.900 E0.02737
G1 X119.083 Y74.096 E0.05378
G1 X118.880 Y74.607 E0.02350
G1 X118.638 Y75.101 E0.02350
G1 X118.013 Y76.185 E0.05350
G1 X117.688 Y76.676 E0.02516
G1 X117.326 Y77.132 E0.02489
G1 X116.488 Y78.061 E0.05349
G1 X116.099 Y78.440 E0.02323
G1 X115.681 Y78.787 E0.02323
G1 X114.664 Y79.527 E0.05377
G1 X114.150 Y79.852 E0.02599
G1 X113.639 Y80.116 E0.02461
G1 X112.465 Y80.635 E0.05487
G1 X111.929 Y80.827 E0.02433
G1 X111.386 Y80.972 E0.02406
G1 X110.002 Y81.254 E0.06041
G1 X109.513 Y81.311 E0.02102
G1 X109.022 Y81.332 E0.02102
G1 X80.997 Y81.332 E1.19822
G1 X80.345 Y81.298 E0.02793
G1 X79.699 Y81.202 E0.02793
G1 X78.545 Y80.956 E0.05046
G1 X78.003 Y80.805 E0.02406
G1 X77.463 Y80.605 E0.02461
G1 X76.414 Y80.140 E0.04907
G1 X75.951 Y79.908 E0.02212
G1 X75.507 Y79.643 E0.02212
G1 X74.232 Y78.720 E0.06731
G1 X73.853 Y78.396 E0.02129
G1 X73.498 Y78.047 E0.02129
G1 X72.682 Y77.141 E0.05211
G1 X72.331 Y76.702 E0.02406
G1 X72.000 Y76.207 E0.02544
G1 X71.403 Y75.175 E0.05100
G1 X71.187 Y74.755 E0.02019
G1 X70.998 Y74.315 E0.02046
G1 X70.483 Y72.738 E0.07092
G1 X70.363 Y72.222 E0.02268
G1 X70.283 Y71.691 E0.02295
G1 X70.165 Y70.549 E0.04908
G1 X70.143 Y69.954 E0.02544
G1 X70.170 Y69.392 E0.02406
G1 X70.308 Y68.110 E0.05513
G1 X70.399 Y67.601 E0.02212
G1 X70.529 Y67.100 E0.02212
G1 X70.909 Y65.928 E0.05267
G1 X71.122 Y65.387 E0.02489
G1 X71.384 Y64.860 E0.02516
G1 X72.000 Y63.793 E0.05267
G1 X72.282 Y63.366 E0.02185
G1 X72.597 Y62.959 E0.02205
G1 X72.955 Y63.199 F7800.000
G1 F1800
G1 X73.826 Y62.230 E0.05574
G1 X74.312 Y61.769 E0.02864
G1 X74.645 Y61.503 E0.01821
G1 X75.543 Y60.851 E0.04744
G1 X76.153 Y60.469 E0.03078
G1 X76.550 Y60.269 E0.01901
G1 X77.540 Y59.827 E0.04636
G1 X78.156 Y59.596 E0.02811
G1 X78.645 Y59.461 E0.02169
G1 X79.699 Y59.235 E0.04610
G1 X80.348 Y59.132 E0.02811
G1 X81.024 Y59.096 E0.02891
G1 X109.091 Y59.117 E1.20003
G1 X109.691 Y59.147 E0.02570
G1 X110.286 Y59.233 E0.02570
G1 X111.441 Y59.481 E0.05049
G1 X112.099 Y59.683 E0.02945
G1 X113.490 Y60.288 E0.06483
G1 X114.160 Y60.654 E0.03265
G1 X115.365 Y61.511 E0.06322
G1 X115.894 Y61.953 E0.02945
G1 X116.221 Y62.281 E0.01981
G1 X116.968 Y63.110 E0.04771
G1 X117.430 Y63.702 E0.03212
G1 X117.664 Y64.065 E0.01848
G1 X118.206 Y65.004 E0.04637
G1 X118.500 Y65.592 E0.02811
G1 X118.683 Y66.059 E0.02142
G1 X119.008 Y67.054 E0.04476
G1 X119.180 Y67.701 E0.02864
G1 X119.264 Y68.189 E0.02115
G1 X119.390 Y69.296 E0.04762
G1 X119.428 Y69.952 E0.02811
G1 X119.398 Y70.628 E0.02891
G1 X119.284 Y71.707 E0.04640
G1 X119.213 Y72.159 E0.01955
G1 X119.064 Y72.767 E0.02677
G1 X118.685 Y73.936 E0.05253
G1 X118.495 Y74.419 E0.02222
G1 X118.267 Y74.886 E0.02222
G1 X117.651 Y75.957 E0.05280
G1 X117.347 Y76.416 E0.02356
G1 X117.001 Y76.853 E0.02383
G1 X116.182 Y77.761 E0.05226
G1 X115.815 Y78.120 E0.02196
G1 X115.420 Y78.448 E0.02196
G1 X114.421 Y79.174 E0.05279
G1 X113.929 Y79.485 E0.02490
G1 X113.456 Y79.729 E0.02276
G1 X112.298 Y80.241 E0.05412
G1 X111.784 Y80.423 E0.02329
G1 X111.264 Y80.560 E0.02303
G1 X109.943 Y80.830 E0.05761
G1 X109.483 Y80.883 E0.01981
G1 X109.020 Y80.904 E0.01981
G1 X81.005 Y80.904 E1.19782
G1 X80.410 Y80.874 E0.02543
G1 X79.815 Y80.788 E0.02570
G1 X78.657 Y80.542 E0.05065
G1 X78.144 Y80.400 E0.02276
G1 X77.627 Y80.209 E0.02356
G1 X76.607 Y79.757 E0.04771
G1 X76.164 Y79.536 E0.02115
G1 X75.745 Y79.286 E0.02088
G1 X74.516 Y78.398 E0.06483
G1 X74.157 Y78.094 E0.02008
G1 X73.818 Y77.761 E0.02035
G1 X73.012 Y76.867 E0.05146
G1 X72.686 Y76.461 E0.02222
G1 X72.369 Y75.988 E0.02436
G1 X71.785 Y74.979 E0.04985
G1 X71.583 Y74.590 E0.01874
G1 X71.406 Y74.182 E0.01901
G1 X70.902 Y72.646 E0.06913
G1 X70.786 Y72.152 E0.02169
G1 X70.710 Y71.657 E0.02142
G1 X70.593 Y70.528 E0.04852
G1 X70.572 Y69.965 E0.02410
G1 X70.597 Y69.427 E0.02303
G1 X70.730 Y68.187 E0.05331
G1 X70.815 Y67.706 E0.02088
G1 X70.936 Y67.233 E0.02088
G1 X71.311 Y66.076 E0.05200
G1 X71.510 Y65.569 E0.02329
G1 X71.757 Y65.070 E0.02383
G1 X72.359 Y64.027 E0.05146
G1 X72.624 Y63.624 E0.02062
G1 X72.916 Y63.245 E0.02046
G1 X79.594 Y68.865 F7800.000
G1 F300
G1 X80.506 Y67.836 E0.05881
G1 X81.646 Y67.403 E0.05214
G1 X82.924 Y67.535 E0.05491
G1 X83.969 Y68.256 E0.05427
G1 X84.553 Y69.371 E0.05382
G1 X84.553 Y70.629 E0.05381
G1 X83.969 Y71.744 E0.05382
G1 X82.933 Y72.459 E0.05382
G1 X81.683 Y72.611 E0.05382
G1 X80.506 Y72.164 E0.05382
G1 X79.671 Y71.222 E0.05382
G1 X79.378 Y70.033 E0.05236
G1 X79.583 Y68.924 E0.04821
G1 X79.994 Y69.060 F7800.000
G1 F300
G1 X80.757 Y68.199 E0.04920
G1 X81.703 Y67.840 E0.04329
G1 X82.771 Y67.950 E0.04588
G1 X83.638 Y68.549 E0.04506
G1 X84.125 Y69.476 E0.04479
G1 X84.125 Y70.524 E0.04478
G1 X83.638 Y71.451 E0.04479
G1 X82.776 Y72.046 E0.04479
G1 X81.736 Y72.173 E0.04478
G1 X80.757 Y71.801 E0.04479
G1 X80.062 Y71.017 E0.04479
G1 X79.816 Y70.020 E0.04390
G1 X79.983 Y69.119 E0.03917
G1 X80.393 Y69.255 F7800.000
G1 F300
G1 X81.007 Y68.562 E0.03959
G1 X81.760 Y68.277 E0.03443
G1 X82.618 Y68.365 E0.03685
G1 X83.308 Y68.841 E0.03585
G1 X83.696 Y69.582 E0.03575
G1 X83.696 Y70.418 E0.03575
G1 X83.308 Y71.159 E0.03575
G1 X82.620 Y71.634 E0.03576
G1 X81.789 Y71.734 E0.03575
G1 X81.007 Y71.438 E0.03575
G1 X80.453 Y70.812 E0.03576
G1 X80.255 Y70.007 E0.03543
G1 X80.383 Y69.314 E0.03013
G1 X80.175 Y68.920 F7800.000
G1 X79.684 Y68.909 F7800.000
G1 X79.684 Y68.909 F7800.000
G1 X79.171 Y68.455 F7800.000
G1 X79.240 Y68.358 F7800.000
G1 X79.630 Y67.923 F7800.000
G1 X80.070 Y67.523 F7800.000
G1 X80.096 Y67.504 F7800.000
G1 X80.351 Y67.360 F7800.000
G1 X80.608 Y67.254 F7800.000
G1 X81.193 Y67.083 F7800.000
G1 X81.480 Y67.030 F7800.000
G1 X81.710 Y67.015 F7800.000
G1 X82.946 Y67.079 F7800.000
G1 X83.233 Y67.131 F7800.000
G1 X84.453 Y67.512 F7800.000
G1 X84.979 Y67.753 F7800.000
G1 X86.189 Y68.485 F7800.000
G1 X87.322 Y69.395 F7800.000
G1 X87.929 Y70.003 F7800.000
G1 X102.076 Y70.008 F7800.000
G1 X102.690 Y69.395 F7800.000
G1 X105.544 Y69.395 F7800.000
G1 X105.447 Y69.371 F7800.000
G1 F300
G1 X106.032 Y68.256 E0.05382
G1 X107.067 Y67.541 E0.05382
G1 X108.278 Y67.394 E0.05214
G1 X109.487 Y67.828 E0.05491
G1 X110.329 Y68.778 E0.05427
G1 X110.632 Y70.010 E0.05426
G1 X110.303 Y71.251 E0.05491
G1 X109.494 Y72.164 E0.05214
G1 X108.317 Y72.611 E0.05382
G1 X107.067 Y72.459 E0.05382
G1 X106.032 Y71.744 E0.05382
G1 X105.447 Y70.629 E0.05382
G1 X105.447 Y69.431 E0.05125
G1 X105.875 Y69.476 F7800.000
G1 F300
G1 X106.362 Y68.549 E0.04479
G1 X107.224 Y67.954 E0.04479
G1 X108.229 Y67.832 E0.04329
G1 X109.239 Y68.194 E0.04588
G1 X109.938 Y68.983 E0.04506
G1 X110.190 Y70.006 E0.04506
G1 X109.915 Y71.043 E0.04588
G1 X109.243 Y71.801 E0.04329
G1 X108.264 Y72.173 E0.04479
G1 X107.224 Y72.046 E0.04478
G1 X106.362 Y71.451 E0.04479
G1 X105.875 Y70.524 E0.04479
G1 X105.875 Y69.536 E0.04222
G1 X106.304 Y69.582 F7800.000
G1 F300
G1 X106.692 Y68.841 E0.03575
G1 X107.380 Y68.366 E0.03576
G1 X108.180 Y68.269 E0.03443
G1 X108.991 Y68.560 E0.03685
G1 X109.547 Y69.188 E0.03585
G1 X109.748 Y70.002 E0.03585
G1 X109.527 Y70.835 E0.03685
G1 X108.993 Y71.438 E0.03443
G1 X108.211 Y71.734 E0.03575
G1 X107.380 Y71.634 E0.03575
G1 X106.692 Y71.159 E0.03576
G1 X106.304 Y70.418 E0.03575
G1 X106.304 Y69.642 E0.03319
G1 X106.015 Y69.305 F7800.000
G1 X108.952 Y66.642 F7800.000
G1 F600
G1 X109.550 Y66.769 E0.02614
G1 X110.198 Y67.058 E0.03036
G1 X110.773 Y67.476 E0.03036
G1 X111.248 Y68.003 E0.03036
G1 X111.603 Y68.618 E0.03036
G1 X111.813 Y69.262 E0.02894
G1 X111.897 Y70.004 E0.03194
G1 X111.823 Y70.706 E0.03017
G1 X111.603 Y71.382 E0.03036
G1 X111.248 Y71.997 E0.03036
G1 X110.773 Y72.524 E0.03036
G1 X110.198 Y72.942 E0.03036
G1 X109.550 Y73.231 E0.03036
G1 X108.855 Y73.378 E0.03036
G1 X81.145 Y73.378 E1.18476
G1 X80.450 Y73.231 E0.03036
G1 X79.802 Y72.942 E0.03036
G1 X79.227 Y72.524 E0.03036
G1 X78.752 Y71.997 E0.03036
G1 X78.397 Y71.382 E0.03036
G1 X78.177 Y70.706 E0.03036
G1 X78.103 Y70.000 E0.03036
G1 X78.177 Y69.294 E0.03036
G1 X78.397 Y68.618 E0.03036
G1 X78.752 Y68.003 E0.03036
G1 X79.227 Y67.476 E0.03036
G1 X79.802 Y67.058 E0.03036
G1 X80.450 Y66.769 E0.03036
G1 X81.145 Y66.622 E0.03035
G1 X108.892 Y66.642 E1.18635
G1 X108.997 Y66.214 F7800.000
G1 F600
G1 X109.683 Y66.360 E0.02998
G1 X110.414 Y66.685 E0.03421
G1 X111.061 Y67.155 E0.03421
G1 X111.597 Y67.750 E0.03421
G1 X111.997 Y68.443 E0.03421
G1 X112.233 Y69.171 E0.03272
G1 X112.328 Y70.003 E0.03579
G1 X112.244 Y70.796 E0.03410
G1 X111.997 Y71.557 E0.03421
G1 X111.597 Y72.250 E0.03421
G1 X111.061 Y72.845 E0.03421
G1 X110.414 Y73.315 E0.03421
G1 X109.683 Y73.640 E0.03421
G1 X108.900 Y73.807 E0.03421
G1 X81.100 Y73.807 E1.18861
G1 X80.317 Y73.640 E0.03421
G1 X79.586 Y73.315 E0.03421
G1 X78.939 Y72.845 E0.03421
G1 X78.403 Y72.250 E0.03421
G1 X78.003 Y71.557 E0.03421
G1 X77.756 Y70.796 E0.03421
G1 X77.672 Y70.000 E0.03421
G1 X77.756 Y69.204 E0.03421
G1 X78.003 Y68.443 E0.03421
G1 X78.403 Y67.750 E0.03421
G1 X78.939 Y67.155 E0.03421
G1 X79.586 Y66.685 E0.03421
G1 X80.317 Y66.360 E0.03421
G1 X81.100 Y66.193 E0.03420
G1 X108.937 Y66.214 E1.19020
G1 X109.042 Y65.785 F7800.000
G1 F600
G1 X109.816 Y65.950 E0.03383
G1 X110.629 Y66.312 E0.03806
G1 X111.350 Y66.835 E0.03807
G1 X111.945 Y67.497 E0.03807
G1 X112.391 Y68.268 E0.03807
G1 X112.654 Y69.080 E0.03650
G1 X112.759 Y70.001 E0.03964
G1 X112.666 Y70.885 E0.03802
G1 X112.391 Y71.732 E0.03806
G1 X111.945 Y72.503 E0.03807
G1 X111.350 Y73.165 E0.03807
G1 X110.629 Y73.688 E0.03807
G1 X109.816 Y74.050 E0.03806
G1 X108.945 Y74.235 E0.03807
G1 X81.055 Y74.235 E1.19246
G1 X80.184 Y74.050 E0.03807
G1 X79.371 Y73.688 E0.03806
G1 X78.650 Y73.165 E0.03807
G1 X78.055 Y72.503 E0.03807
G1 X77.609 Y71.732 E0.03807
G1 X77.334 Y70.885 E0.03806
G1 X77.241 Y70.000 E0.03807
G1 X77.334 Y69.115 E0.03807
G1 X77.609 Y68.268 E0.03806
G1 X78.055 Y67.497 E0.03807
G1 X78.650 Y66.835 E0.03807
G1 X79.371 Y66.312 E0.03807
G1 X80.184 Y65.950 E0.03806
G1 X81.055 Y65.765 E0.03806
G1 X108.982 Y65.785 E1.19405
G1 X109.193 Y66.156 F7800.000
G1 X108.630 Y67.068 F7800.000
G1 F900
G1 X108.358 Y67.020 E0.01024
G1 F900
G1 X107.827 Y67.044 E0.01473
G1 F900
G1 X106.913 Y67.099 E0.03298
G1 X106.731 Y67.617 F7800.000
G1 F600
G1 X106.076 Y66.961 E0.04020
G1 X105.461 Y66.961 E0.02668
G1 X106.229 Y67.729 E0.04712
G1 X105.865 Y67.980 E0.01917
G1 X104.846 Y66.961 E0.06255
G1 X104.231 Y66.960 E0.02668
G1 X105.620 Y68.349 E0.08521
G1 X105.408 Y68.752 E0.01975
G1 X103.615 Y66.960 E0.10997
G1 X103.000 Y66.959 E0.02668
G1 X105.197 Y69.156 E0.13472
G1 X105.125 Y69.291 E0.00666
G1 X105.125 Y69.699 E0.01767
G1 X102.385 Y66.959 E0.16808
G1 X101.770 Y66.958 E0.02668
G1 X105.125 Y70.314 E0.20581
G1 X105.125 Y70.709 E0.01712
G1 X105.368 Y71.171 E0.02266
G1 X101.155 Y66.958 E0.25844
G1 X100.539 Y66.957 E0.02668
G1 X106.613 Y73.031 E0.37256
G1 X106.612 Y73.057 E0.00112
G1 X106.024 Y73.057 E0.02548
G1 X99.924 Y66.957 E0.37417
G1 X99.309 Y66.956 E0.02668
G1 X105.410 Y73.057 E0.37419
G1 X104.795 Y73.057 E0.02666
G1 X98.694 Y66.956 E0.37422
G1 X98.079 Y66.956 E0.02668
G1 X104.180 Y73.057 E0.37425
G1 X103.566 Y73.057 E0.02666
G1 X97.464 Y66.955 E0.37428
G1 X96.848 Y66.955 E0.02668
G1 X102.951 Y73.057 E0.37430
G1 X102.336 Y73.057 E0.02666
G1 X96.233 Y66.954 E0.37433
G1 X95.618 Y66.954 E0.02668
G1 X101.721 Y73.057 E0.37436
G1 X101.107 Y73.057 E0.02666
G1 X95.003 Y66.953 E0.37439
G1 X94.388 Y66.953 E0.02668
G1 X100.492 Y73.057 E0.37442
G1 X99.877 Y73.057 E0.02666
G1 X93.773 Y66.952 E0.37444
G1 X93.157 Y66.952 E0.02668
G1 X99.262 Y73.057 E0.37447
G1 X98.648 Y73.057 E0.02666
G1 X92.542 Y66.951 E0.37450
G1 X91.927 Y66.951 E0.02668
G1 X98.033 Y73.057 E0.37453
G1 X97.418 Y73.057 E0.02666
G1 X91.312 Y66.951 E0.37455
G1 X90.697 Y66.950 E0.02668
G1 X96.804 Y73.057 E0.37458
G1 X96.189 Y73.057 E0.02666
G1 X90.081 Y66.950 E0.37461
G1 X89.466 Y66.949 E0.02668
G1 X95.574 Y73.057 E0.37464
G1 X94.959 Y73.057 E0.02666
