; generated by Slic3r 1.33.3-prusa3d-win64 on 2017-06-17 at 23:44:54

; external perimeters extrusion width = 0.40mm
; perimeters extrusion width = 0.48mm
; infill extrusion width = 0.48mm
; solid infill extrusion width = 0.48mm
; top infill extrusion width = 0.48mm
; support material extrusion width = 0.40mm

M104 S185 ; set temperature
G28 ; home all axes
G1 Z5 F5000 ; lift nozzle

M109 S185 ; set temperature and wait for it to be reached
G21 ; set units to millimeters
G90 ; use absolute coordinates
M83 ; use relative distances for extrusion
G1 Z0.240 F7800.000
G1 X87.246 Y47.602 F7800.000
G1 F1800
G1 X87.874 Y46.733 E0.04585
G1 X88.160 Y46.372 E0.01967
G1 X88.557 Y45.940 E0.02508
G1 X88.992 Y45.537 E0.02537
G1 X89.432 Y45.190 E0.02394
G1 X89.897 Y44.878 E0.02394
G1 X90.894 Y44.300 E0.04929
G1 X91.425 Y44.036 E0.02537
G1 X91.938 Y43.828 E0.02366
G1 X92.472 Y43.659 E0.02394
G1 X93.011 Y43.532 E0.02366
G1 X93.557 Y43.446 E0.02366
G1 X94.675 Y43.341 E0.04800
G1 X95.208 Y43.320 E0.02280
G1 X95.867 Y43.348 E0.02822
G1 X96.528 Y43.436 E0.02850
G1 X97.248 Y43.605 E0.03163
G1 X98.313 Y43.951 E0.04784
G1 X98.853 Y44.160 E0.02480
G1 X99.370 Y44.409 E0.02451
G1 X99.899 Y44.718 E0.02622
G1 X100.406 Y45.076 E0.02651
G1 X100.771 Y45.377 E0.02024
G1 X101.602 Y46.130 E0.04796
G1 X101.999 Y46.544 E0.02451
G1 X102.362 Y46.988 E0.02451
G1 X102.689 Y47.459 E0.02451
G1 X102.978 Y47.954 E0.02451
G1 X103.184 Y48.373 E0.01995
G1 X103.667 Y49.475 E0.05143
G1 X103.859 Y50.050 E0.02594
G1 X104.003 Y50.639 E0.02594
G1 X104.075 Y51.060 E0.01824
G1 X104.157 Y51.734 E0.02906
G1 X104.197 Y52.480 E0.03192
G1 X104.197 Y87.520 E1.49816
G1 X104.176 Y88.060 E0.02309
G1 X104.114 Y88.596 E0.02309
G1 X103.873 Y89.792 E0.05218
G1 X103.768 Y90.220 E0.01881
G1 X103.585 Y90.791 E0.02565
G1 X103.352 Y91.351 E0.02594
G1 X103.086 Y91.867 E0.02480
G1 X102.777 Y92.365 E0.02508
G1 X102.086 Y93.321 E0.05041
G1 X101.691 Y93.798 E0.02651
G1 X101.178 Y94.313 E0.03106
G1 X100.622 Y94.770 E0.03078
G1 X100.103 Y95.122 E0.02679
G1 X99.205 Y95.644 E0.04444
G1 X98.690 Y95.912 E0.02480
G1 X98.149 Y96.140 E0.02508
G1 X97.599 Y96.321 E0.02480
G1 X97.029 Y96.460 E0.02508
G1 X96.377 Y96.561 E0.02822
G1 X95.435 Y96.659 E0.04048
G1 X94.956 Y96.685 E0.02052
G1 X94.143 Y96.657 E0.03477
G1 X93.338 Y96.539 E0.03477
G1 X92.372 Y96.313 E0.04242
G1 X91.954 Y96.177 E0.01881
G1 X91.538 Y96.014 E0.01910
G1 X90.856 Y95.678 E0.03249
G1 X89.997 Y95.183 E0.04239
G1 X89.626 Y94.947 E0.01881
G1 X89.275 Y94.693 E0.01853
G1 X88.935 Y94.414 E0.01881
G1 X88.617 Y94.119 E0.01853
G1 X88.312 Y93.802 E0.01881
G1 X87.865 Y93.255 E0.03021
G1 X87.293 Y92.467 E0.04160
G1 X87.041 Y92.083 E0.01967
G1 X86.670 Y91.397 E0.03334
G1 X86.374 Y90.675 E0.03334
G1 X86.180 Y90.024 E0.02907
G1 X85.946 Y88.936 E0.04755
G1 X85.840 Y88.238 E0.03021
G1 X85.803 Y87.526 E0.03049
G1 X85.806 Y52.273 E1.50722
G1 X85.842 Y51.741 E0.02280
G1 X85.916 Y51.220 E0.02252
G1 X86.149 Y50.110 E0.04847
G1 X86.284 Y49.601 E0.02252
G1 X86.460 Y49.091 E0.02309
G1 X86.674 Y48.595 E0.02309
G1 X86.924 Y48.116 E0.02309
G1 X87.212 Y47.651 E0.02337
G1 X87.594 Y47.851 F7800.000
G1 F1800
G1 X88.212 Y46.997 E0.04503
G1 X88.476 Y46.662 E0.01825
G1 X88.851 Y46.252 E0.02378
G1 X89.264 Y45.869 E0.02406
G1 X89.675 Y45.543 E0.02240
G1 X90.114 Y45.247 E0.02268
G1 X91.088 Y44.683 E0.04810
G1 X91.591 Y44.431 E0.02406
G1 X92.076 Y44.234 E0.02240
G1 X92.575 Y44.075 E0.02240
G1 X93.085 Y43.954 E0.02240
G1 X93.609 Y43.872 E0.02268
G1 X94.698 Y43.769 E0.04678
G1 X95.202 Y43.748 E0.02157
G1 X95.836 Y43.775 E0.02710
G1 X96.457 Y43.859 E0.02682
G1 X97.137 Y44.019 E0.02986
G1 X98.182 Y44.359 E0.04699
G1 X98.695 Y44.558 E0.02350
G1 X99.184 Y44.795 E0.02323
G1 X99.685 Y45.090 E0.02489
G1 X100.160 Y45.427 E0.02489
G1 X100.498 Y45.708 E0.01881
G1 X101.315 Y46.448 E0.04712
G1 X101.690 Y46.841 E0.02323
G1 X102.033 Y47.263 E0.02323
G1 X102.341 Y47.710 E0.02323
G1 X102.613 Y48.180 E0.02323
G1 X102.799 Y48.560 E0.01808
G1 X103.273 Y49.645 E0.05062
G1 X103.456 Y50.198 E0.02489
G1 X103.592 Y50.770 E0.02516
G1 X103.732 Y51.795 E0.04425
G1 X103.769 Y52.480 E0.02931
G1 X103.769 Y87.513 E1.49785
G1 X103.750 Y88.011 E0.02129
G1 X103.695 Y88.506 E0.02129
G1 X103.620 Y88.919 E0.01798
G1 X103.360 Y90.087 E0.05113
G1 X103.188 Y90.629 E0.02433
G1 X102.968 Y91.161 E0.02461
G1 X102.714 Y91.656 E0.02378
G1 X102.420 Y92.128 E0.02378
G1 X101.746 Y93.060 E0.04918
G1 X101.375 Y93.509 E0.02489
G1 X100.887 Y93.999 E0.02958
G1 X100.352 Y94.437 E0.02958
G1 X99.863 Y94.766 E0.02516
G1 X98.974 Y95.282 E0.04395
G1 X98.480 Y95.537 E0.02378
G1 X97.966 Y95.750 E0.02378
G1 X97.437 Y95.922 E0.02378
G1 X96.896 Y96.050 E0.02378
G1 X96.307 Y96.138 E0.02547
G1 X95.387 Y96.233 E0.03952
G1 X94.922 Y96.257 E0.01991
G1 X94.153 Y96.228 E0.03290
G1 X93.399 Y96.113 E0.03262
G1 X92.483 Y95.899 E0.04021
G1 X92.084 Y95.769 E0.01798
G1 X91.687 Y95.611 E0.01825
G1 X91.049 Y95.296 E0.03041
G1 X90.209 Y94.810 E0.04151
G1 X89.838 Y94.573 E0.01881
G1 X89.191 Y94.068 E0.03511
G1 X88.608 Y93.490 E0.03511
G1 X88.192 Y92.977 E0.02820
G1 X87.635 Y92.208 E0.04063
G1 X87.384 Y91.823 E0.01963
G1 X87.038 Y91.172 E0.03152
G1 X86.763 Y90.488 E0.03152
G1 X86.588 Y89.886 E0.02682
G1 X86.357 Y88.805 E0.04724
G1 X86.264 Y88.165 E0.02765
G1 X86.231 Y87.526 E0.02737
G1 X86.234 Y52.299 E1.50612
G1 X86.267 Y51.803 E0.02129
G1 X86.337 Y51.303 E0.02157
G1 X86.564 Y50.215 E0.04754
G1 X86.688 Y49.746 E0.02074
G1 X86.853 Y49.262 E0.02185
G1 X87.054 Y48.792 E0.02185
G1 X87.290 Y48.339 E0.02185
G1 X87.561 Y47.900 E0.02205
G1 X87.938 Y48.107 F7800.000
G1 F1800
G1 X88.790 Y46.955 E0.06125
G1 X89.143 Y46.566 E0.02249
G1 X89.532 Y46.203 E0.02276
G1 X89.925 Y45.891 E0.02142
G1 X90.340 Y45.611 E0.02142
G1 X91.293 Y45.059 E0.04709
G1 X91.758 Y44.826 E0.02222
G1 X92.216 Y44.639 E0.02115
G1 X92.687 Y44.488 E0.02115
G1 X93.168 Y44.374 E0.02115
G1 X93.657 Y44.298 E0.02115
G1 X94.728 Y44.197 E0.04601
G1 X95.191 Y44.177 E0.01981
G1 X95.792 Y44.201 E0.02570
G1 X96.388 Y44.282 E0.02570
G1 X97.028 Y44.433 E0.02811
G1 X98.046 Y44.765 E0.04578
G1 X98.524 Y44.951 E0.02196
G1 X98.992 Y45.178 E0.02222
G1 X99.466 Y45.459 E0.02356
G1 X99.914 Y45.779 E0.02356
G1 X100.222 Y46.036 E0.01714
G1 X101.031 Y46.770 E0.04671
G1 X101.380 Y47.138 E0.02169
G1 X101.703 Y47.538 E0.02196
G1 X101.993 Y47.961 E0.02196
G1 X102.248 Y48.407 E0.02196
G1 X102.727 Y49.444 E0.04882
G1 X102.881 Y49.820 E0.01741
G1 X103.054 Y50.350 E0.02383
G1 X103.181 Y50.899 E0.02410
G1 X103.308 Y51.855 E0.04123
G1 X103.340 Y52.481 E0.02677
G1 X103.340 Y87.513 E1.49780
G1 X103.323 Y87.963 E0.01928
G1 X103.275 Y88.411 E0.01928
G1 X103.203 Y88.819 E0.01767
G1 X102.952 Y89.955 E0.04977
G1 X102.790 Y90.469 E0.02303
G1 X102.585 Y90.967 E0.02303
G1 X102.346 Y91.435 E0.02249
G1 X102.069 Y91.882 E0.02249
G1 X101.409 Y92.795 E0.04814
G1 X101.059 Y93.220 E0.02356
G1 X100.595 Y93.685 E0.02811
G1 X100.085 Y94.101 E0.02811
G1 X99.633 Y94.405 E0.02329
G1 X98.751 Y94.916 E0.04361
G1 X98.282 Y95.156 E0.02249
G1 X97.790 Y95.359 E0.02276
G1 X97.289 Y95.518 E0.02249
G1 X96.770 Y95.638 E0.02276
G1 X96.355 Y95.701 E0.01794
G1 X95.403 Y95.801 E0.04095
G1 X94.740 Y95.829 E0.02838
G1 X93.941 Y95.772 E0.03426
G1 X93.062 Y95.604 E0.03826
G1 X92.367 Y95.414 E0.03078
G1 X91.693 Y95.145 E0.03105
G1 X91.204 Y94.890 E0.02356
G1 X90.415 Y94.434 E0.03898
G1 X90.052 Y94.199 E0.01848
G1 X89.447 Y93.723 E0.03292
G1 X88.899 Y93.173 E0.03319
G1 X88.523 Y92.704 E0.02570
G1 X87.980 Y91.954 E0.03959
G1 X87.729 Y91.564 E0.01981
G1 X87.409 Y90.954 E0.02945
G1 X87.154 Y90.308 E0.02971
G1 X86.998 Y89.760 E0.02436
G1 X86.770 Y88.683 E0.04706
G1 X86.688 Y88.106 E0.02490
G1 X86.660 Y87.518 E0.02517
G1 X86.662 Y52.318 E1.50500
G1 X86.693 Y51.850 E0.02008
G1 X86.758 Y51.378 E0.02035
G1 X86.980 Y50.319 E0.04629
G1 X87.094 Y49.882 E0.01928
G1 X87.247 Y49.432 E0.02035
G1 X87.436 Y48.988 E0.02062
G1 X87.654 Y48.565 E0.02035
G1 X87.904 Y48.157 E0.02046
G1 X94.750 Y51.752 F7800.000
G1 F600
G1 X95.105 Y51.719 E0.01523
G1 X95.393 Y51.814 E0.01300
G1 X95.641 Y52.037 E0.01426
G1 X95.791 Y52.370 E0.01562
G1 X95.815 Y52.566 E0.00842
G1 X95.815 Y87.385 E1.48870
G1 X95.722 Y87.821 E0.01909
G1 X95.529 Y88.087 E0.01405
G1 X95.244 Y88.252 E0.01405
G1 X94.858 Y88.292 E0.01659
G1 X94.807 Y88.281 E0.00223
G1 X94.471 Y88.087 E0.01658
G1 X94.278 Y87.821 E0.01405
G1 X94.185 Y87.385 E0.01909
G1 X94.185 Y52.615 E1.48658
G1 X94.278 Y52.179 E0.01909
G1 X94.471 Y51.913 E0.01405
G1 X94.698 Y51.782 E0.01119
G1 X94.617 Y51.334 F7800.000
G1 F600
G1 X95.154 Y51.284 E0.02306
G1 X95.613 Y51.435 E0.02067
G1 X95.995 Y51.779 E0.02197
G1 X96.209 Y52.254 E0.02227
G1 X96.243 Y52.540 E0.01232
G1 X96.243 Y87.430 E1.49172
G1 X96.122 Y88.000 E0.02491
G1 X95.822 Y88.413 E0.02184
G1 X95.380 Y88.668 E0.02183
G1 X94.836 Y88.725 E0.02339
G1 X94.652 Y88.686 E0.00803
G1 X94.178 Y88.413 E0.02338
G1 X93.878 Y88.000 E0.02184
G1 X93.757 Y87.430 E0.02491
G1 X93.757 Y52.570 E1.49043
G1 X93.878 Y52.000 E0.02491
G1 X94.178 Y51.587 E0.02184
G1 X94.565 Y51.364 E0.01909
G1 X94.484 Y50.916 F7800.000
G1 F600
G1 X95.203 Y50.849 E0.03089
G1 X95.833 Y51.057 E0.02835
G1 X96.348 Y51.521 E0.02967
G1 X96.626 Y52.138 E0.02892
G1 X96.672 Y52.514 E0.01622
G1 X96.672 Y87.475 E1.49475
G1 X96.522 Y88.178 E0.03073
G1 X96.115 Y88.738 E0.02963
G1 X95.515 Y89.085 E0.02962
G1 X94.813 Y89.159 E0.03018
G1 X94.496 Y89.091 E0.01384
G1 X93.885 Y88.738 E0.03018
G1 X93.478 Y88.178 E0.02963
G1 X93.328 Y87.475 E0.03073
G1 X93.328 Y52.525 E1.49428
G1 X93.478 Y51.822 E0.03073
G1 X93.885 Y51.262 E0.02963
G1 X94.432 Y50.946 E0.02700
G1 X94.779 Y51.186 F7800.000
G1 X95.682 Y52.539 F7800.000
G1 F600
G1 X95.228 Y52.098 E0.02744
G1 X95.068 Y52.045 E0.00735
G1 X94.850 Y52.065 E0.00950
G1 X94.689 Y52.160 E0.00812
G1 X95.493 Y52.965 E0.04940
G1 X95.493 Y53.580 E0.02670
G1 X94.516 Y52.603 E0.05997
G1 X94.507 Y52.649 E0.00202
G1 X94.507 Y53.209 E0.02430
G1 X95.493 Y54.196 E0.06057
G1 X95.493 Y54.811 E0.02670
G1 X94.507 Y53.824 E0.06057
G1 X94.507 Y54.439 E0.02670
G1 X95.493 Y55.426 E0.06057
G1 X95.493 Y56.041 E0.02670
G1 X94.507 Y55.055 E0.06057
G1 X94.507 Y55.670 E0.02670
G1 X95.493 Y56.656 E0.06057
G1 X95.493 Y57.272 E0.02670
G1 X94.507 Y56.285 E0.06057
G1 X94.507 Y56.900 E0.02670
G1 X95.493 Y57.887 E0.06057
G1 X95.493 Y58.502 E0.02670
G1 X94.507 Y57.515 E0.06057
G1 X94.507 Y58.131 E0.02670
G1 X95.493 Y59.117 E0.06057
G1 X95.493 Y59.732 E0.02670
G1 X94.507 Y58.746 E0.06057
G1 X94.507 Y59.361 E0.02670
G1 X95.493 Y60.348 E0.06057
G1 X95.493 Y60.963 E0.02670
G1 X94.507 Y59.976 E0.06057
G1 X94.507 Y60.591 E0.02670
G1 X95.493 Y61.578 E0.06057
G1 X95.493 Y62.193 E0.02670
G1 X94.507 Y61.207 E0.06057
G1 X94.507 Y61.822 E0.02670
G1 X95.493 Y62.809 E0.06057
G1 X95.493 Y63.424 E0.02670
G1 X94.507 Y62.437 E0.06057
G1 X94.507 Y63.052 E0.02670
G1 X95.493 Y64.039 E0.06057
G1 X95.493 Y64.654 E0.02670
G1 X94.507 Y63.667 E0.06057
G1 X94.507 Y64.283 E0.02670
G1 X95.493 Y65.269 E0.06057
G1 X95.493 Y65.885 E0.02670
G1 X94.507 Y64.898 E0.06057
G1 X94.507 Y65.513 E0.02670
G1 X95.493 Y66.500 E0.06057
G1 X95.493 Y67.115 E0.02670
G1 X94.507 Y66.128 E0.06057
G1 X94.507 Y66.743 E0.02670
G1 X95.493 Y67.730 E0.06057
G1 X95.493 Y68.345 E0.02670
G1 X94.507 Y67.359 E0.06057
G1 X94.507 Y67.974 E0.02670
G1 X95.493 Y68.961 E0.06057
G1 X95.493 Y69.576 E0.02670
G1 X94.507 Y68.589 E0.06057
G1 X94.507 Y69.204 E0.02670
G1 X95.493 Y70.191 E0.06057
G1 X95.493 Y70.806 E0.02670
G1 X94.507 Y69.819 E0.06057
G1 X94.507 Y70.435 E0.02670
G1 X95.493 Y71.421 E0.06057
G1 X95.493 Y72.037 E0.02670
G1 X94.507 Y71.050 E0.06057
G1 X94.507 Y71.665 E0.02670
G1 X95.493 Y72.652 E0.06057
G1 X95.493 Y73.267 E0.02670
G1 X94.507 Y72.280 E0.06057
G1 X94.507 Y72.896 E0.02670
G1 X95.493 Y73.882 E0.06057
G1 X95.493 Y74.497 E0.02670
G1 X94.507 Y73.511 E0.06057
G1 X94.507 Y74.126 E0.02670
G1 X95.493 Y75.113 E0.06057
G1 X95.493 Y75.728 E0.02670
G1 X94.507 Y74.741 E0.06057
G1 X94.507 Y75.356 E0.02670
G1 X95.493 Y76.343 E0.06057
G1 X95.493 Y76.958 E0.02670
G1 X94.507 Y75.972 E0.06057
G1 X94.507 Y76.587 E0.02670
G1 X95.493 Y77.573 E0.06057
G1 X95.493 Y78.189 E0.02670
G1 X94.507 Y77.202 E0.06057
G1 X94.507 Y77.817 E0.02670
G1 X95.493 Y78.804 E0.06057
G1 X95.493 Y79.419 E0.02670
G1 X94.507 Y78.432 E0.06057
G1 X94.507 Y79.048 E0.02670
G1 X95.493 Y80.034 E0.06057
G1 X95.493 Y80.649 E0.02670
G1 X94.507 Y79.663 E0.06057
G1 X94.507 Y80.278 E0.02670
G1 X95.493 Y81.265 E0.06057
G1 X95.493 Y81.880 E0.02670
G1 X94.507 Y80.893 E0.06057
G1 X94.507 Y81.508 E0.02670
G1 X95.493 Y82.495 E0.06057
G1 X95.493 Y83.110 E0.02670
G1 X94.507 Y82.124 E0.06057
G1 X94.507 Y82.739 E0.02670
G1 X95.493 Y83.725 E0.06057
G1 X95.493 Y84.341 E0.02670
G1 X94.507 Y83.354 E0.06057
G1 X94.507 Y83.969 E0.02670
G1 X95.493 Y84.956 E0.06057
G1 X95.493 Y85.571 E0.02670
G1 X94.507 Y84.584 E0.06057
G1 X94.507 Y85.200 E0.02670
G1 X95.493 Y86.186 E0.06057
G1 X95.493 Y86.801 E0.02670
G1 X94.507 Y85.815 E0.06057
G1 X94.507 Y86.430 E0.02670
G1 X95.482 Y87.405 E0.05986
G1 X95.422 Y87.688 E0.01254
G1 X95.309 Y87.843 E0.00833
G1 X94.314 Y86.852 E0.06095
M104 S172 ; set temperature
M140 S60 ; set bed temperature
G1 Z0.540 F7800.000
G1 X92.966 Y88.381 F7800.000
G1 F3600
G1 X92.830 Y87.961 E0.02306
G1 X92.776 Y87.448 E0.02697
G1 X92.776 Y52.552 E1.82312
G1 X92.830 Y52.039 E0.02697
G1 X92.973 Y51.598 E0.02423
G1 X93.205 Y51.196 E0.02423
G1 X93.516 Y50.851 E0.02423
G1 X93.891 Y50.579 E0.02423
G1 X94.314 Y50.390 E0.02423
G1 X94.768 Y50.294 E0.02423
G1 X95.232 Y50.294 E0.02423
G1 X95.529 Y50.357 E0.01589
G1 X96.127 Y50.592 E0.03357
G1 X96.484 Y50.851 E0.02306
G1 X96.795 Y51.196 E0.02423
G1 X97.027 Y51.598 E0.02423
G1 X97.170 Y52.039 E0.02423
G1 X97.224 Y52.552 E0.02697
G1 X97.224 Y87.448 E1.82312
G1 X97.170 Y87.961 E0.02697
G1 X97.027 Y88.402 E0.02423
G1 X96.795 Y88.804 E0.02423
G1 X96.484 Y89.149 E0.02423
G1 X96.109 Y89.421 E0.02423
G1 X95.686 Y89.610 E0.02423
G1 X95.232 Y89.706 E0.02423
G1 X94.768 Y89.706 E0.02423
G1 X94.314 Y89.610 E0.02423
G1 X93.891 Y89.421 E0.02423
G1 X93.516 Y89.149 E0.02423
G1 X93.312 Y88.923 E0.01589
G1 X92.999 Y88.432 E0.03044
G1 X92.357 Y52.530 F7800.000
G1 F3600
G1 X92.418 Y51.951 E0.03042
G1 X92.589 Y51.426 E0.02883
G1 X92.864 Y50.948 E0.02883
G1 X93.234 Y50.538 E0.02883
G1 X93.680 Y50.214 E0.02883
G1 X94.184 Y49.990 E0.02883
G1 X94.724 Y49.875 E0.02883
G1 X95.276 Y49.875 E0.02883
G1 X95.650 Y49.954 E0.02000
G1 X96.330 Y50.222 E0.03817
G1 X96.766 Y50.538 E0.02815
G1 X97.136 Y50.948 E0.02883
G1 X97.411 Y51.426 E0.02883
G1 X97.582 Y51.951 E0.02883
G1 X97.643 Y52.530 E0.03042
G1 X97.643 Y87.470 E1.82541
G1 X97.582 Y88.049 E0.03042
G1 X97.411 Y88.574 E0.02883
G1 X97.136 Y89.052 E0.02883
G1 X96.766 Y89.462 E0.02883
G1 X96.320 Y89.786 E0.02883
G1 X95.816 Y90.010 E0.02883
G1 X95.276 Y90.125 E0.02883
G1 X94.724 Y90.125 E0.02883
G1 X94.184 Y90.010 E0.02883
G1 X93.680 Y89.786 E0.02883
G1 X93.234 Y89.462 E0.02883
G1 X92.978 Y89.177 E0.01999
G1 X92.585 Y88.561 E0.03817
G1 X92.418 Y88.049 E0.02815
G1 X92.357 Y87.470 E0.03042
G1 X92.357 Y52.590 E1.82228
G1 X91.980 Y52.590 F7800.000
G1 F3600
G1 X92.047 Y51.872 E0.03767
G1 X92.242 Y51.272 E0.03298
G1 X92.558 Y50.725 E0.03297
G1 X92.980 Y50.256 E0.03297
G1 X93.491 Y49.885 E0.03298
G1 X94.067 Y49.629 E0.03297
G1 X94.684 Y49.498 E0.03297
G1 X95.316 Y49.498 E0.03297
G1 X95.759 Y49.592 E0.02370
G1 X96.513 Y49.888 E0.04232
G1 X97.020 Y50.256 E0.03274
G1 X97.442 Y50.725 E0.03297
G1 X97.758 Y51.272 E0.03297
G1 X97.953 Y51.872 E0.03298
G1 X98.020 Y52.510 E0.03352
G1 X98.020 Y87.490 E1.82748
G1 X97.953 Y88.128 E0.03352
G1 X97.758 Y88.728 E0.03298
G1 X97.442 Y89.275 E0.03297
G1 X97.020 Y89.744 E0.03297
G1 X96.509 Y90.115 E0.03298
G1 X95.933 Y90.371 E0.03297
G1 X95.316 Y90.502 E0.03297
G1 X94.684 Y90.502 E0.03297
G1 X94.067 Y90.371 E0.03297
G1 X93.491 Y90.115 E0.03297
G1 X92.980 Y89.744 E0.03298
G1 X92.676 Y89.406 E0.02370
G1 X92.241 Y88.724 E0.04232
G1 X92.047 Y88.128 E0.03274
G1 X91.980 Y87.490 E0.03352
G1 X91.980 Y52.650 E1.82017
G1 X95.861 Y50.624 F7800.000
G1 F3600
G1 X94.801 Y50.624 E0.05552
G1 X94.417 Y50.705 E0.02058
G1 X94.057 Y50.866 E0.02067
G1 X93.770 Y51.074 E0.01859
G1 X96.230 Y51.074 E0.12896
