; generated by Slic3r 1.33.3-prusa3d-win64 on 2017-05-13 at 19:22:59

; external perimeters extrusion width = 0.40mm
; perimeters extrusion width = 0.48mm
; infill extrusion width = 0.48mm
; solid infill extrusion width = 0.48mm
; top infill extrusion width = 0.48mm

M104 S185 ; set temperature
G28 ; home all axes
G1 Z5 F5000 ; lift nozzle

M109 S185 ; set temperature and wait for it to be reached
G21 ; set units to millimeters
G90 ; use absolute coordinates
M83 ; use relative distances for extrusion
G1 Z0.240 F7800.000
G1 X68.257 Y54.223 F7800.000
;G1 F1800 ; replaced by represure
G1 X68.257 Y54.223 E0.5 F600; long travel extraShot
G1 X68.778 Y53.634 E0.03363
G1 X69.355 Y53.109 E0.03334
G1 X69.990 Y52.645 E0.03363
G1 X70.671 Y52.252 E0.03363
G1 X71.385 Y51.937 E0.03334
G1 X72.134 Y51.698 E0.03363
G1 X72.898 Y51.543 E0.03334
G1 X73.681 Y51.470 E0.03363
G1 X116.155 Y51.466 E1.81598
G1 X116.959 Y51.523 E0.03448
G1 X117.752 Y51.670 E0.03448
G1 X118.524 Y51.903 E0.03448
G1 X119.272 Y52.223 E0.03477
G1 X119.654 Y52.427 E0.01853
G1 X120.029 Y52.657 E0.01881
G1 X120.390 Y52.909 E0.01881
G1 X120.735 Y53.183 E0.01881
G1 X121.062 Y53.477 E0.01881
G1 X121.371 Y53.790 E0.01881
G1 X121.661 Y54.121 E0.01881
G1 X121.930 Y54.469 E0.01881
G1 X122.174 Y54.827 E0.01853
G1 X122.400 Y55.205 E0.01881
G1 X122.602 Y55.596 E0.01881
G1 X122.781 Y55.998 E0.01881
G1 X122.935 Y56.410 E0.01881
G1 X123.063 Y56.831 E0.01881
G1 X123.166 Y57.259 E0.01881
G1 X123.243 Y57.692 E0.01881
G1 X123.301 Y58.216 E0.02252
G1 X124.648 Y76.897 E0.80081
G1 X124.610 Y77.750 E0.03647
G1 X124.506 Y78.708 E0.04121
G1 X124.398 Y79.312 E0.02622
G1 X124.261 Y79.834 E0.02309
G1 X123.947 Y80.801 E0.04348
G1 X123.781 Y81.237 E0.01995
G1 X123.587 Y81.662 E0.01995
G1 X123.386 Y82.038 E0.01824
G1 X122.828 Y82.990 E0.04718
G1 X122.524 Y83.428 E0.02280
G1 X122.184 Y83.848 E0.02309
G1 X121.502 Y84.603 E0.04351
G1 X121.082 Y85.013 E0.02508
G1 X120.636 Y85.384 E0.02480
G1 X119.820 Y85.980 E0.04322
G1 X119.362 Y86.278 E0.02337
G1 X118.877 Y86.545 E0.02366
G1 X117.866 Y87.003 E0.04746
G1 X117.432 Y87.176 E0.01995
G1 X116.995 Y87.320 E0.01967
G1 X116.556 Y87.434 E0.01938
G1 X115.580 Y87.640 E0.04266
G1 X115.013 Y87.724 E0.02451
G1 X114.395 Y87.764 E0.02651
G1 X78.409 Y88.535 E1.53894
G1 X77.644 Y88.485 E0.03277
G1 X76.080 Y88.297 E0.06736
G1 X75.476 Y88.189 E0.02622
G1 X75.056 Y88.081 E0.01853
G1 X73.470 Y87.614 E0.07070
G1 X72.976 Y87.432 E0.02252
G1 X72.495 Y87.216 E0.02252
G1 X71.038 Y86.474 E0.06992
G1 X70.648 Y86.243 E0.01938
G1 X70.273 Y85.988 E0.01938
G1 X68.767 Y84.770 E0.08280
G1 X68.342 Y84.357 E0.02537
G1 X67.955 Y83.916 E0.02508
G1 X66.907 Y82.494 E0.07551
G1 X66.618 Y82.023 E0.02366
G1 X66.362 Y81.524 E0.02394
G1 X66.130 Y80.964 E0.02594
G1 X65.675 Y79.648 E0.05952
G1 X65.518 Y79.048 E0.02651
G1 X65.412 Y78.437 E0.02651
G1 X65.352 Y77.640 E0.03420
G1 X65.366 Y76.034 E0.06868
G1 X66.728 Y57.914 E0.77689
G1 X66.802 Y57.420 E0.02138
G1 X66.910 Y56.932 E0.02138
G1 X67.052 Y56.452 E0.02138
G1 X67.223 Y55.989 E0.02109
G1 X67.425 Y55.539 E0.02109
G1 X67.661 Y55.098 E0.02138
G1 X67.926 Y54.674 E0.02138
;G1 X68.220 Y54.270 E0.02138 ; replaced by coast
G1 X68.22 Y54.27 Z0.24 E-0.0249825939406; coast(0.499651878812) & retract
G1 X68.22 Y54.27 Z0.24 E-0.3; & endwipe
G1 X68.543 Y54.553 F7800.000
;G1 F1800 ; replaced by represure
G1 X68.543 Y54.553 E0.324982593941 F600; tipRepresure
G1 X69.029 Y53.990 E0.03179
G1 X69.578 Y53.480 E0.03207
G1 X70.180 Y53.032 E0.03207
G1 X70.827 Y52.653 E0.03207
G1 X71.506 Y52.349 E0.03179
G1 X72.220 Y52.119 E0.03207
G1 X72.955 Y51.968 E0.03207
G1 X73.702 Y51.898 E0.03207
G1 X116.138 Y51.894 E1.81441
G1 X116.893 Y51.947 E0.03235
G1 X117.637 Y52.083 E0.03235
G1 X118.362 Y52.300 E0.03235
G1 X119.058 Y52.596 E0.03235
G1 X119.778 Y53.005 E0.03538
G1 X120.123 Y53.245 E0.01798
G1 X120.448 Y53.502 E0.01770
G1 X120.761 Y53.782 E0.01798
G1 X121.052 Y54.076 E0.01770
G1 X121.325 Y54.387 E0.01770
G1 X121.583 Y54.720 E0.01798
G1 X122.028 Y55.417 E0.03538
G1 X122.221 Y55.791 E0.01798
G1 X122.388 Y56.170 E0.01770
G1 X122.652 Y56.954 E0.03538
G1 X122.749 Y57.356 E0.01770
G1 X122.822 Y57.770 E0.01798
G1 X122.873 Y58.246 E0.02046
G1 X124.219 Y76.883 E0.79892
G1 X124.185 Y77.691 E0.03455
G1 X124.083 Y78.637 E0.04070
G1 X123.983 Y79.204 E0.02461
G1 X123.851 Y79.711 E0.02240
G1 X123.547 Y80.647 E0.04206
G1 X123.392 Y81.058 E0.01881
G1 X123.212 Y81.453 E0.01853
G1 X123.018 Y81.818 E0.01770
G1 X122.472 Y82.751 E0.04620
G1 X122.185 Y83.165 E0.02157
G1 X121.864 Y83.563 E0.02185
G1 X121.192 Y84.308 E0.04291
G1 X120.798 Y84.692 E0.02350
G1 X120.371 Y85.048 E0.02378
G1 X119.575 Y85.628 E0.04208
G1 X119.142 Y85.910 E0.02212
G1 X118.683 Y86.163 E0.02240
G1 X117.693 Y86.611 E0.04647
G1 X117.278 Y86.777 E0.01908
G1 X116.872 Y86.909 E0.01825
G1 X116.453 Y87.018 E0.01853
G1 X115.496 Y87.220 E0.04181
G1 X114.959 Y87.299 E0.02323
G1 X114.384 Y87.336 E0.02461
G1 X78.426 Y88.107 E1.53775
G1 X77.704 Y88.061 E0.03096
G1 X76.147 Y87.874 E0.06703
G1 X75.587 Y87.774 E0.02433
G1 X75.179 Y87.671 E0.01798
G1 X73.615 Y87.210 E0.06970
G1 X73.153 Y87.042 E0.02102
G1 X72.705 Y86.841 E0.02102
G1 X71.261 Y86.108 E0.06924
G1 X70.899 Y85.894 E0.01798
G1 X70.545 Y85.655 E0.01825
G1 X69.069 Y84.465 E0.08106
G1 X68.669 Y84.079 E0.02378
G1 X68.301 Y83.662 E0.02378
G1 X67.272 Y82.270 E0.07403
G1 X66.997 Y81.824 E0.02240
G1 X66.758 Y81.358 E0.02240
G1 X66.534 Y80.820 E0.02489
G1 X66.086 Y79.527 E0.05853
G1 X65.938 Y78.964 E0.02489
G1 X65.837 Y78.384 E0.02516
G1 X65.781 Y77.630 E0.03235
G1 X65.794 Y76.060 E0.06709
G1 X67.151 Y57.987 E0.77491
G1 X67.217 Y57.533 E0.01963
G1 X67.315 Y57.077 E0.01991
G1 X67.442 Y56.636 E0.01963
G1 X67.598 Y56.204 E0.01963
G1 X67.783 Y55.784 E0.01963
G1 X67.999 Y55.371 E0.01991
G1 X68.238 Y54.979 E0.01963
;G1 X68.506 Y54.600 E0.01984 ; replaced by coast
G1 X68.506 Y54.6 Z0.24 E-0.0232091038173; coast(0.464182076345) & retract
G1 X68.506 Y54.6 Z0.24 E-0.3; & endwipe
G1 X68.846 Y54.862 F7800.000
;G1 F1800 ; replaced by represure
G1 X68.846 Y54.862 E0.323209103817 F600; tipRepresure
G1 X69.304 Y54.323 E0.03025
G1 X69.819 Y53.837 E0.03025
G1 X70.384 Y53.411 E0.03025
G1 X70.998 Y53.047 E0.03052
G1 X71.642 Y52.756 E0.03025
G1 X72.321 Y52.535 E0.03052
G1 X73.014 Y52.392 E0.03025
G1 X73.725 Y52.326 E0.03052
G1 X116.129 Y52.322 E1.81302
G1 X116.835 Y52.371 E0.03025
G1 X117.525 Y52.496 E0.02998
G1 X118.203 Y52.698 E0.03025
G1 X118.855 Y52.973 E0.03025
G1 X119.536 Y53.358 E0.03346
G1 X120.165 Y53.824 E0.03346
G1 X120.733 Y54.362 E0.03346
G1 X121.235 Y54.970 E0.03372
G1 X121.656 Y55.630 E0.03346
G1 X121.993 Y56.336 E0.03346
G1 X122.242 Y57.078 E0.03346
G1 X122.400 Y57.851 E0.03372
G1 X122.446 Y58.283 E0.01861
G1 X123.791 Y76.877 E0.79707
G1 X123.760 Y77.641 E0.03265
G1 X123.660 Y78.568 E0.03987
G1 X123.568 Y79.098 E0.02303
G1 X123.442 Y79.583 E0.02142
G1 X123.147 Y80.493 E0.04090
G1 X123.004 Y80.874 E0.01741
G1 X122.837 Y81.246 E0.01741
G1 X122.650 Y81.600 E0.01714
G1 X122.120 Y82.507 E0.04491
G1 X121.849 Y82.899 E0.02035
G1 X121.547 Y83.274 E0.02062
G1 X120.885 Y84.008 E0.04226
G1 X120.514 Y84.372 E0.02222
G1 X120.109 Y84.708 E0.02249
G1 X119.331 Y85.276 E0.04119
G1 X118.916 Y85.546 E0.02115
G1 X118.482 Y85.784 E0.02115
G1 X117.520 Y86.219 E0.04517
G1 X117.130 Y86.374 E0.01794
G1 X116.743 Y86.501 E0.01741
G1 X116.349 Y86.602 E0.01741
G1 X115.418 Y86.798 E0.04066
G1 X114.898 Y86.874 E0.02249
G1 X114.373 Y86.908 E0.02249
G1 X78.437 Y87.678 E1.53682
G1 X77.756 Y87.635 E0.02918
G1 X76.214 Y87.450 E0.06640
G1 X75.690 Y87.358 E0.02276
G1 X75.301 Y87.260 E0.01714
G1 X73.760 Y86.807 E0.06869
G1 X73.330 Y86.651 E0.01955
G1 X72.912 Y86.466 E0.01955
G1 X71.483 Y85.741 E0.06851
G1 X70.815 Y85.322 E0.03372
G1 X69.370 Y84.159 E0.07928
G1 X68.990 Y83.795 E0.02249
G1 X68.645 Y83.406 E0.02222
G1 X67.640 Y82.049 E0.07222
G1 X67.379 Y81.629 E0.02115
G1 X67.152 Y81.189 E0.02115
G1 X66.937 Y80.675 E0.02383
G1 X66.499 Y79.411 E0.05721
G1 X66.358 Y78.878 E0.02356
G1 X66.262 Y78.329 E0.02383
G1 X66.209 Y77.617 E0.03052
G1 X66.221 Y76.087 E0.06543
G1 X67.575 Y58.052 E0.77326
G1 X67.635 Y57.630 E0.01821
G1 X67.723 Y57.214 E0.01821
G1 X67.840 Y56.798 E0.01848
G1 X67.983 Y56.397 E0.01821
G1 X68.152 Y56.006 E0.01821
G1 X68.346 Y55.627 E0.01821
G1 X68.565 Y55.262 E0.01821
;G1 X68.810 Y54.910 E0.01832 ; replaced by coast
G1 X68.81 Y54.91 Z0.24 E-0.0214434722002; coast(0.428869444004) & retract
G1 X68.81 Y54.91 Z0.24 E-0.3; & endwipe
G1 X80.371 Y61.403 F7800.000
;G1 F600 ; replaced by represure
G1 X80.371 Y61.403 E0.3214434722 F600; tipRepresure
G1 X75.062 Y61.403 E0.22697
G1 X75.062 Y59.847 E0.06653
G1 X109.629 Y59.847 E1.47794
G1 X109.629 Y65.153 E0.22686
G1 X80.371 Y65.153 E1.25097
;G1 X80.371 Y61.463 E0.15777 ; replaced by coast
G1 X80.371 Y61.463 Z0.24 E-0.1845; coast(3.69) & retract
G1 X80.371 Y61.463 Z0.24 E-0.3; & endwipe
G1 X110.058 Y60.082 F7800.000
;G1 F600 ; replaced by represure
G1 X110.058 Y60.082 E0.4845 F600; tipRepresure
G1 X110.058 Y60.082 E0.5 F600; long travel extraShot
G1 X110.058 Y64.918 E0.20681
G1 X115.366 Y64.918 E0.22697
G1 X115.366 Y65.582 E0.02835
G1 X79.942 Y65.582 E1.51458
G1 X79.942 Y61.832 E0.16033
G1 X74.634 Y61.832 E0.22697
G1 X74.634 Y59.418 E0.10317
G1 X115.366 Y59.418 E1.74155
G1 X115.366 Y60.082 E0.02835
;G1 X110.118 Y60.082 E0.22440 ; replaced by coast
G1 X115.118 Y60.082 E0.2244 ; extrude all
G1 X110.118 Y60.082 Z0.24 E-0.25; coast(5) & retract
G1 X110.118 Y60.082 Z0.24 E-0.3; & endwipe
G1 X110.486 Y60.510 F7800.000
;G1 F600 ; replaced by represure
G1 X110.486 Y60.51 E0.05; represure(0.05,0.0)
G1 X110.486 Y60.51 E0.5 F600; tipRepresure
G1 X110.486 Y64.490 E0.17017
G1 X115.795 Y64.490 E0.22697
G1 X115.795 Y66.010 E0.06499
G1 X79.514 Y66.010 E1.55122
G1 X79.514 Y62.260 E0.16033
G1 X74.205 Y62.260 E0.22697
G1 X74.205 Y58.990 E0.13981
G1 X115.795 Y58.990 E1.77819
G1 X115.795 Y60.510 E0.06499
;G1 X110.546 Y60.510 E0.22440 ; replaced by coast
G1 X115.546 Y60.51 E0.2244 ; extrude all
G1 X110.546 Y60.51 Z0.24 E-0.25; coast(5) & retract
G1 X110.546 Y60.51 Z0.24 E-0.3; & endwipe
G1 X110.088 Y60.547 F7800.000
G1 X109.844 Y59.750 F7800.000
;G1 F900 ; replaced by represure
G1 X109.844 Y59.75 E0.05; represure(0.05,0.0)
G1 X109.844 Y59.75 E0.5 F600; tipRepresure
;G1 X115.152 Y59.750 E0.09694 ; replaced by coast
G1 X110.152 Y59.75 E0.09694 ; extrude all
G1 X115.152 Y59.75 Z0.24 E-0.25; coast(5) & retract
G1 X115.152 Y59.75 Z0.24 E-0.3; & endwipe
G1 X115.152 Y65.250 F7800.000
;G1 F900 ; replaced by represure
G1 X115.152 Y65.25 E0.05; represure(0.05,5.0)
G1 X115.152 Y65.25 E0.5 F600; tipRepresure
;G1 X109.844 Y65.250 E0.09694 ; replaced by coast
G1 X114.844 Y65.25 E0.09694 ; extrude all
G1 X109.844 Y65.25 Z0.24 E-0.25; coast(5) & retract
G1 X109.844 Y65.25 Z0.24 E-0.3; & endwipe
G1 X109.501 Y60.856 F7800.000
;G1 F600 ; replaced by represure
G1 X109.501 Y60.856 E0.05; represure(0.05,0.0)
G1 X109.501 Y60.856 E0.5 F600; tipRepresure
G1 X108.813 Y60.168 E0.04222
G1 X108.198 Y60.168 E0.02672
G1 X109.308 Y61.278 E0.06817
G1 X109.308 Y61.894 E0.02672
G1 X107.582 Y60.168 E0.10596
G1 X106.967 Y60.168 E0.02672
G1 X109.308 Y62.509 E0.14376
G1 X109.308 Y63.125 E0.02672
G1 X106.352 Y60.168 E0.18155
G1 X105.736 Y60.168 E0.02672
G1 X109.308 Y63.740 E0.21934
G1 X109.308 Y64.356 E0.02672
G1 X105.121 Y60.168 E0.25713
G1 X104.505 Y60.168 E0.02672
G1 X109.169 Y64.832 E0.28636
G1 X108.553 Y64.832 E0.02672
G1 X103.890 Y60.168 E0.28636
G1 X103.274 Y60.168 E0.02672
G1 X107.938 Y64.832 E0.28636
G1 X107.322 Y64.832 E0.02672
G1 X102.659 Y60.168 E0.28636
G1 X102.044 Y60.168 E0.02672
G1 X106.707 Y64.832 E0.28636
G1 X106.091 Y64.832 E0.02672
G1 X101.428 Y60.168 E0.28636
G1 X100.813 Y60.168 E0.02672
G1 X105.476 Y64.832 E0.28636
G1 X104.861 Y64.832 E0.02672
G1 X100.197 Y60.168 E0.28636
G1 X99.582 Y60.168 E0.02672
G1 X104.245 Y64.832 E0.28636
G1 X103.630 Y64.832 E0.02672
G1 X98.966 Y60.168 E0.28636
G1 X98.351 Y60.168 E0.02672
G1 X103.014 Y64.832 E0.28636
G1 X102.399 Y64.832 E0.02672
G1 X97.736 Y60.168 E0.28636
G1 X97.120 Y60.168 E0.02672
G1 X101.783 Y64.832 E0.28636
G1 X101.168 Y64.832 E0.02672
G1 X96.505 Y60.168 E0.28636
G1 X95.889 Y60.168 E0.02672
G1 X100.553 Y64.832 E0.28636
G1 X99.937 Y64.832 E0.02672
G1 X95.274 Y60.168 E0.28636
G1 X94.658 Y60.168 E0.02672
G1 X99.322 Y64.832 E0.28636
G1 X98.706 Y64.832 E0.02672
G1 X94.043 Y60.168 E0.28636
G1 X93.428 Y60.168 E0.02672
G1 X98.091 Y64.832 E0.28636
G1 X97.475 Y64.832 E0.02672
G1 X92.812 Y60.168 E0.28636
G1 X92.197 Y60.168 E0.02672
G1 X96.860 Y64.832 E0.28636
G1 X96.245 Y64.832 E0.02672
G1 X91.581 Y60.168 E0.28636
G1 X90.966 Y60.168 E0.02672
G1 X95.629 Y64.832 E0.28636
G1 X95.014 Y64.832 E0.02672
G1 X90.350 Y60.168 E0.28636
G1 X89.735 Y60.168 E0.02672
G1 X94.398 Y64.832 E0.28636
G1 X93.783 Y64.832 E0.02672
G1 X89.120 Y60.168 E0.28636
G1 X88.504 Y60.168 E0.02672
G1 X93.167 Y64.832 E0.28636
G1 X92.552 Y64.832 E0.02672
G1 X87.889 Y60.168 E0.28636
G1 X87.273 Y60.168 E0.02672
G1 X91.937 Y64.832 E0.28636
G1 X91.321 Y64.832 E0.02672
G1 X86.658 Y60.168 E0.28636
G1 X86.042 Y60.168 E0.02672
G1 X90.706 Y64.832 E0.28636
G1 X90.090 Y64.832 E0.02672
G1 X85.427 Y60.168 E0.28636
G1 X84.812 Y60.168 E0.02672
G1 X89.475 Y64.832 E0.28636
G1 X88.859 Y64.832 E0.02672
G1 X84.196 Y60.168 E0.28636
G1 X83.581 Y60.168 E0.02672
G1 X88.244 Y64.832 E0.28636
G1 X87.629 Y64.832 E0.02672
G1 X82.965 Y60.168 E0.28636
G1 X82.350 Y60.168 E0.02672
G1 X87.013 Y64.832 E0.28636
G1 X86.398 Y64.832 E0.02672
G1 X81.734 Y60.168 E0.28636
G1 X81.119 Y60.168 E0.02672
G1 X85.782 Y64.832 E0.28636
G1 X85.167 Y64.832 E0.02672
G1 X80.504 Y60.168 E0.28636
G1 X79.888 Y60.168 E0.02672
G1 X84.551 Y64.832 E0.28636
G1 X83.936 Y64.832 E0.02672
G1 X80.692 Y61.588 E0.19921
G1 X80.692 Y62.203 E0.02672
G1 X83.321 Y64.832 E0.16142
G1 X82.705 Y64.832 E0.02672
G1 X80.692 Y62.818 E0.12363
G1 X80.692 Y63.434 E0.02672
G1 X82.090 Y64.832 E0.08583
G1 X81.474 Y64.832 E0.02672
G1 X80.692 Y64.049 E0.04804
G1 X80.692 Y64.665 E0.02672
;G1 X81.052 Y65.024 E0.02209 ; replaced by coast
G1 X81.052 Y65.024 Z0.24 E-0.0254205133701; coast(0.508410267402) & retract
G1 X81.052 Y65.024 Z0.24 E-0.3; & endwipe
G1 X80.379 Y61.274 F7800.000
;G1 F600 ; replaced by represure
G1 X80.379 Y61.274 E0.32542051337 F600; tipRepresure
G1 X79.273 Y60.168 E0.06793
G1 X78.657 Y60.168 E0.02672
G1 X79.571 Y61.082 E0.05609
G1 X78.955 Y61.082 E0.02672
G1 X78.042 Y60.168 E0.05609
G1 X77.426 Y60.168 E0.02672
G1 X78.340 Y61.082 E0.05609
G1 X77.724 Y61.082 E0.02672
G1 X76.811 Y60.168 E0.05609
G1 X76.196 Y60.168 E0.02672
G1 X77.109 Y61.082 E0.05609
G1 X76.493 Y61.082 E0.02672
G1 X75.580 Y60.168 E0.05609
G1 X75.383 Y60.168 E0.00854
G1 X75.383 Y60.587 E0.01818
;G1 X76.071 Y61.274 E0.04221 ; replaced by coast
G1 X76.071 Y61.274 Z0.24 E-0.0486136040631; coast(0.972272081261) & retract
G1 X76.071 Y61.274 Z0.24 E-0.3; & endwipe
G1 Z0.240 F7800.000
G1 X111.738 Y76.476 F7800.000
;G1 F300 ; replaced by represure
G1 X111.738 Y76.476 E0.348613604063 F600; tipRepresure
G1 X111.738 Y76.476 E0.5 F600; long travel extraShot
G1 X112.225 Y75.549 E0.04479
G1 X113.087 Y74.954 E0.04479
G1 X114.092 Y74.832 E0.04329
G1 X115.102 Y75.194 E0.04588
G1 X115.801 Y75.983 E0.04506
G1 X116.047 Y76.980 E0.04390
G1 X115.870 Y77.940 E0.04174
G1 X115.107 Y78.801 E0.04920
G1 X114.127 Y79.173 E0.04479
G1 X113.087 Y79.046 E0.04478
G1 X112.225 Y78.451 E0.04479
G1 X111.738 Y77.524 E0.04479
;G1 X111.738 Y76.536 E0.04222 ; replaced by coast
G1 X111.738 Y76.536 Z0.24 E-0.0494; coast(0.988) & retract
G1 X111.738 Y76.536 Z0.24 E-0.3; & endwipe
G1 X112.167 Y76.582 F7800.000
;G1 F300 ; replaced by represure
G1 X112.167 Y76.582 E0.3494 F600; tipRepresure
G1 X112.556 Y75.841 E0.03575
G1 X113.244 Y75.366 E0.03576
G1 X114.043 Y75.269 E0.03443
G1 X114.854 Y75.560 E0.03685
G1 X115.410 Y76.188 E0.03585
G1 X115.609 Y76.993 E0.03543
G1 X115.470 Y77.745 E0.03270
G1 X114.856 Y78.438 E0.03959
G1 X114.074 Y78.734 E0.03575
G1 X113.244 Y78.634 E0.03575
G1 X112.556 Y78.159 E0.03576
G1 X112.167 Y77.418 E0.03575
;G1 X112.167 Y76.642 E0.03319 ; replaced by coast
G1 X112.167 Y76.642 Z0.24 E-0.0388; coast(0.776) & retract
