; generated by Slic3r 1.33.3-prusa3d-win64 on 2017-05-21 at 12:38:34

; external perimeters extrusion width = 0.40mm
; perimeters extrusion width = 0.48mm
; infill extrusion width = 0.48mm
; solid infill extrusion width = 0.48mm
; top infill extrusion width = 0.48mm
; support material extrusion width = 0.40mm

M104 S185 ; set temperature
G28 ; home all axes
G1 Z5 F5000 ; lift nozzle

M109 S185 ; set temperature and wait for it to be reached
G21 ; set units to millimeters
G90 ; use absolute coordinates
M83 ; use relative distances for extrusion
G1 Z0.240 F7800.000
G1 X85.243 Y32.792 F7800.000
;G1 F1800 ; replaced by represure
G1 X85.243 Y32.792 E0.5 F600; long travel extraShot
G1 X85.404 Y32.228 E0.02508
G1 X85.609 Y31.678 E0.02508
G1 X85.858 Y31.147 E0.02508
G1 X86.152 Y30.632 E0.02537
G1 X86.483 Y30.148 E0.02508
G1 X86.852 Y29.692 E0.02508
G1 X87.257 Y29.267 E0.02508
G1 X87.699 Y28.872 E0.02537
G1 X88.167 Y28.518 E0.02508
G1 X88.662 Y28.203 E0.02508
G1 X89.181 Y27.928 E0.02508
G1 X89.726 Y27.694 E0.02537
G1 X90.288 Y27.505 E0.02537
G1 X90.858 Y27.364 E0.02508
G1 X91.437 Y27.269 E0.02508
G1 X92.021 Y27.221 E0.02508
G1 X98.087 Y27.226 E0.25936
G1 X98.645 Y27.279 E0.02394
G1 X99.197 Y27.375 E0.02394
G1 X99.739 Y27.513 E0.02394
G1 X100.270 Y27.693 E0.02394
G1 X100.983 Y28.009 E0.03334
G1 X101.652 Y28.396 E0.03306
G1 X102.276 Y28.852 E0.03306
G1 X102.854 Y29.376 E0.03334
G1 X103.372 Y29.959 E0.03334
G1 X103.824 Y30.594 E0.03334
G1 X104.204 Y31.268 E0.03306
G1 X104.512 Y31.984 E0.03334
G1 X104.674 Y32.479 E0.02223
G1 X104.799 Y32.977 E0.02195
G1 X119.084 Y99.981 E2.92919
G1 X119.189 Y100.605 E0.02708
G1 X119.244 Y101.443 E0.03590
G1 X119.244 Y105.520 E0.17430
G1 X119.230 Y105.953 E0.01853
G1 X119.171 Y106.530 E0.02480
G1 X119.064 Y107.107 E0.02508
G1 X118.914 Y107.667 E0.02480
G1 X118.717 Y108.220 E0.02508
G1 X118.397 Y108.909 E0.03249
G1 X118.007 Y109.561 E0.03249
G1 X117.551 Y110.169 E0.03249
G1 X117.034 Y110.726 E0.03249
G1 X116.462 Y111.226 E0.03249
G1 X115.836 Y111.668 E0.03277
G1 X115.172 Y112.038 E0.03249
G1 X114.474 Y112.337 E0.03249
G1 X113.883 Y112.527 E0.02651
G1 X113.279 Y112.665 E0.02651
G1 X112.659 Y112.752 E0.02679
G1 X112.039 Y112.785 E0.02651
G1 X78.035 Y112.785 E1.45387
G1 X77.316 Y112.749 E0.03078
G1 X76.807 Y112.680 E0.02195
G1 X76.311 Y112.577 E0.02166
G1 X75.824 Y112.440 E0.02166
G1 X75.340 Y112.266 E0.02195
G1 X74.877 Y112.062 E0.02166
G1 X74.428 Y111.826 E0.02166
G1 X73.997 Y111.560 E0.02166
G1 X73.581 Y111.260 E0.02195
G1 X73.191 Y110.936 E0.02166
G1 X72.825 Y110.586 E0.02166
G1 X72.484 Y110.211 E0.02166
G1 X72.166 Y109.808 E0.02195
G1 X71.881 Y109.389 E0.02166
G1 X71.622 Y108.945 E0.02195
G1 X71.398 Y108.491 E0.02166
G1 X71.204 Y108.016 E0.02195
G1 X71.029 Y107.477 E0.02423
G1 X70.897 Y106.926 E0.02423
G1 X70.808 Y106.366 E0.02423
G1 X70.762 Y105.801 E0.02423
G1 X70.758 Y101.347 E0.19045
G1 X70.794 Y100.754 E0.02537
G1 X70.879 Y100.167 E0.02537
;G1 X85.229 Y32.851 E2.94282 ; replaced by coast
G1 X84.1865543542 Y37.7411234213 E2.94282 ; extrude all
G1 X85.229 Y32.851 Z0.24 E-0.25; coast(5) & retract
G1 X85.229 Y32.851 Z0.24 E-0.3; & endwipe
G1 X85.663 Y32.881 F7800.000
;G1 F1800 ; replaced by represure
G1 X85.663 Y32.881 E0.05; represure(0.05,0.0)
G1 X85.663 Y32.881 E0.5 F600; tipRepresure
G1 X85.816 Y32.346 E0.02378
G1 X86.009 Y31.832 E0.02350
G1 X86.246 Y31.329 E0.02378
G1 X86.523 Y30.846 E0.02378
G1 X86.835 Y30.393 E0.02350
G1 X87.186 Y29.962 E0.02378
G1 X87.570 Y29.560 E0.02378
G1 X87.981 Y29.195 E0.02350
G1 X88.420 Y28.864 E0.02350
G1 X88.890 Y28.566 E0.02378
G1 X89.382 Y28.307 E0.02378
G1 X89.894 Y28.089 E0.02378
G1 X90.415 Y27.915 E0.02350
G1 X90.955 Y27.781 E0.02378
G1 X91.504 Y27.692 E0.02378
G1 X92.059 Y27.648 E0.02378
G1 X98.043 Y27.653 E0.25586
G1 X98.564 Y27.701 E0.02240
G1 X99.081 Y27.789 E0.02240
G1 X99.583 Y27.914 E0.02212
G1 X100.080 Y28.079 E0.02240
G1 X100.756 Y28.374 E0.03152
G1 X101.401 Y28.744 E0.03179
G1 X101.997 Y29.177 E0.03152
G1 X102.548 Y29.677 E0.03179
G1 X103.042 Y30.233 E0.03179
G1 X103.472 Y30.839 E0.03179
G1 X103.832 Y31.483 E0.03152
G1 X104.122 Y32.167 E0.03179
G1 X104.266 Y32.610 E0.01991
G1 X104.379 Y33.062 E0.01991
G1 X118.665 Y100.070 E2.92935
G1 X118.760 Y100.631 E0.02433
G1 X118.815 Y101.444 E0.03483
G1 X118.804 Y105.894 E0.19027
G1 X118.751 Y106.435 E0.02323
G1 X118.656 Y106.970 E0.02323
G1 X118.518 Y107.496 E0.02323
G1 X118.338 Y108.015 E0.02350
G1 X118.037 Y108.673 E0.03096
G1 X117.668 Y109.297 E0.03096
G1 X117.236 Y109.878 E0.03096
G1 X116.740 Y110.415 E0.03124
G1 X116.195 Y110.892 E0.03096
G1 X115.597 Y111.312 E0.03124
G1 X114.964 Y111.663 E0.03096
G1 X114.297 Y111.946 E0.03096
G1 X113.748 Y112.119 E0.02461
G1 X113.180 Y112.247 E0.02489
G1 X112.610 Y112.326 E0.02461
G1 X112.029 Y112.357 E0.02489
G1 X78.035 Y112.357 E1.45342
G1 X77.389 Y112.326 E0.02765
G1 X76.908 Y112.263 E0.02074
G1 X76.439 Y112.167 E0.02046
G1 X75.978 Y112.039 E0.02046
G1 X75.521 Y111.877 E0.02074
G1 X75.082 Y111.685 E0.02046
G1 X74.652 Y111.461 E0.02074
G1 X74.239 Y111.206 E0.02074
G1 X73.845 Y110.923 E0.02074
G1 X73.477 Y110.617 E0.02046
G1 X73.127 Y110.282 E0.02074
G1 X72.801 Y109.922 E0.02074
G1 X72.502 Y109.541 E0.02074
G1 X72.230 Y109.139 E0.02074
G1 X71.987 Y108.719 E0.02074
G1 X71.777 Y108.289 E0.02046
G1 X71.596 Y107.839 E0.02074
G1 X71.434 Y107.334 E0.02268
G1 X71.312 Y106.818 E0.02268
G1 X71.231 Y106.294 E0.02268
G1 X71.190 Y105.765 E0.02268
G1 X71.186 Y101.358 E0.18843
G1 X71.222 Y100.790 E0.02433
G1 X71.303 Y100.233 E0.02406
;G1 X85.649 Y32.939 E2.94182 ; replaced by coast
G1 X84.6065064053 Y37.8291131996 E2.94182 ; extrude all
G1 X85.649 Y32.939 Z0.24 E-0.25; coast(5) & retract
G1 X85.649 Y32.939 Z0.24 E-0.3; & endwipe
G1 X86.082 Y32.970 F7800.000
;G1 F1800 ; replaced by represure
G1 X86.082 Y32.97 E0.05; represure(0.05,0.0)
G1 X86.082 Y32.97 E0.5 F600; tipRepresure
G1 X86.226 Y32.471 E0.02222
G1 X86.410 Y31.985 E0.02222
G1 X86.632 Y31.515 E0.02222
G1 X86.892 Y31.065 E0.02222
G1 X87.187 Y30.637 E0.02222
G1 X87.516 Y30.235 E0.02222
G1 X87.876 Y29.860 E0.02222
G1 X88.266 Y29.516 E0.02222
G1 X88.682 Y29.204 E0.02222
G1 X89.122 Y28.927 E0.02222
G1 X89.582 Y28.686 E0.02222
G1 X90.061 Y28.484 E0.02222
G1 X90.554 Y28.320 E0.02222
G1 X91.059 Y28.197 E0.02222
G1 X91.579 Y28.115 E0.02249
G1 X92.097 Y28.076 E0.02222
G1 X97.994 Y28.079 E0.25211
G1 X98.474 Y28.121 E0.02062
G1 X98.950 Y28.199 E0.02062
G1 X99.419 Y28.313 E0.02062
G1 X99.883 Y28.463 E0.02088
G1 X100.528 Y28.739 E0.02998
G1 X101.143 Y29.088 E0.03025
G1 X101.712 Y29.498 E0.02998
G1 X102.237 Y29.972 E0.03025
G1 X102.703 Y30.496 E0.02998
G1 X103.113 Y31.073 E0.03025
G1 X103.454 Y31.686 E0.02998
G1 X103.728 Y32.338 E0.03025
G1 X103.858 Y32.743 E0.01821
G1 X103.961 Y33.157 E0.01821
G1 X118.246 Y100.160 E2.92913
G1 X118.332 Y100.666 E0.02196
G1 X118.387 Y101.440 E0.03319
G1 X118.378 Y105.838 E0.18804
G1 X118.331 Y106.343 E0.02169
G1 X118.245 Y106.843 E0.02169
G1 X118.118 Y107.341 E0.02196
G1 X117.953 Y107.820 E0.02169
G1 X117.671 Y108.448 E0.02945
G1 X117.323 Y109.043 E0.02945
G1 X116.913 Y109.596 E0.02945
G1 X116.446 Y110.103 E0.02945
G1 X115.928 Y110.556 E0.02945
G1 X115.364 Y110.952 E0.02945
G1 X114.762 Y111.285 E0.02945
G1 X114.121 Y111.554 E0.02971
G1 X113.612 Y111.712 E0.02276
G1 X113.087 Y111.829 E0.02303
G1 X112.559 Y111.900 E0.02276
G1 X112.021 Y111.928 E0.02303
G1 X78.035 Y111.928 E1.45309
G1 X77.454 Y111.902 E0.02490
G1 X77.006 Y111.845 E0.01928
G1 X76.558 Y111.755 E0.01955
G1 X76.117 Y111.634 E0.01955
G1 X75.686 Y111.481 E0.01955
G1 X75.267 Y111.299 E0.01955
G1 X74.862 Y111.087 E0.01955
G1 X74.473 Y110.847 E0.01955
G1 X74.102 Y110.580 E0.01955
G1 X73.756 Y110.291 E0.01928
G1 X73.426 Y109.974 E0.01955
G1 X73.120 Y109.635 E0.01955
G1 X72.838 Y109.275 E0.01955
G1 X72.583 Y108.895 E0.01955
G1 X72.356 Y108.499 E0.01955
G1 X72.157 Y108.087 E0.01955
G1 X71.988 Y107.662 E0.01955
G1 X71.841 Y107.196 E0.02088
G1 X71.729 Y106.715 E0.02115
G1 X71.654 Y106.226 E0.02115
G1 X71.617 Y105.732 E0.02115
G1 X71.614 Y101.375 E0.18630
G1 X71.647 Y100.843 E0.02276
G1 X71.724 Y100.310 E0.02303
;G1 X86.068 Y33.029 E2.94131 ; replaced by coast
G1 X85.0254527766 Y37.9191017665 E2.94131 ; extrude all
G1 X86.068 Y33.029 Z0.24 E-0.25; coast(5) & retract
G1 X86.068 Y33.029 Z0.24 E-0.3; & endwipe
G1 X95.403 Y36.403 F7800.000
;G1 F600 ; replaced by represure
G1 X95.403 Y36.403 E0.05; represure(0.05,5.0)
G1 X95.403 Y36.403 E0.5 F600; tipRepresure
G1 X95.403 Y102.597 E2.83015
G1 X110.861 Y102.597 E0.66093
G1 X110.861 Y104.403 E0.07722
G1 X79.139 Y104.403 E1.35632
G1 X79.139 Y102.597 E0.07722
G1 X94.597 Y102.597 E0.66093
G1 X94.597 Y36.403 E2.83015
G1 X93.423 Y36.403 E0.05021
G1 X93.423 Y35.597 E0.03446
G1 X96.577 Y35.597 E0.13487
G1 X96.577 Y36.403 E0.03446
;G1 X95.463 Y36.403 E0.04764 ; replaced by coast
G1 X95.463 Y36.403 Z0.24 E-0.0557; coast(1.114) & retract
G1 X95.463 Y36.403 Z0.24 E-0.3; & endwipe
G1 X95.832 Y36.832 F7800.000
;G1 F600 ; replaced by represure
G1 X95.832 Y36.832 E0.3557 F600; tipRepresure
G1 X95.832 Y102.168 E2.79351
G1 X111.290 Y102.168 E0.66093
G1 X111.290 Y104.832 E0.11386
G1 X78.710 Y104.832 E1.39296
G1 X78.710 Y102.168 E0.11386
G1 X94.168 Y102.168 E0.66093
G1 X94.168 Y36.832 E2.79351
G1 X92.994 Y36.832 E0.05021
G1 X92.994 Y35.168 E0.07110
G1 X97.006 Y35.168 E0.17151
G1 X97.006 Y36.832 E0.07110
;G1 X95.892 Y36.832 E0.04764 ; replaced by coast
G1 X95.892 Y36.832 Z0.24 E-0.0557; coast(1.114) & retract
G1 X95.892 Y36.832 Z0.24 E-0.3; & endwipe
G1 X96.260 Y37.260 F7800.000
;G1 F600 ; replaced by represure
G1 X96.26 Y37.26 E0.3557 F600; tipRepresure
G1 X96.260 Y101.740 E2.75687
G1 X111.718 Y101.740 E0.66093
G1 X111.718 Y105.260 E0.15050
G1 X78.282 Y105.260 E1.42960
G1 X78.282 Y101.740 E0.15050
G1 X93.740 Y101.740 E0.66093
G1 X93.740 Y37.260 E2.75687
G1 X92.566 Y37.260 E0.05021
G1 X92.566 Y34.740 E0.10774
G1 X97.434 Y34.740 E0.20816
G1 X97.434 Y37.260 E0.10774
;G1 X96.320 Y37.260 E0.04764 ; replaced by coast
G1 X96.32 Y37.26 Z0.24 E-0.0557; coast(1.114) & retract
G1 X96.32 Y37.26 Z0.24 E-0.3; & endwipe
G1 X95.888 Y37.408 F7800.000
G1 X96.363 Y36.000 F7800.000
;G1 F900 ; replaced by represure
G1 X96.363 Y36.0 E0.3557 F600; tipRepresure
G1 X95.189 Y36.000 E0.03820
;G1 X95.094 Y36.024 E0.00316 ; replaced by coast
G1 X95.094 Y36.024 Z0.24 E-0.0048992346341; coast(0.0979846926821) & retract
G1 X95.094 Y36.024 Z0.24 E-0.3; & endwipe
;G1 F900 ; replaced by represure
G1 X95.094 Y36.024 E0.304899234634 F600; tipRepresure
;G1 X95.000 Y36.047 E0.00408 ; replaced by coast
G1 X95.0 Y36.047 Z0.24 E-0.00483864650496; coast(0.0967729300993) & retract
G1 X95.0 Y36.047 Z0.24 E-0.3; & endwipe
;G1 F900 ; replaced by represure
G1 X95.0 Y36.047 E0.304838646505 F600; tipRepresure
;G1 X94.811 Y36.000 E0.00816 ; replaced by coast
G1 X94.811 Y36.0 Z0.24 E-0.00973781289613; coast(0.194756257923) & retract
G1 X94.811 Y36.0 Z0.24 E-0.3; & endwipe
;G1 F900 ; replaced by represure
G1 X94.811 Y36.0 E0.309737812896 F600; tipRepresure
;G1 X93.637 Y36.000 E0.03820 ; replaced by coast
G1 X93.637 Y36.0 Z0.24 E-0.0587; coast(1.174) & retract
G1 X93.637 Y36.0 Z0.24 E-0.3; & endwipe
G1 X95.000 Y36.047 F7800.000
;G1 F900 ; replaced by represure
G1 X95.0 Y36.047 E0.3587 F600; tipRepresure
;G1 X95.000 Y36.189 E0.00594 ; replaced by coast
G1 X95.0 Y36.189 Z0.24 E-0.0071; coast(0.142) & retract
G1 X95.0 Y36.189 Z0.24 E-0.3; & endwipe
;G1 F900 ; replaced by represure
G1 X95.0 Y36.189 E0.3071 F600; tipRepresure
;G1 X95.000 Y102.811 E2.16727 ; replaced by coast
G1 X95.0 Y97.811 E2.16727 ; extrude all
G1 X95.0 Y102.811 Z0.24 E-0.25; coast(5) & retract
G1 X95.0 Y102.811 Z0.24 E-0.3; & endwipe
G1 X80.144 Y104.274 F7800.000
;G1 F600 ; replaced by represure
G1 X80.144 Y104.274 E0.05; represure(0.05,5.0)
G1 X80.144 Y104.274 E0.5 F600; tipRepresure
G1 X79.460 Y103.591 E0.04182
G1 X79.460 Y102.978 E0.02651
G1 X80.564 Y104.082 E0.06752
G1 X81.177 Y104.082 E0.02651
G1 X80.014 Y102.918 E0.07115
G1 X80.627 Y102.918 E0.02651
G1 X81.790 Y104.082 E0.07115
G1 X82.403 Y104.082 E0.02651
G1 X81.240 Y102.918 E0.07115
G1 X81.852 Y102.918 E0.02651
G1 X83.016 Y104.082 E0.07115
G1 X83.629 Y104.082 E0.02651
G1 X82.465 Y102.918 E0.07115
G1 X83.078 Y102.918 E0.02651
G1 X84.242 Y104.082 E0.07115
G1 X84.855 Y104.082 E0.02651
G1 X83.691 Y102.918 E0.07115
G1 X84.304 Y102.918 E0.02651
G1 X85.468 Y104.082 E0.07115
G1 X86.081 Y104.082 E0.02651
G1 X84.917 Y102.918 E0.07115
G1 X85.530 Y102.918 E0.02651
G1 X86.694 Y104.082 E0.07115
G1 X87.307 Y104.082 E0.02651
G1 X86.143 Y102.918 E0.07115
G1 X86.756 Y102.918 E0.02651
G1 X87.920 Y104.082 E0.07115
G1 X88.532 Y104.082 E0.02651
G1 X87.369 Y102.918 E0.07115
G1 X87.982 Y102.918 E0.02651
G1 X89.145 Y104.082 E0.07115
G1 X89.758 Y104.082 E0.02651
G1 X88.595 Y102.918 E0.07115
G1 X89.208 Y102.918 E0.02651
G1 X90.371 Y104.082 E0.07115
G1 X90.984 Y104.082 E0.02651
G1 X89.821 Y102.918 E0.07115
G1 X90.434 Y102.918 E0.02651
G1 X91.597 Y104.082 E0.07115
G1 X92.210 Y104.082 E0.02651
G1 X91.047 Y102.918 E0.07115
G1 X91.660 Y102.918 E0.02651
G1 X92.823 Y104.082 E0.07115
G1 X93.436 Y104.082 E0.02651
G1 X92.273 Y102.918 E0.07115
G1 X92.886 Y102.918 E0.02651
G1 X94.049 Y104.082 E0.07115
G1 X94.662 Y104.082 E0.02651
G1 X93.499 Y102.918 E0.07115
G1 X94.112 Y102.918 E0.02651
G1 X95.275 Y104.082 E0.07115
G1 X95.888 Y104.082 E0.02651
G1 X94.939 Y103.133 E0.05805
G1 X95.510 Y103.133 E0.02470
G1 X95.510 Y103.091 E0.00181
G1 X96.501 Y104.082 E0.06061
G1 X97.114 Y104.082 E0.02651
G1 X95.951 Y102.918 E0.07115
G1 X96.564 Y102.918 E0.02651
G1 X97.727 Y104.082 E0.07115
G1 X98.340 Y104.082 E0.02651
G1 X97.177 Y102.918 E0.07115
G1 X97.790 Y102.918 E0.02651
G1 X98.953 Y104.082 E0.07115
G1 X99.566 Y104.082 E0.02651
G1 X98.403 Y102.918 E0.07115
G1 X99.016 Y102.918 E0.02651
G1 X100.179 Y104.082 E0.07115
G1 X100.792 Y104.082 E0.02651
G1 X99.629 Y102.918 E0.07115
G1 X100.241 Y102.918 E0.02651
G1 X101.405 Y104.082 E0.07115
G1 X102.018 Y104.082 E0.02651
G1 X100.854 Y102.918 E0.07115
G1 X101.467 Y102.918 E0.02651
G1 X102.631 Y104.082 E0.07115
G1 X103.244 Y104.082 E0.02651
G1 X102.080 Y102.918 E0.07115
G1 X102.693 Y102.918 E0.02651
G1 X103.857 Y104.082 E0.07115
G1 X104.470 Y104.082 E0.02651
G1 X103.306 Y102.918 E0.07115
G1 X103.919 Y102.918 E0.02651
G1 X105.083 Y104.082 E0.07115
G1 X105.696 Y104.082 E0.02651
G1 X104.532 Y102.918 E0.07115
G1 X105.145 Y102.918 E0.02651
G1 X106.309 Y104.082 E0.07115
G1 X106.922 Y104.082 E0.02651
G1 X105.758 Y102.918 E0.07115
G1 X106.371 Y102.918 E0.02651
G1 X107.534 Y104.082 E0.07115
G1 X108.147 Y104.082 E0.02651
G1 X106.984 Y102.918 E0.07115
G1 X107.597 Y102.918 E0.02651
G1 X108.760 Y104.082 E0.07115
G1 X109.373 Y104.082 E0.02651
G1 X108.210 Y102.918 E0.07115
G1 X108.823 Y102.918 E0.02651
G1 X109.986 Y104.082 E0.07115
G1 X110.540 Y104.082 E0.02394
G1 X110.540 Y104.022 E0.00257
G1 X109.436 Y102.918 E0.06752
G1 X110.049 Y102.918 E0.02651
G1 X110.733 Y103.602 E0.04183
M104 S176 ; set temperature
M140 S60 ; set bed temperature
G1 Z0.540 F7800.000
G1 X113.988 Y103.500 F7800.000
G1 X113.988 Y103.500 F7800.000
G1 X95.500 Y103.500 F7800.000
G1 X95.000 Y103.438 F7800.000
G1 X95.000 Y102.500 F7800.000
G1 X95.000 Y36.550 F7800.000
G1 X94.999 Y36.500 F7800.000
G1 X95.500 Y36.500 F7800.000
G1 X95.504 Y36.504 F7800.000
;G1 F1200 ; replaced by represure
G1 X95.504 Y36.504 E0.5 F600; long travel extraShot
G1 X95.504 Y102.496 E3.44776
G1 X111.875 Y102.496 E0.85532
G1 X111.875 Y104.504 E0.10489
G1 X78.125 Y104.504 E1.76329
G1 X78.125 Y102.496 E0.10489
G1 X94.496 Y102.496 E0.85532
G1 X94.496 Y36.504 E3.44776
;G1 X92.126 Y36.504 E0.12384 ; replaced by coast
G1 X92.126 Y36.504 Z0.54 E-0.1185; coast(2.37) & retract
G1 X92.126 Y36.504 Z0.54 E-0.3; & endwipe
;G1 F3600 ; replaced by represure
G1 X92.126 Y36.504 E0.4185 F600; tipRepresure
G1 X90.680 Y36.504 E0.07554
G1 X90.680 Y35.496 E0.05265
;G1 X92.126 Y35.496 E0.07554 ; replaced by coast
G1 X92.126 Y35.496 Z0.54 E-0.0723; coast(1.446) & retract
G1 X92.126 Y35.496 Z0.54 E-0.3; & endwipe
;G1 F1200 ; replaced by represure
G1 X92.126 Y35.496 E0.3723 F600; tipRepresure
;G1 X97.874 Y35.496 E0.30033 ; replaced by coast
