; generated by Slic3r 1.33.3-prusa3d-win64 on 2017-05-19 at 22:37:30

; external perimeters extrusion width = 0.40mm
; perimeters extrusion width = 0.48mm
; infill extrusion width = 0.48mm
; solid infill extrusion width = 0.48mm
; top infill extrusion width = 0.48mm

M104 S185 ; set temperature
G28 ; home all axes
G1 Z5 F5000 ; lift nozzle

M109 S185 ; set temperature and wait for it to be reached
G21 ; set units to millimeters
G90 ; use absolute coordinates
M83 ; use relative distances for extrusion
G1 Z0.240 F7800.000
G1 X51.749 Y60.697 F7800.000
G1 F1800
G1 X52.239 Y60.316 E0.02651
G1 X52.758 Y59.978 E0.02651
G1 X53.305 Y59.686 E0.02651
G1 X53.881 Y59.438 E0.02679
G1 X54.469 Y59.243 E0.02651
G1 X55.079 Y59.098 E0.02679
G1 X55.692 Y59.006 E0.02651
G1 X56.317 Y58.966 E0.02679
G1 X133.542 Y58.965 E3.30176
G1 X134.114 Y58.988 E0.02451
G1 X134.684 Y59.056 E0.02451
G1 X135.149 Y59.145 E0.02024
G1 X135.613 Y59.267 E0.02052
G1 X136.068 Y59.419 E0.02052
G1 X136.506 Y59.598 E0.02024
G1 X136.932 Y59.805 E0.02024
G1 X137.349 Y60.043 E0.02052
G1 X137.744 Y60.304 E0.02024
G1 X138.127 Y60.594 E0.02052
G1 X138.484 Y60.904 E0.02024
G1 X138.826 Y61.241 E0.02052
G1 X139.140 Y61.596 E0.02024
G1 X139.434 Y61.975 E0.02052
G1 X139.699 Y62.367 E0.02024
G1 X139.942 Y62.781 E0.02052
G1 X140.156 Y63.211 E0.02052
G1 X140.342 Y63.653 E0.02052
G1 X140.533 Y64.222 E0.02565
G1 X140.676 Y64.805 E0.02565
G1 X140.770 Y65.397 E0.02565
G1 X140.816 Y65.996 E0.02565
G1 X140.820 Y73.823 E0.33468
G1 X140.795 Y74.363 E0.02309
G1 X140.729 Y74.899 E0.02309
G1 X140.609 Y75.493 E0.02594
G1 X140.437 Y76.082 E0.02622
G1 X140.219 Y76.648 E0.02594
G1 X139.952 Y77.200 E0.02622
G1 X139.642 Y77.722 E0.02594
G1 X139.287 Y78.222 E0.02622
G1 X138.890 Y78.690 E0.02622
G1 X138.456 Y79.123 E0.02622
G1 X137.986 Y79.517 E0.02622
G1 X137.491 Y79.868 E0.02594
G1 X136.968 Y80.176 E0.02594
G1 X136.416 Y80.442 E0.02622
G1 X135.849 Y80.658 E0.02594
G1 X135.260 Y80.828 E0.02622
G1 X134.658 Y80.948 E0.02622
G1 X134.049 Y81.017 E0.02622
G1 X133.535 Y81.035 E0.02200
G1 X56.458 Y81.035 E3.29544
G1 X55.892 Y81.013 E0.02423
G1 X55.323 Y80.945 E0.02451
G1 X54.774 Y80.836 E0.02394
G1 X54.228 Y80.683 E0.02423
G1 X53.702 Y80.491 E0.02394
G1 X53.186 Y80.256 E0.02423
G1 X52.696 Y79.985 E0.02394
G1 X52.223 Y79.673 E0.02423
G1 X51.781 Y79.330 E0.02394
G1 X51.361 Y78.949 E0.02423
G1 X50.977 Y78.542 E0.02394
G1 X50.625 Y78.106 E0.02394
G1 X50.308 Y77.644 E0.02394
G1 X50.024 Y77.154 E0.02423
G1 X49.781 Y76.649 E0.02394
G1 X49.576 Y76.121 E0.02423
G1 X49.414 Y75.585 E0.02394
G1 X49.293 Y75.031 E0.02423
G1 X49.208 Y74.397 E0.02736
G1 X49.180 Y73.758 E0.02736
G1 X49.180 Y66.163 E0.32470
G1 X49.209 Y65.597 E0.02423
G1 X49.280 Y65.042 E0.02394
G1 X49.413 Y64.423 E0.02708
G1 X49.596 Y63.823 E0.02679
G1 X49.830 Y63.242 E0.02679
G1 X50.116 Y62.677 E0.02708
G1 X50.446 Y62.145 E0.02679
G1 X50.826 Y61.638 E0.02708
G1 X51.243 Y61.170 E0.02679
G1 X51.704 Y60.736 E0.02708
G1 X51.984 Y61.060 F7800.000
G1 F1800
G1 X52.445 Y60.695 E0.02516
G1 X52.942 Y60.367 E0.02544
G1 X53.465 Y60.084 E0.02544
G1 X54.011 Y59.847 E0.02544
G1 X54.575 Y59.659 E0.02544
G1 X55.154 Y59.520 E0.02544
G1 X55.742 Y59.431 E0.02544
G1 X56.336 Y59.394 E0.02544
G1 X133.541 Y59.393 E3.30095
G1 X134.065 Y59.414 E0.02240
G1 X134.592 Y59.475 E0.02268
G1 X135.036 Y59.559 E0.01936
G1 X135.475 Y59.673 E0.01936
G1 X135.905 Y59.815 E0.01936
G1 X136.324 Y59.986 E0.01936
G1 X136.731 Y60.184 E0.01936
G1 X137.125 Y60.408 E0.01936
G1 X137.508 Y60.661 E0.01963
G1 X137.868 Y60.936 E0.01936
G1 X138.209 Y61.233 E0.01936
G1 X138.530 Y61.552 E0.01936
G1 X138.829 Y61.892 E0.01936
G1 X139.105 Y62.251 E0.01936
G1 X139.357 Y62.628 E0.01936
G1 X139.583 Y63.020 E0.01936
G1 X139.783 Y63.426 E0.01936
G1 X139.958 Y63.850 E0.01963
G1 X140.132 Y64.379 E0.02378
G1 X140.262 Y64.920 E0.02378
G1 X140.348 Y65.476 E0.02406
G1 X140.388 Y66.031 E0.02378
G1 X140.392 Y73.808 E0.33254
G1 X140.369 Y74.306 E0.02129
G1 X140.310 Y74.807 E0.02157
G1 X140.198 Y75.371 E0.02461
G1 X140.036 Y75.930 E0.02489
G1 X139.830 Y76.468 E0.02461
G1 X139.580 Y76.986 E0.02461
G1 X139.284 Y77.487 E0.02489
G1 X138.950 Y77.956 E0.02461
G1 X138.578 Y78.396 E0.02461
G1 X138.166 Y78.807 E0.02489
G1 X137.726 Y79.177 E0.02461
G1 X137.256 Y79.510 E0.02461
G1 X136.754 Y79.805 E0.02489
G1 X136.235 Y80.053 E0.02461
G1 X135.690 Y80.259 E0.02489
G1 X135.137 Y80.417 E0.02461
G1 X134.566 Y80.529 E0.02489
G1 X133.993 Y80.592 E0.02461
G1 X133.535 Y80.607 E0.01962
G1 X56.459 Y80.607 E3.29543
G1 X55.935 Y80.586 E0.02240
G1 X55.415 Y80.526 E0.02240
G1 X54.894 Y80.425 E0.02268
G1 X54.383 Y80.283 E0.02268
G1 X53.884 Y80.103 E0.02268
G1 X53.401 Y79.884 E0.02268
G1 X52.936 Y79.629 E0.02268
G1 X52.492 Y79.339 E0.02268
G1 X52.072 Y79.015 E0.02268
G1 X51.674 Y78.655 E0.02295
G1 X51.309 Y78.270 E0.02268
G1 X50.975 Y77.858 E0.02268
G1 X50.674 Y77.422 E0.02268
G1 X50.405 Y76.957 E0.02295
G1 X50.175 Y76.479 E0.02268
G1 X49.983 Y75.985 E0.02268
G1 X49.829 Y75.477 E0.02268
G1 X49.716 Y74.959 E0.02268
G1 X49.636 Y74.370 E0.02544
G1 X49.608 Y73.769 E0.02572
G1 X49.608 Y66.185 E0.32424
G1 X49.632 Y65.675 E0.02185
G1 X49.694 Y65.168 E0.02185
G1 X49.813 Y64.585 E0.02544
G1 X49.981 Y64.021 E0.02516
G1 X50.196 Y63.473 E0.02516
G1 X50.460 Y62.940 E0.02544
G1 X50.770 Y62.432 E0.02544
G1 X51.118 Y61.957 E0.02516
G1 X51.510 Y61.510 E0.02544
G1 X51.939 Y61.099 E0.02536
G1 X52.211 Y61.430 F7800.000
G1 F1800
G1 X52.650 Y61.076 E0.02410
G1 X53.118 Y60.762 E0.02410
G1 X53.611 Y60.490 E0.02410
G1 X54.133 Y60.260 E0.02436
G1 X54.666 Y60.078 E0.02410
G1 X55.220 Y59.943 E0.02436
G1 X55.777 Y59.858 E0.02410
G1 X56.346 Y59.823 E0.02436
G1 X133.541 Y59.822 E3.30053
G1 X134.017 Y59.840 E0.02035
G1 X134.496 Y59.894 E0.02062
G1 X134.921 Y59.973 E0.01848
G1 X135.339 Y60.080 E0.01848
G1 X135.744 Y60.213 E0.01821
G1 X136.145 Y60.375 E0.01848
G1 X136.528 Y60.561 E0.01821
G1 X136.903 Y60.775 E0.01848
G1 X137.264 Y61.013 E0.01848
G1 X137.607 Y61.276 E0.01848
G1 X137.932 Y61.560 E0.01848
G1 X138.233 Y61.862 E0.01821
G1 X138.517 Y62.187 E0.01848
G1 X138.779 Y62.531 E0.01848
G1 X139.017 Y62.892 E0.01848
G1 X139.230 Y63.268 E0.01848
G1 X139.417 Y63.657 E0.01848
G1 X139.576 Y64.052 E0.01821
G1 X139.732 Y64.541 E0.02196
G1 X139.849 Y65.042 E0.02196
G1 X139.925 Y65.549 E0.02196
G1 X139.961 Y66.062 E0.02196
G1 X139.963 Y73.800 E0.33086
G1 X139.943 Y74.257 E0.01955
G1 X139.891 Y74.711 E0.01955
G1 X139.787 Y75.246 E0.02329
G1 X139.638 Y75.770 E0.02329
G1 X139.445 Y76.279 E0.02329
G1 X139.210 Y76.771 E0.02329
G1 X138.933 Y77.240 E0.02329
G1 X138.619 Y77.685 E0.02329
G1 X138.267 Y78.101 E0.02329
G1 X137.882 Y78.486 E0.02329
G1 X137.465 Y78.837 E0.02329
G1 X137.020 Y79.152 E0.02329
G1 X136.550 Y79.427 E0.02329
G1 X136.059 Y79.662 E0.02329
G1 X135.549 Y79.855 E0.02329
G1 X135.025 Y80.003 E0.02329
G1 X134.490 Y80.107 E0.02329
G1 X133.949 Y80.165 E0.02329
G1 X133.535 Y80.178 E0.01769
G1 X56.459 Y80.178 E3.29542
G1 X55.983 Y80.160 E0.02035
G1 X55.504 Y80.106 E0.02062
G1 X55.018 Y80.014 E0.02115
G1 X54.535 Y79.882 E0.02142
G1 X54.063 Y79.713 E0.02142
G1 X53.606 Y79.508 E0.02142
G1 X53.166 Y79.268 E0.02142
G1 X52.747 Y78.994 E0.02142
G1 X52.354 Y78.692 E0.02115
G1 X51.982 Y78.357 E0.02142
G1 X51.641 Y77.999 E0.02115
G1 X51.325 Y77.610 E0.02142
G1 X51.040 Y77.198 E0.02142
G1 X50.788 Y76.765 E0.02142
G1 X50.573 Y76.320 E0.02115
G1 X50.390 Y75.853 E0.02142
G1 X50.245 Y75.374 E0.02142
G1 X50.137 Y74.885 E0.02142
G1 X50.063 Y74.332 E0.02383
G1 X50.037 Y73.769 E0.02410
G1 X50.037 Y66.194 E0.32390
G1 X50.057 Y65.743 E0.01928
G1 X50.109 Y65.289 E0.01955
G1 X50.214 Y64.748 E0.02356
G1 X50.366 Y64.218 E0.02356
G1 X50.562 Y63.703 E0.02356
G1 X50.805 Y63.202 E0.02383
G1 X51.087 Y62.728 E0.02356
G1 X51.412 Y62.276 E0.02383
G1 X51.771 Y61.858 E0.02356
G1 X52.167 Y61.470 E0.02367
G1 X91.040 Y67.347 F7800.000
G1 F600
G1 X132.438 Y67.347 E1.76997
G1 X132.438 Y72.653 E0.22686
G1 X91.040 Y72.653 E1.76997
G1 X91.040 Y67.407 E0.22430
G1 X90.612 Y72.418 F7800.000
G1 F600
G1 X90.612 Y67.582 E0.20681
G1 X57.134 Y67.582 E1.43138
G1 X57.134 Y66.918 E0.02835
G1 X132.866 Y66.918 E3.23799
G1 X132.866 Y73.082 E0.26350
G1 X57.134 Y73.082 E3.23799
G1 X57.134 Y72.418 E0.02835
G1 X90.552 Y72.418 E1.42881
G1 X90.183 Y71.990 F7800.000
G1 F600
G1 X90.183 Y68.010 E0.17017
G1 X56.705 Y68.010 E1.43138
G1 X56.705 Y66.490 E0.06499
G1 X133.295 Y66.490 E3.27463
G1 X133.295 Y73.510 E0.30014
G1 X56.705 Y73.510 E3.27463
G1 X56.705 Y71.990 E0.06499
G1 X90.123 Y71.990 E1.42881
G1 X90.583 Y71.984 F7800.000
G1 X90.826 Y72.750 F7800.000
G1 F900
G1 X57.348 Y72.750 E0.61135
G1 X57.348 Y67.250 F7800.000
G1 F900
G1 X90.826 Y67.250 E0.61135
G1 X92.039 Y72.524 F7800.000
G1 F600
G1 X91.362 Y71.847 E0.04117
G1 X91.362 Y71.238 E0.02616
G1 X92.455 Y72.332 E0.06645
G1 X93.064 Y72.332 E0.02616
G1 X91.362 Y70.629 E0.10344
G1 X91.362 Y70.020 E0.02616
G1 X93.673 Y72.332 E0.14043
G1 X94.282 Y72.332 E0.02616
G1 X91.362 Y69.411 E0.17742
G1 X91.362 Y68.802 E0.02616
G1 X94.891 Y72.332 E0.21442
G1 X95.500 Y72.332 E0.02616
G1 X91.362 Y68.194 E0.25141
G1 X91.362 Y67.668 E0.02256
G1 X91.445 Y67.668 E0.00359
G1 X96.109 Y72.332 E0.28332
G1 X96.718 Y72.332 E0.02616
G1 X92.054 Y67.668 E0.28332
G1 X92.663 Y67.668 E0.02616
G1 X97.326 Y72.332 E0.28332
G1 X97.935 Y72.332 E0.02616
G1 X93.272 Y67.668 E0.28332
G1 X93.881 Y67.668 E0.02616
G1 X98.544 Y72.332 E0.28332
G1 X99.153 Y72.332 E0.02616
G1 X94.490 Y67.668 E0.28332
G1 X95.099 Y67.668 E0.02616
G1 X99.762 Y72.332 E0.28332
G1 X100.371 Y72.332 E0.02616
G1 X95.708 Y67.668 E0.28332
G1 X96.316 Y67.668 E0.02616
G1 X100.980 Y72.332 E0.28332
G1 X101.589 Y72.332 E0.02616
G1 X96.925 Y67.668 E0.28332
G1 X97.534 Y67.668 E0.02616
G1 X102.198 Y72.332 E0.28332
G1 X102.806 Y72.332 E0.02616
G1 X98.143 Y67.668 E0.28332
G1 X98.752 Y67.668 E0.02616
G1 X103.415 Y72.332 E0.28332
G1 X104.024 Y72.332 E0.02616
G1 X99.361 Y67.668 E0.28332
G1 X99.970 Y67.668 E0.02616
G1 X104.633 Y72.332 E0.28332
G1 X105.242 Y72.332 E0.02616
G1 X100.579 Y67.668 E0.28332
G1 X101.187 Y67.668 E0.02616
G1 X105.851 Y72.332 E0.28332
G1 X106.460 Y72.332 E0.02616
G1 X101.796 Y67.668 E0.28332
G1 X102.405 Y67.668 E0.02616
G1 X107.069 Y72.332 E0.28332
G1 X107.677 Y72.332 E0.02616
G1 X103.014 Y67.668 E0.28332
G1 X103.623 Y67.668 E0.02616
G1 X108.286 Y72.332 E0.28332
G1 X108.895 Y72.332 E0.02616
G1 X104.232 Y67.668 E0.28332
G1 X104.841 Y67.668 E0.02616
G1 X109.504 Y72.332 E0.28332
G1 X110.113 Y72.332 E0.02616
G1 X105.450 Y67.668 E0.28332
G1 X106.059 Y67.668 E0.02616
G1 X110.722 Y72.332 E0.28332
G1 X111.331 Y72.332 E0.02616
G1 X106.667 Y67.668 E0.28332
G1 X107.276 Y67.668 E0.02616
G1 X111.940 Y72.332 E0.28332
G1 X112.549 Y72.332 E0.02616
G1 X107.885 Y67.668 E0.28332
G1 X108.494 Y67.668 E0.02616
G1 X113.157 Y72.332 E0.28332
G1 X113.766 Y72.332 E0.02616
G1 X109.103 Y67.668 E0.28332
G1 X109.712 Y67.668 E0.02616
G1 X114.375 Y72.332 E0.28332
G1 X114.984 Y72.332 E0.02616
G1 X110.321 Y67.668 E0.28332
G1 X110.930 Y67.668 E0.02616
G1 X115.593 Y72.332 E0.28332
G1 X116.202 Y72.332 E0.02616
G1 X111.539 Y67.668 E0.28332
G1 X112.147 Y67.668 E0.02616
G1 X116.811 Y72.332 E0.28332
G1 X117.420 Y72.332 E0.02616
G1 X112.756 Y67.668 E0.28332
G1 X113.365 Y67.668 E0.02616
G1 X118.028 Y72.332 E0.28332
G1 X118.637 Y72.332 E0.02616
G1 X113.974 Y67.668 E0.28332
G1 X114.583 Y67.668 E0.02616
G1 X119.246 Y72.332 E0.28332
G1 X119.855 Y72.332 E0.02616
G1 X115.192 Y67.668 E0.28332
G1 X115.801 Y67.668 E0.02616
G1 X120.464 Y72.332 E0.28332
G1 X121.073 Y72.332 E0.02616
G1 X116.410 Y67.668 E0.28332
G1 X117.018 Y67.668 E0.02616
G1 X121.682 Y72.332 E0.28332
G1 X122.291 Y72.332 E0.02616
G1 X117.627 Y67.668 E0.28332
G1 X118.236 Y67.668 E0.02616
G1 X122.900 Y72.332 E0.28332
G1 X123.508 Y72.332 E0.02616
G1 X118.845 Y67.668 E0.28332
G1 X119.454 Y67.668 E0.02616
G1 X124.117 Y72.332 E0.28332
G1 X124.726 Y72.332 E0.02616
G1 X120.063 Y67.668 E0.28332
G1 X120.672 Y67.668 E0.02616
G1 X125.335 Y72.332 E0.28332
G1 X125.944 Y72.332 E0.02616
G1 X121.281 Y67.668 E0.28332
G1 X121.890 Y67.668 E0.02616
G1 X126.553 Y72.332 E0.28332
G1 X127.162 Y72.332 E0.02616
G1 X122.498 Y67.668 E0.28332
G1 X123.107 Y67.668 E0.02616
G1 X127.771 Y72.332 E0.28332
G1 X128.380 Y72.332 E0.02616
G1 X123.716 Y67.668 E0.28332
G1 X124.325 Y67.668 E0.02616
G1 X128.988 Y72.332 E0.28332
G1 X129.597 Y72.332 E0.02616
G1 X124.934 Y67.668 E0.28332
G1 X125.543 Y67.668 E0.02616
G1 X130.206 Y72.332 E0.28332
G1 X130.815 Y72.332 E0.02616
G1 X126.152 Y67.668 E0.28332
G1 X126.761 Y67.668 E0.02616
G1 X131.424 Y72.332 E0.28332
G1 X132.033 Y72.332 E0.02616
G1 X127.370 Y67.668 E0.28332
G1 X127.978 Y67.668 E0.02616
G1 X132.117 Y71.807 E0.25142
G1 X132.117 Y71.198 E0.02616
G1 X128.587 Y67.668 E0.21442
G1 X129.196 Y67.668 E0.02616
G1 X132.117 Y70.589 E0.17743
G1 X132.117 Y69.980 E0.02616
G1 X129.805 Y67.668 E0.14044
G1 X130.414 Y67.668 E0.02616
G1 X132.117 Y69.371 E0.10345
G1 X132.117 Y68.762 E0.02616
G1 X131.023 Y67.668 E0.06645
G1 X131.632 Y67.668 E0.02616
G1 X132.309 Y68.346 E0.04118
M104 S176 ; set temperature
M140 S60 ; set bed temperature
G1 Z0.540 F7800.000
G1 X133.331 Y67.246 F7800.000
G1 F1200
G1 X133.331 Y72.754 E0.28775
G1 X91.333 Y72.754 E2.19418
G1 X91.333 Y67.246 E0.28775
G1 X133.271 Y67.246 E2.19105
G1 X90.914 Y72.327 F7800.000
G1 F1200
G1 X90.914 Y67.673 E0.24317
G1 X56.265 Y67.673 E1.81024
G1 F3600
G1 X56.250 Y67.673 E0.00079
G1 X56.250 Y66.827 E0.04417
G1 X56.265 Y66.827 E0.00079
G1 F1200
G1 X133.735 Y66.827 E4.04741
G1 F3600
G1 X133.750 Y66.827 E0.00079
G1 X133.750 Y73.173 E0.33152
G1 X133.735 Y73.173 E0.00079
G1 F1200
G1 X56.265 Y73.173 E4.04741
G1 F3600
G1 X56.250 Y73.173 E0.00079
G1 X56.250 Y72.327 E0.04417
G1 X56.265 Y72.327 E0.00079
G1 F1200
G1 X90.854 Y72.327 E1.80710
G1 X90.537 Y71.950 F7800.000
G1 F1200
G1 X90.537 Y68.050 E0.16326
G1 X56.265 Y68.050 E1.43463
G1 F3600
G1 X55.873 Y68.050 E0.02050
G1 X55.873 Y66.450 E0.08359
G1 X56.265 Y66.450 E0.02050
G1 F1200
G1 X133.735 Y66.450 E3.24291
G1 F3600
G1 X134.127 Y66.450 E0.02049
G1 X134.127 Y73.550 E0.37094
G1 X133.735 Y73.550 E0.02049
G1 F1200
G1 X56.265 Y73.550 E3.24291
G1 F3600
G1 X55.873 Y73.550 E0.02050
G1 X55.873 Y71.950 E0.08359
G1 X56.265 Y71.950 E0.02050
G1 F1200
G1 X90.477 Y71.950 E1.43212
G1 X90.633 Y71.562 F7800.000
G1 X91.124 Y72.750 F7800.000
G1 F1800
G1 X56.459 Y72.750 E1.56616
G1 X56.459 Y67.250 F7800.000
G1 F1800
G1 X91.124 Y67.250 E1.56616
G1 X92.311 Y67.372 F7800.000
G1 F1200
G1 X91.647 Y68.035 E0.04934
G1 X91.647 Y68.631 E0.03133
G1 X92.718 Y67.560 E0.07963
G1 X93.314 Y67.560 E0.03133
G1 X91.647 Y69.227 E0.12394
G1 X91.647 Y69.824 E0.03133
G1 X93.910 Y67.560 E0.16825
G1 X94.506 Y67.560 E0.03133
G1 X91.647 Y70.420 E0.21256
G1 X91.647 Y71.016 E0.03133
G1 X95.103 Y67.560 E0.25687
G1 X95.699 Y67.560 E0.03133
G1 X91.647 Y71.612 E0.30118
G1 X91.647 Y72.208 E0.03133
G1 X96.295 Y67.560 E0.34549
G1 X96.891 Y67.560 E0.03133
G1 X92.011 Y72.440 E0.36274
G1 X92.607 Y72.440 E0.03133
G1 X97.487 Y67.560 E0.36274
G1 X98.083 Y67.560 E0.03133
G1 X93.203 Y72.440 E0.36274
G1 X93.799 Y72.440 E0.03133
G1 X98.679 Y67.560 E0.36274
G1 X99.275 Y67.560 E0.03133
G1 X94.395 Y72.440 E0.36274
G1 X94.991 Y72.440 E0.03133
G1 X99.871 Y67.560 E0.36274
G1 X100.467 Y67.560 E0.03133
G1 X95.587 Y72.440 E0.36274
G1 X96.183 Y72.440 E0.03133
G1 X101.063 Y67.560 E0.36274
G1 X101.659 Y67.560 E0.03133
G1 X96.779 Y72.440 E0.36274
G1 X97.375 Y72.440 E0.03133
G1 X102.255 Y67.560 E0.36274
G1 X102.851 Y67.560 E0.03133
G1 X97.972 Y72.440 E0.36274
G1 X98.568 Y72.440 E0.03133
G1 X103.447 Y67.560 E0.36274
G1 X104.043 Y67.560 E0.03133
G1 X99.164 Y72.440 E0.36274
G1 X99.760 Y72.440 E0.03133
G1 X104.639 Y67.560 E0.36274
G1 X105.235 Y67.560 E0.03133
G1 X100.356 Y72.440 E0.36274
G1 X100.952 Y72.440 E0.03133
G1 X105.831 Y67.560 E0.36274
G1 X106.427 Y67.560 E0.03133
G1 X101.548 Y72.440 E0.36274
G1 X102.144 Y72.440 E0.03133
G1 X107.023 Y67.560 E0.36274
G1 X107.619 Y67.560 E0.03133
G1 X102.740 Y72.440 E0.36274
G1 X103.336 Y72.440 E0.03133
G1 X108.215 Y67.560 E0.36274
G1 X108.811 Y67.560 E0.03133
G1 X103.932 Y72.440 E0.36274
G1 X104.528 Y72.440 E0.03133
G1 X109.407 Y67.560 E0.36274
G1 X110.003 Y67.560 E0.03133
