; generated by Slic3r 1.33.3-prusa3d-win64 on 2017-05-13 at 18:44:13

; external perimeters extrusion width = 0.40mm
; perimeters extrusion width = 0.48mm
; infill extrusion width = 0.48mm
; solid infill extrusion width = 0.48mm
; top infill extrusion width = 0.48mm

M104 S185 ; set temperature
G28 ; home all axes
G1 Z5 F5000 ; lift nozzle

M109 S185 ; set temperature and wait for it to be reached
G21 ; set units to millimeters
G90 ; use absolute coordinates
M83 ; use relative distances for extrusion
G1 Z0.240 F7800.000
G1 X68.547 Y61.379 F7800.000
;G1 F1800 ; replaced by represure
G1 X68.547 Y61.379 E0.5 F600; long travel extraShot
G1 X69.054 Y60.868 E0.03078
G1 X69.615 Y60.406 E0.03106
G1 X70.213 Y60.005 E0.03078
G1 X70.853 Y59.663 E0.03106
G1 X71.518 Y59.388 E0.03078
G1 X72.214 Y59.178 E0.03106
G1 X72.921 Y59.040 E0.03078
G1 X73.644 Y58.972 E0.03106
G1 X116.075 Y58.965 E1.81415
G1 X116.528 Y58.981 E0.01938
G1 X116.979 Y59.026 E0.01938
G1 X117.427 Y59.099 E0.01938
G1 X117.869 Y59.199 E0.01938
G1 X118.304 Y59.327 E0.01938
G1 X118.736 Y59.484 E0.01967
G1 X119.158 Y59.668 E0.01967
G1 X119.567 Y59.878 E0.01967
G1 X119.957 Y60.110 E0.01938
G1 X120.336 Y60.370 E0.01967
G1 X120.699 Y60.653 E0.01967
G1 X121.043 Y60.959 E0.01967
G1 X121.367 Y61.285 E0.01967
G1 X121.665 Y61.626 E0.01938
G1 X121.946 Y61.991 E0.01967
G1 X122.203 Y62.372 E0.01967
G1 X122.435 Y62.769 E0.01967
G1 X122.642 Y63.180 E0.01967
G1 X122.823 Y63.603 E0.01967
G1 X122.976 Y64.037 E0.01967
G1 X123.121 Y64.557 E0.02309
G1 X123.228 Y65.094 E0.02337
G1 X123.295 Y65.636 E0.02337
G1 X123.320 Y66.182 E0.02337
G1 X123.318 Y73.930 E0.33126
G1 X123.249 Y74.767 E0.03590
G1 X123.086 Y75.584 E0.03562
G1 X122.928 Y76.107 E0.02337
G1 X122.732 Y76.618 E0.02337
G1 X122.498 Y77.112 E0.02337
G1 X122.228 Y77.587 E0.02337
G1 X121.923 Y78.041 E0.02337
G1 X121.585 Y78.470 E0.02337
G1 X121.215 Y78.873 E0.02337
G1 X120.811 Y79.251 E0.02366
G1 X120.385 Y79.594 E0.02337
G1 X119.935 Y79.904 E0.02337
G1 X119.463 Y80.179 E0.02337
G1 X118.971 Y80.418 E0.02337
G1 X118.463 Y80.619 E0.02337
G1 X117.934 Y80.784 E0.02366
G1 X117.402 Y80.906 E0.02337
G1 X116.861 Y80.988 E0.02337
G1 X116.043 Y81.035 E0.03505
G1 X79.240 Y81.035 E1.57350
G1 X78.787 Y81.019 E0.01938
G1 X78.336 Y80.975 E0.01938
G1 X77.888 Y80.903 E0.01938
G1 X77.446 Y80.803 E0.01938
G1 X76.904 Y80.639 E0.02423
G1 X76.375 Y80.434 E0.02423
G1 X75.865 Y80.189 E0.02423
G1 X75.369 Y79.901 E0.02451
G1 X69.531 Y75.781 E0.30551
G1 X69.190 Y75.502 E0.01881
G1 X68.866 Y75.204 E0.01881
G1 X68.561 Y74.887 E0.01881
G1 X68.276 Y74.551 E0.01881
G1 X68.012 Y74.200 E0.01881
G1 X67.769 Y73.833 E0.01881
G1 X67.549 Y73.452 E0.01881
G1 X67.350 Y73.052 E0.01910
G1 X67.110 Y72.466 E0.02708
G1 X66.921 Y71.861 E0.02708
G1 X66.786 Y71.242 E0.02708
G1 X66.706 Y70.614 E0.02708
G1 X66.680 Y70.042 E0.02451
G1 X66.680 Y66.237 E0.16268
G1 X66.715 Y65.531 E0.03021
G1 X66.793 Y64.970 E0.02423
G1 X66.916 Y64.410 E0.02451
G1 X67.080 Y63.867 E0.02423
G1 X67.286 Y63.339 E0.02423
G1 X67.536 Y62.823 E0.02451
G1 X67.822 Y62.334 E0.02423
G1 X68.148 Y61.863 E0.02451
;G1 X68.507 Y61.424 E0.02423 ; replaced by coast
G1 X68.507 Y61.424 Z0.24 E-0.0283549819256; coast(0.567099638512) & retract
G1 X68.507 Y61.424 Z0.24 E-0.3; & endwipe
G1 X68.835 Y61.700 F7800.000
;G1 F1800 ; replaced by represure
G1 X68.835 Y61.7 E0.328354981926 F600; tipRepresure
G1 X69.315 Y61.211 E0.02931
G1 X69.841 Y60.772 E0.02931
G1 X70.409 Y60.387 E0.02931
G1 X71.018 Y60.059 E0.02958
G1 X71.651 Y59.795 E0.02931
G1 X72.313 Y59.595 E0.02958
G1 X72.986 Y59.463 E0.02931
G1 X73.674 Y59.399 E0.02958
G1 X116.067 Y59.393 E1.81252
G1 X116.487 Y59.408 E0.01798
G1 X116.906 Y59.449 E0.01798
G1 X117.321 Y59.515 E0.01798
G1 X117.731 Y59.606 E0.01798
G1 X118.148 Y59.727 E0.01853
G1 X118.556 Y59.873 E0.01853
G1 X118.953 Y60.045 E0.01853
G1 X119.345 Y60.245 E0.01881
G1 X119.718 Y60.466 E0.01853
G1 X120.081 Y60.714 E0.01881
G1 X120.423 Y60.981 E0.01853
G1 X120.752 Y61.273 E0.01881
G1 X121.057 Y61.581 E0.01853
G1 X121.346 Y61.912 E0.01881
G1 X121.613 Y62.262 E0.01881
G1 X121.854 Y62.622 E0.01853
G1 X122.071 Y62.997 E0.01853
G1 X122.267 Y63.391 E0.01881
G1 X122.435 Y63.790 E0.01853
G1 X122.580 Y64.205 E0.01881
G1 X122.713 Y64.692 E0.02157
G1 X122.809 Y65.187 E0.02157
G1 X122.869 Y65.688 E0.02157
G1 X122.892 Y66.192 E0.02157
G1 X122.890 Y73.905 E0.32977
G1 X122.828 Y74.685 E0.03345
G1 X122.679 Y75.447 E0.03317
G1 X122.532 Y75.943 E0.02212
G1 X122.348 Y76.426 E0.02212
G1 X122.128 Y76.895 E0.02212
G1 X121.870 Y77.351 E0.02240
G1 X121.582 Y77.781 E0.02212
G1 X121.263 Y78.187 E0.02212
G1 X120.909 Y78.574 E0.02240
G1 X120.531 Y78.927 E0.02212
G1 X120.128 Y79.252 E0.02212
G1 X119.696 Y79.548 E0.02240
G1 X119.248 Y79.808 E0.02212
G1 X118.782 Y80.033 E0.02212
G1 X118.301 Y80.222 E0.02212
G1 X117.806 Y80.374 E0.02212
G1 X117.302 Y80.489 E0.02212
G1 X116.783 Y80.566 E0.02240
G1 X116.041 Y80.607 E0.03179
G1 X79.241 Y80.607 E1.57339
G1 X78.828 Y80.592 E0.01770
G1 X78.409 Y80.552 E0.01798
G1 X77.994 Y80.486 E0.01798
G1 X77.583 Y80.395 E0.01798
G1 X77.063 Y80.241 E0.02323
G1 X76.556 Y80.045 E0.02323
G1 X76.066 Y79.810 E0.02323
G1 X75.596 Y79.537 E0.02323
G1 X69.816 Y75.459 E0.30246
G1 X69.193 Y74.924 E0.03511
G1 X68.639 Y74.318 E0.03511
G1 X68.157 Y73.645 E0.03538
G1 X67.763 Y72.925 E0.03511
G1 X67.528 Y72.364 E0.02599
G1 X67.344 Y71.785 E0.02599
G1 X67.212 Y71.191 E0.02599
G1 X67.133 Y70.588 E0.02599
G1 X67.108 Y70.039 E0.02350
G1 X67.108 Y66.244 E0.16229
G1 X67.137 Y65.623 E0.02654
G1 X67.206 Y65.097 E0.02268
G1 X67.317 Y64.572 E0.02295
G1 X67.468 Y64.057 E0.02295
G1 X67.660 Y63.556 E0.02295
G1 X67.890 Y63.071 E0.02295
G1 X68.157 Y62.605 E0.02295
G1 X68.460 Y62.162 E0.02295
;G1 X68.795 Y61.745 E0.02288 ; replaced by coast
G1 X68.795 Y61.745 Z0.24 E-0.0267448125811; coast(0.534896251623) & retract
G1 X68.795 Y61.745 Z0.24 E-0.3; & endwipe
G1 X69.120 Y62.025 F7800.000
;G1 F1800 ; replaced by represure
G1 X69.12 Y62.025 E0.326744812581 F600; tipRepresure
G1 X69.572 Y61.556 E0.02784
G1 X70.070 Y61.136 E0.02784
G1 X70.607 Y60.768 E0.02784
G1 X71.179 Y60.457 E0.02784
G1 X71.779 Y60.205 E0.02784
G1 X72.402 Y60.014 E0.02784
G1 X73.047 Y59.887 E0.02811
G1 X73.695 Y59.827 E0.02784
G1 X116.060 Y59.822 E1.81132
G1 X116.835 Y59.871 E0.03319
G1 X117.592 Y60.013 E0.03292
G1 X117.989 Y60.126 E0.01767
G1 X118.379 Y60.264 E0.01767
G1 X118.759 Y60.427 E0.01767
G1 X119.127 Y60.614 E0.01767
G1 X119.483 Y60.824 E0.01767
G1 X119.825 Y61.057 E0.01767
G1 X120.150 Y61.312 E0.01767
G1 X120.459 Y61.586 E0.01767
G1 X120.750 Y61.880 E0.01767
G1 X121.021 Y62.192 E0.01767
G1 X121.271 Y62.521 E0.01767
G1 X121.500 Y62.865 E0.01767
G1 X121.706 Y63.223 E0.01767
G1 X121.889 Y63.594 E0.01767
G1 X122.048 Y63.976 E0.01767
G1 X122.181 Y64.367 E0.01767
G1 X122.301 Y64.815 E0.01981
G1 X122.388 Y65.270 E0.01981
G1 X122.442 Y65.730 E0.01981
G1 X122.463 Y66.199 E0.02008
G1 X122.462 Y73.882 E0.32845
G1 X122.407 Y74.599 E0.03078
G1 X122.272 Y75.307 E0.03078
G1 X122.136 Y75.776 E0.02088
G1 X121.965 Y76.233 E0.02088
G1 X121.759 Y76.676 E0.02088
G1 X121.517 Y77.108 E0.02115
G1 X121.242 Y77.519 E0.02115
G1 X120.941 Y77.904 E0.02088
G1 X120.612 Y78.264 E0.02088
G1 X120.251 Y78.603 E0.02115
G1 X119.870 Y78.909 E0.02088
G1 X119.462 Y79.189 E0.02115
G1 X119.039 Y79.433 E0.02088
G1 X118.599 Y79.645 E0.02088
G1 X118.138 Y79.825 E0.02115
G1 X117.671 Y79.967 E0.02088
G1 X117.194 Y80.073 E0.02088
G1 X116.704 Y80.144 E0.02115
G1 X116.042 Y80.178 E0.02838
G1 X79.249 Y80.178 E1.57310
G1 X78.480 Y80.129 E0.03292
G1 X77.723 Y79.989 E0.03292
G1 X77.224 Y79.843 E0.02222
G1 X76.739 Y79.658 E0.02222
G1 X76.270 Y79.433 E0.02222
G1 X75.820 Y79.172 E0.02222
G1 X70.094 Y75.132 E0.29962
G1 X69.513 Y74.637 E0.03265
G1 X68.994 Y74.076 E0.03265
G1 X68.546 Y73.458 E0.03265
G1 X68.174 Y72.791 E0.03265
G1 X67.945 Y72.255 E0.02490
G1 X67.766 Y71.701 E0.02490
G1 X67.637 Y71.133 E0.02490
G1 X67.561 Y70.556 E0.02490
G1 X67.537 Y70.000 E0.02380
G1 X67.537 Y66.219 E0.16167
G1 X67.560 Y65.706 E0.02196
G1 X67.622 Y65.209 E0.02142
G1 X67.722 Y64.718 E0.02142
G1 X67.860 Y64.236 E0.02142
G1 X68.036 Y63.767 E0.02142
G1 X68.247 Y63.313 E0.02142
G1 X68.493 Y62.876 E0.02142
G1 X68.772 Y62.460 E0.02142
;G1 X69.081 Y62.070 E0.02126 ; replaced by coast
G1 X69.081 Y62.07 Z0.24 E-0.0248787559978; coast(0.497575119957) & retract
G1 X69.081 Y62.07 Z0.24 E-0.3; & endwipe
G1 X80.371 Y68.903 F7800.000
;G1 F600 ; replaced by represure
G1 X80.371 Y68.903 E0.324878755998 F600; tipRepresure
G1 X75.062 Y68.903 E0.22697
G1 X75.062 Y67.347 E0.06653
G1 X109.629 Y67.347 E1.47794
G1 X109.629 Y72.653 E0.22686
G1 X80.371 Y72.653 E1.25097
;G1 X80.371 Y68.963 E0.15777 ; replaced by coast
G1 X80.371 Y68.963 Z0.24 E-0.1845; coast(3.69) & retract
G1 X80.371 Y68.963 Z0.24 E-0.3; & endwipe
G1 X110.058 Y67.582 F7800.000
;G1 F600 ; replaced by represure
G1 X110.058 Y67.582 E0.4845 F600; tipRepresure
G1 X110.058 Y67.582 E0.5 F600; long travel extraShot
G1 X110.058 Y72.418 E0.20681
G1 X115.366 Y72.418 E0.22697
G1 X115.366 Y73.082 E0.02835
G1 X79.942 Y73.082 E1.51458
G1 X79.942 Y69.332 E0.16033
G1 X74.634 Y69.332 E0.22697
G1 X74.634 Y66.918 E0.10317
G1 X115.366 Y66.918 E1.74155
G1 X115.366 Y67.582 E0.02835
;G1 X110.118 Y67.582 E0.22440 ; replaced by coast
G1 X115.118 Y67.582 E0.2244 ; extrude all
G1 X110.118 Y67.582 Z0.24 E-0.25; coast(5) & retract
G1 X110.118 Y67.582 Z0.24 E-0.3; & endwipe
G1 X110.486 Y68.010 F7800.000
;G1 F600 ; replaced by represure
G1 X110.486 Y68.01 E0.05; represure(0.05,0.0)
G1 X110.486 Y68.01 E0.5 F600; tipRepresure
G1 X110.486 Y71.990 E0.17017
G1 X115.795 Y71.990 E0.22697
G1 X115.795 Y73.510 E0.06499
G1 X79.514 Y73.510 E1.55122
G1 X79.514 Y69.760 E0.16033
G1 X74.205 Y69.760 E0.22697
G1 X74.205 Y66.490 E0.13981
G1 X115.795 Y66.490 E1.77819
G1 X115.795 Y68.010 E0.06499
;G1 X110.546 Y68.010 E0.22440 ; replaced by coast
G1 X115.546 Y68.01 E0.2244 ; extrude all
G1 X110.546 Y68.01 Z0.24 E-0.25; coast(5) & retract
G1 X110.546 Y68.01 Z0.24 E-0.3; & endwipe
G1 X110.088 Y68.047 F7800.000
G1 X109.844 Y67.250 F7800.000
;G1 F900 ; replaced by represure
G1 X109.844 Y67.25 E0.05; represure(0.05,0.0)
G1 X109.844 Y67.25 E0.5 F600; tipRepresure
;G1 X115.152 Y67.250 E0.09694 ; replaced by coast
G1 X110.152 Y67.25 E0.09694 ; extrude all
G1 X115.152 Y67.25 Z0.24 E-0.25; coast(5) & retract
G1 X115.152 Y67.25 Z0.24 E-0.3; & endwipe
G1 X115.152 Y72.750 F7800.000
;G1 F900 ; replaced by represure
G1 X115.152 Y72.75 E0.05; represure(0.05,5.0)
G1 X115.152 Y72.75 E0.5 F600; tipRepresure
;G1 X109.844 Y72.750 E0.09694 ; replaced by coast
G1 X114.844 Y72.75 E0.09694 ; extrude all
G1 X109.844 Y72.75 Z0.24 E-0.25; coast(5) & retract
G1 X109.844 Y72.75 Z0.24 E-0.3; & endwipe
G1 X109.501 Y68.356 F7800.000
;G1 F600 ; replaced by represure
G1 X109.501 Y68.356 E0.05; represure(0.05,0.0)
G1 X109.501 Y68.356 E0.5 F600; tipRepresure
G1 X108.813 Y67.668 E0.04222
G1 X108.198 Y67.668 E0.02672
G1 X109.308 Y68.778 E0.06817
G1 X109.308 Y69.394 E0.02672
G1 X107.582 Y67.668 E0.10596
G1 X106.967 Y67.668 E0.02672
G1 X109.308 Y70.009 E0.14376
G1 X109.308 Y70.625 E0.02672
G1 X106.352 Y67.668 E0.18155
G1 X105.736 Y67.668 E0.02672
G1 X109.308 Y71.240 E0.21934
G1 X109.308 Y71.856 E0.02672
G1 X105.121 Y67.668 E0.25713
G1 X104.505 Y67.668 E0.02672
G1 X109.169 Y72.332 E0.28636
G1 X108.553 Y72.332 E0.02672
G1 X103.890 Y67.668 E0.28636
G1 X103.274 Y67.668 E0.02672
G1 X107.938 Y72.332 E0.28636
G1 X107.322 Y72.332 E0.02672
G1 X102.659 Y67.668 E0.28636
G1 X102.044 Y67.668 E0.02672
G1 X106.707 Y72.332 E0.28636
G1 X106.091 Y72.332 E0.02672
G1 X101.428 Y67.668 E0.28636
G1 X100.813 Y67.668 E0.02672
G1 X105.476 Y72.332 E0.28636
G1 X104.861 Y72.332 E0.02672
G1 X100.197 Y67.668 E0.28636
G1 X99.582 Y67.668 E0.02672
G1 X104.245 Y72.332 E0.28636
G1 X103.630 Y72.332 E0.02672
G1 X98.966 Y67.668 E0.28636
G1 X98.351 Y67.668 E0.02672
G1 X103.014 Y72.332 E0.28636
G1 X102.399 Y72.332 E0.02672
G1 X97.736 Y67.668 E0.28636
G1 X97.120 Y67.668 E0.02672
G1 X101.783 Y72.332 E0.28636
G1 X101.168 Y72.332 E0.02672
G1 X96.505 Y67.668 E0.28636
G1 X95.889 Y67.668 E0.02672
G1 X100.553 Y72.332 E0.28636
G1 X99.937 Y72.332 E0.02672
G1 X95.274 Y67.668 E0.28636
G1 X94.658 Y67.668 E0.02672
G1 X99.322 Y72.332 E0.28636
G1 X98.706 Y72.332 E0.02672
G1 X94.043 Y67.668 E0.28636
G1 X93.428 Y67.668 E0.02672
G1 X98.091 Y72.332 E0.28636
G1 X97.475 Y72.332 E0.02672
G1 X92.812 Y67.668 E0.28636
G1 X92.197 Y67.668 E0.02672
G1 X96.860 Y72.332 E0.28636
G1 X96.245 Y72.332 E0.02672
G1 X91.581 Y67.668 E0.28636
G1 X90.966 Y67.668 E0.02672
G1 X95.629 Y72.332 E0.28636
G1 X95.014 Y72.332 E0.02672
G1 X90.350 Y67.668 E0.28636
G1 X89.735 Y67.668 E0.02672
G1 X94.398 Y72.332 E0.28636
G1 X93.783 Y72.332 E0.02672
G1 X89.120 Y67.668 E0.28636
G1 X88.504 Y67.668 E0.02672
G1 X93.167 Y72.332 E0.28636
G1 X92.552 Y72.332 E0.02672
G1 X87.889 Y67.668 E0.28636
G1 X87.273 Y67.668 E0.02672
G1 X91.937 Y72.332 E0.28636
G1 X91.321 Y72.332 E0.02672
G1 X86.658 Y67.668 E0.28636
G1 X86.042 Y67.668 E0.02672
G1 X90.706 Y72.332 E0.28636
G1 X90.090 Y72.332 E0.02672
G1 X85.427 Y67.668 E0.28636
G1 X84.812 Y67.668 E0.02672
G1 X89.475 Y72.332 E0.28636
G1 X88.859 Y72.332 E0.02672
G1 X84.196 Y67.668 E0.28636
G1 X83.581 Y67.668 E0.02672
G1 X88.244 Y72.332 E0.28636
G1 X87.629 Y72.332 E0.02672
G1 X82.965 Y67.668 E0.28636
G1 X82.350 Y67.668 E0.02672
G1 X87.013 Y72.332 E0.28636
G1 X86.398 Y72.332 E0.02672
G1 X81.734 Y67.668 E0.28636
G1 X81.119 Y67.668 E0.02672
G1 X85.782 Y72.332 E0.28636
G1 X85.167 Y72.332 E0.02672
G1 X80.504 Y67.668 E0.28636
G1 X79.888 Y67.668 E0.02672
G1 X84.551 Y72.332 E0.28636
G1 X83.936 Y72.332 E0.02672
G1 X80.692 Y69.088 E0.19921
G1 X80.692 Y69.703 E0.02672
G1 X83.321 Y72.332 E0.16142
G1 X82.705 Y72.332 E0.02672
G1 X80.692 Y70.318 E0.12363
G1 X80.692 Y70.934 E0.02672
G1 X82.090 Y72.332 E0.08583
G1 X81.474 Y72.332 E0.02672
G1 X80.692 Y71.549 E0.04804
G1 X80.692 Y72.165 E0.02672
;G1 X81.052 Y72.524 E0.02209 ; replaced by coast
G1 X81.052 Y72.524 Z0.24 E-0.0254205133701; coast(0.508410267402) & retract
G1 X81.052 Y72.524 Z0.24 E-0.3; & endwipe
G1 X80.379 Y68.774 F7800.000
;G1 F600 ; replaced by represure
G1 X80.379 Y68.774 E0.32542051337 F600; tipRepresure
G1 X79.273 Y67.668 E0.06793
G1 X78.657 Y67.668 E0.02672
G1 X79.571 Y68.582 E0.05609
G1 X78.955 Y68.582 E0.02672
G1 X78.042 Y67.668 E0.05609
G1 X77.426 Y67.668 E0.02672
G1 X78.340 Y68.582 E0.05609
G1 X77.724 Y68.582 E0.02672
G1 X76.811 Y67.668 E0.05609
G1 X76.196 Y67.668 E0.02672
G1 X77.109 Y68.582 E0.05609
G1 X76.493 Y68.582 E0.02672
G1 X75.580 Y67.668 E0.05609
G1 X75.383 Y67.668 E0.00854
G1 X75.383 Y68.087 E0.01818
G1 X76.071 Y68.774 E0.04221
M104 S176 ; set temperature
M140 S60 ; set bed temperature
G1 Z0.540 F7800.000
G1 X81.064 Y69.004 F7800.000
;G1 F1200 ; replaced by represure
G1 X74.169 Y69.004 E0.36021
G1 X74.169 Y67.246 E0.09183
G1 X108.936 Y67.246 E1.81642
G1 X108.936 Y72.754 E0.28775
G1 X81.064 Y72.754 E1.45621
;G1 X81.064 Y69.064 E0.19278 ; replaced by coast
G1 X81.064 Y69.064 Z0.54 E-0.1845; coast(3.69) & retract
G1 X81.064 Y69.064 Z0.54 E-0.3; & endwipe
G1 X80.645 Y69.423 F7800.000
;G1 F1200 ; replaced by represure
G1 X80.645 Y69.423 E0.4845 F600; tipRepresure
;G1 X73.765 Y69.423 E0.35943 ; replaced by coast
G1 X78.765 Y69.423 E0.35943 ; extrude all
G1 X73.765 Y69.423 Z0.54 E-0.25; coast(5) & retract
G1 X73.765 Y69.423 Z0.54 E-0.3; & endwipe
;G1 F3600 ; replaced by represure
G1 X73.765 Y69.423 E0.05; represure(0.05,0.0)
G1 X73.765 Y69.423 E0.5 F600; tipRepresure
G1 X73.750 Y69.423 E0.00079
G1 X73.750 Y66.827 E0.13560
;G1 X73.765 Y66.827 E0.00079 ; replaced by coast
G1 X73.765 Y66.827 Z0.54 E-0.00075; coast(0.015) & retract
G1 X73.765 Y66.827 Z0.54 E-0.3; & endwipe
;G1 F1200 ; replaced by represure
G1 X73.765 Y66.827 E0.30075 F600; tipRepresure
;G1 X116.235 Y66.827 E2.21883 ; replaced by coast
G1 X111.235 Y66.827 E2.21883 ; extrude all
G1 X116.235 Y66.827 Z0.54 E-0.25; coast(5) & retract
G1 X116.235 Y66.827 Z0.54 E-0.3; & endwipe
;G1 F3600 ; replaced by represure
G1 X116.235 Y66.827 E0.05; represure(0.05,0.0)
G1 X116.235 Y66.827 E0.5 F600; tipRepresure
G1 X116.250 Y66.827 E0.00079
