; generated by Slic3r 1.33.3-prusa3d-win64 on 2017-05-27 at 12:07:48

; external perimeters extrusion width = 0.40mm
; perimeters extrusion width = 0.48mm
; infill extrusion width = 0.48mm
; solid infill extrusion width = 0.48mm
; top infill extrusion width = 0.48mm
; support material extrusion width = 0.40mm

M104 S185 ; set temperature
G28 ; home all axes
G1 Z5 F5000 ; lift nozzle

M109 S185 ; set temperature and wait for it to be reached
G21 ; set units to millimeters
G90 ; use absolute coordinates
M83 ; use relative distances for extrusion
G1 Z0.240 F7800.000
G1 X85.721 Y57.222 F7800.000
;G1 F1800 ; replaced by represure
G1 X85.721 Y57.222 E0.5 F600; long travel extraShot
G1 X86.048 Y56.752 E0.02451
G1 X86.412 Y56.308 E0.02451
G1 X86.747 Y55.956 E0.02081
G1 X87.377 Y55.358 E0.03714
G1 X87.777 Y55.035 E0.02195
G1 X88.198 Y54.742 E0.02195
G1 X88.918 Y54.319 E0.03572
G1 X89.295 Y54.119 E0.01824
G1 X89.776 Y53.904 E0.02252
G1 X90.278 Y53.723 E0.02280
G1 X91.083 Y53.499 E0.03572
G1 X91.544 Y53.395 E0.02024
G1 X92.025 Y53.321 E0.02081
G1 X92.517 Y53.278 E0.02109
G1 X93.739 Y53.278 E0.05224
G1 X98.491 Y53.729 E0.20410
G1 X98.982 Y53.822 E0.02138
G1 X99.473 Y53.950 E0.02166
G1 X99.953 Y54.112 E0.02166
G1 X100.420 Y54.307 E0.02166
G1 X101.385 Y54.786 E0.04604
G1 X101.871 Y55.064 E0.02394
G1 X102.425 Y55.447 E0.02879
G1 X102.946 Y55.883 E0.02907
G1 X103.420 Y56.361 E0.02879
G1 X104.056 Y57.112 E0.04205
G1 X104.465 Y57.713 E0.03106
G1 X104.809 Y58.345 E0.03078
G1 X105.100 Y59.039 E0.03220
G1 X105.398 Y59.881 E0.03816
G1 X105.545 Y60.386 E0.02252
G1 X105.639 Y60.816 E0.01881
G1 X105.708 Y61.258 E0.01910
G1 X105.750 Y61.702 E0.01910
G1 X105.765 Y62.149 E0.01910
G1 X104.986 Y77.683 E0.66500
G1 X104.940 Y78.194 E0.02195
G1 X104.858 Y78.701 E0.02195
G1 X104.762 Y79.123 E0.01853
G1 X104.640 Y79.539 E0.01853
G1 X104.491 Y79.953 E0.01881
G1 X104.321 Y80.352 E0.01853
G1 X103.701 Y81.605 E0.05976
G1 X103.412 Y82.069 E0.02337
G1 X103.090 Y82.511 E0.02337
G1 X102.226 Y83.536 E0.05733
G1 X101.904 Y83.864 E0.01967
G1 X101.562 Y84.172 E0.01967
G1 X101.190 Y84.465 E0.02024
G1 X100.284 Y85.113 E0.04764
G1 X99.854 Y85.381 E0.02166
G1 X99.400 Y85.620 E0.02195
G1 X98.992 Y85.803 E0.01910
G1 X98.079 Y86.162 E0.04194
G1 X97.381 Y86.387 E0.03135
G1 X96.625 Y86.548 E0.03306
G1 X95.341 Y86.707 E0.05533
G1 X94.608 Y86.734 E0.03135
G1 X93.876 Y86.686 E0.03135
G1 X92.620 Y86.517 E0.05419
G1 X92.164 Y86.419 E0.01995
G1 X91.709 Y86.289 E0.02024
G1 X90.400 Y85.790 E0.05989
G1 X89.709 Y85.459 E0.03277
G1 X89.051 Y85.053 E0.03306
G1 X87.923 Y84.223 E0.05989
G1 X87.562 Y83.905 E0.02052
G1 X87.224 Y83.565 E0.02052
G1 X86.349 Y82.531 E0.05790
G1 X85.883 Y81.873 E0.03448
G1 X85.492 Y81.168 E0.03448
G1 X85.014 Y80.154 E0.04792
G1 X84.750 Y79.434 E0.03277
G1 X84.548 Y78.613 E0.03619
G1 X84.442 Y77.766 E0.03647
G1 X84.235 Y62.238 E0.66395
G1 X84.258 Y61.486 E0.03218
G1 X84.306 Y60.968 E0.02223
G1 X84.400 Y60.403 E0.02451
G1 X84.539 Y59.846 E0.02451
G1 X84.762 Y59.118 E0.03258
G1 X84.995 Y58.529 E0.02708
G1 X85.271 Y57.974 E0.02651
;G1 X85.689 Y57.273 E0.03487 ; replaced by coast
G1 X85.689 Y57.273 Z0.24 E-0.0408082405894; coast(0.816164811787) & retract
G1 X85.689 Y57.273 Z0.24 E-0.3; & endwipe
G1 X86.088 Y57.443 F7800.000
;G1 F1800 ; replaced by represure
G1 X86.088 Y57.443 E0.340808240589 F600; tipRepresure
G1 X86.399 Y56.998 E0.02323
G1 X86.745 Y56.579 E0.02323
G1 X87.058 Y56.251 E0.01936
G1 X87.672 Y55.669 E0.03618
G1 X88.050 Y55.366 E0.02074
G1 X88.449 Y55.089 E0.02074
G1 X89.502 Y54.496 E0.05166
G1 X89.957 Y54.294 E0.02129
G1 X90.425 Y54.125 E0.02129
G1 X91.204 Y53.910 E0.03452
G1 X91.652 Y53.811 E0.01963
G1 X92.106 Y53.742 E0.01963
G1 X92.564 Y53.704 E0.01963
G1 X93.746 Y53.708 E0.05055
G1 X98.413 Y54.151 E0.20042
G1 X98.883 Y54.239 E0.02046
G1 X99.340 Y54.358 E0.02019
G1 X99.788 Y54.508 E0.02019
G1 X100.230 Y54.691 E0.02046
G1 X101.178 Y55.161 E0.04526
G1 X101.639 Y55.424 E0.02268
G1 X102.171 Y55.792 E0.02765
G1 X102.666 Y56.208 E0.02765
G1 X103.116 Y56.664 E0.02737
G1 X103.735 Y57.399 E0.04110
G1 X104.125 Y57.979 E0.02986
G1 X104.453 Y58.595 E0.02986
G1 X104.650 Y59.059 E0.02157
G1 X104.942 Y59.873 E0.03695
G1 X105.135 Y60.517 E0.02875
G1 X105.223 Y60.921 E0.01770
G1 X105.286 Y61.337 E0.01798
G1 X105.324 Y61.749 E0.01770
G1 X105.337 Y62.170 E0.01798
G1 X104.558 Y77.660 E0.66314
G1 X104.515 Y78.143 E0.02074
G1 X104.437 Y78.622 E0.02074
G1 X104.229 Y79.417 E0.03511
G1 X103.925 Y80.186 E0.03538
G1 X103.324 Y81.400 E0.05790
G1 X103.047 Y81.844 E0.02240
G1 X102.737 Y82.266 E0.02240
G1 X101.904 Y83.253 E0.05520
G1 X101.595 Y83.566 E0.01881
G1 X101.262 Y83.863 E0.01908
G1 X100.921 Y84.131 E0.01853
G1 X100.018 Y84.776 E0.04746
G1 X99.593 Y85.036 E0.02129
G1 X99.151 Y85.264 E0.02129
G1 X97.894 Y85.773 E0.05796
G1 X97.210 Y85.989 E0.03069
G1 X96.500 Y86.133 E0.03096
G1 X95.180 Y86.290 E0.05685
G1 X94.714 Y86.306 E0.01991
G1 X94.249 Y86.290 E0.01991
G1 X92.979 Y86.141 E0.05464
G1 X92.256 Y86.000 E0.03152
G1 X91.552 Y85.782 E0.03152
G1 X90.430 Y85.336 E0.05160
G1 X89.728 Y84.977 E0.03373
G1 X89.302 Y84.706 E0.02157
G1 X88.501 Y84.130 E0.04220
G1 X87.912 Y83.645 E0.03262
G1 X87.363 Y83.078 E0.03373
G1 X86.722 Y82.311 E0.04276
G1 X86.434 Y81.929 E0.02046
G1 X86.013 Y81.246 E0.03428
G1 X85.510 Y80.213 E0.04911
G1 X85.254 Y79.592 E0.02875
G1 X85.057 Y78.942 E0.02903
G1 X84.927 Y78.282 E0.02875
G1 X84.862 Y77.606 E0.02903
G1 X84.665 Y62.134 E0.66156
G1 X84.693 Y61.401 E0.03136
G1 X84.760 Y60.816 E0.02516
G1 X84.877 Y60.240 E0.02516
G1 X85.081 Y59.525 E0.03176
G1 X85.253 Y59.024 E0.02268
G1 X85.466 Y58.531 E0.02295
G1 X85.688 Y58.107 E0.02046
;G1 X86.056 Y57.494 E0.03058 ; replaced by coast
G1 X86.056 Y57.494 Z0.24 E-0.0357488811014; coast(0.714977622027) & retract
G1 X86.056 Y57.494 Z0.24 E-0.3; & endwipe
G1 X86.455 Y57.664 F7800.000
;G1 F1800 ; replaced by represure
G1 X86.455 Y57.664 E0.335748881101 F600; tipRepresure
G1 X86.751 Y57.244 E0.02196
G1 X87.078 Y56.849 E0.02196
G1 X87.369 Y56.546 E0.01794
G1 X87.967 Y55.981 E0.03515
G1 X88.319 Y55.700 E0.01928
G1 X88.695 Y55.441 E0.01955
G1 X89.707 Y54.872 E0.04960
G1 X90.137 Y54.683 E0.02008
G1 X90.579 Y54.526 E0.02008
G1 X91.324 Y54.322 E0.03302
G1 X91.752 Y54.228 E0.01874
G1 X92.180 Y54.165 E0.01848
G1 X92.611 Y54.131 E0.01848
G1 X93.740 Y54.137 E0.04827
G1 X98.330 Y54.571 E0.19713
G1 X98.767 Y54.652 E0.01901
G1 X99.204 Y54.764 E0.01928
G1 X99.631 Y54.907 E0.01928
G1 X100.042 Y55.076 E0.01901
G1 X100.972 Y55.537 E0.04437
G1 X101.402 Y55.782 E0.02115
G1 X101.913 Y56.134 E0.02650
G1 X102.387 Y56.533 E0.02650
G1 X102.808 Y56.962 E0.02570
G1 X103.410 Y57.679 E0.04003
G1 X103.780 Y58.238 E0.02864
G1 X104.093 Y58.837 E0.02891
G1 X104.261 Y59.242 E0.01874
G1 X104.547 Y60.040 E0.03623
G1 X104.726 Y60.646 E0.02704
G1 X104.864 Y61.410 E0.03319
G1 X104.908 Y62.191 E0.03346
G1 X104.130 Y77.638 E0.66124
G1 X104.090 Y78.087 E0.01928
G1 X104.017 Y78.538 E0.01955
G1 X103.820 Y79.289 E0.03319
G1 X103.534 Y80.011 E0.03319
G1 X102.954 Y81.184 E0.05598
G1 X102.689 Y81.609 E0.02142
G1 X102.388 Y82.017 E0.02169
G1 X101.586 Y82.965 E0.05307
G1 X101.292 Y83.264 E0.01794
G1 X100.973 Y83.547 E0.01821
G1 X100.657 Y83.793 E0.01714
G1 X99.758 Y84.434 E0.04718
G1 X99.346 Y84.683 E0.02062
G1 X98.910 Y84.904 E0.02088
G1 X97.717 Y85.382 E0.05494
G1 X97.072 Y85.582 E0.02891
G1 X96.415 Y85.713 E0.02864
G1 X95.120 Y85.864 E0.05574
G1 X94.688 Y85.877 E0.01848
G1 X94.250 Y85.861 E0.01874
G1 X93.011 Y85.713 E0.05334
G1 X92.323 Y85.575 E0.02998
G1 X91.655 Y85.363 E0.02998
G1 X90.589 Y84.938 E0.04905
G1 X89.922 Y84.594 E0.03212
G1 X89.532 Y84.344 E0.01981
G1 X88.743 Y83.776 E0.04156
G1 X88.174 Y83.304 E0.03158
G1 X87.668 Y82.775 E0.03132
G1 X87.045 Y82.029 E0.04156
G1 X86.764 Y81.653 E0.02008
G1 X86.376 Y81.016 E0.03185
G1 X85.871 Y79.972 E0.04959
G1 X85.639 Y79.397 E0.02650
G1 X85.463 Y78.797 E0.02677
G1 X85.347 Y78.188 E0.02650
G1 X85.289 Y77.564 E0.02677
G1 X85.094 Y62.137 E0.65968
G1 X85.121 Y61.429 E0.03027
G1 X85.185 Y60.875 E0.02383
G1 X85.296 Y60.329 E0.02383
G1 X85.491 Y59.647 E0.03034
G1 X85.656 Y59.168 E0.02169
G1 X85.859 Y58.702 E0.02169
G1 X86.066 Y58.309 E0.01901
;G1 X86.423 Y57.715 E0.02965 ; replaced by coast
G1 X86.423 Y57.715 Z0.24 E-0.034651298677; coast(0.693025973539) & retract
G1 X86.423 Y57.715 Z0.24 E-0.3; & endwipe
G1 X93.092 Y70.055 F7800.000
;G1 F300 ; replaced by represure
G1 X93.092 Y70.055 E0.334651298677 F600; tipRepresure
G1 X93.332 Y70.091 E0.01036
G1 X93.044 Y73.259 E0.13601
G1 X93.080 Y77.727 E0.19103
G1 X93.251 Y78.023 E0.01461
G1 X93.058 Y78.158 E0.01008
G1 X92.618 Y77.633 E0.02926
G1 X92.380 Y77.135 E0.02361
G1 X92.380 Y74.407 E0.11661
G1 X92.485 Y72.927 E0.06346
;G1 X93.080 Y70.113 E0.12295 ; replaced by coast
G1 X93.08 Y70.113 Z0.24 E-0.143810821915; coast(2.87621643831) & retract
G1 X93.08 Y70.113 Z0.24 E-0.3; & endwipe
G1 X93.344 Y63.318 F7800.000
;G1 F300 ; replaced by represure
G1 X93.344 Y63.318 E0.443810821915 F600; tipRepresure
G1 X92.636 Y62.256 E0.05457
G1 X92.621 Y62.190 E0.00290
G1 X92.625 Y62.063 E0.00543
G1 X92.661 Y61.942 E0.00543
G1 X92.726 Y61.833 E0.00543
G1 X92.817 Y61.745 E0.00543
G1 X92.927 Y61.682 E0.00543
G1 X93.050 Y61.649 E0.00543
G1 X93.177 Y61.649 E0.00543
G1 X93.298 Y61.680 E0.00533
G1 X93.411 Y61.743 E0.00556
G1 X93.502 Y61.830 E0.00538
G1 X93.568 Y61.938 E0.00543
G1 X93.605 Y62.060 E0.00543
G1 X93.613 Y62.257 E0.00846
G1 X93.520 Y63.274 E0.04363
;G1 X93.402 Y63.304 E0.00521 ; replaced by coast
G1 X93.402 Y63.304 Z0.24 E-0.00608769250209; coast(0.121753850042) & retract
G1 X93.402 Y63.304 Z0.24 E-0.3; & endwipe
G1 X93.634 Y64.641 F7800.000
;G1 F300 ; replaced by represure
G1 X93.634 Y64.641 E0.306087692502 F600; tipRepresure
G1 X93.470 Y64.280 E0.01698
G1 X92.236 Y62.429 E0.09512
G1 X92.191 Y62.233 E0.00860
G1 X92.198 Y61.996 E0.01014
G1 X92.265 Y61.768 E0.01014
G1 X92.388 Y61.565 E0.01014
G1 X92.557 Y61.399 E0.01014
G1 X92.764 Y61.282 E0.01014
G1 X92.993 Y61.221 E0.01014
G1 X93.230 Y61.220 E0.01014
G1 X93.458 Y61.279 E0.01003
G1 X93.668 Y61.395 E0.01028
G1 X93.839 Y61.559 E0.01012
G1 X93.963 Y61.761 E0.01014
G1 X94.031 Y61.988 E0.01014
G1 X94.042 Y62.269 E0.01199
G1 X93.829 Y64.608 E0.10044
;G1 X93.694 Y64.631 E0.00590 ; replaced by coast
G1 X93.694 Y64.631 Z0.24 E-0.00684726222661; coast(0.136945244532) & retract
G1 X93.694 Y64.631 Z0.24 E-0.3; & endwipe
G1 X96.847 Y64.090 F7800.000
;G1 F300 ; replaced by represure
G1 X96.847 Y64.09 E0.306847262227 F600; tipRepresure
G1 X96.852 Y62.189 E0.08130
G1 X96.989 Y62.046 E0.00847
G1 X97.150 Y62.039 E0.00686
G1 X97.296 Y62.112 E0.00702
G1 X97.355 Y62.276 E0.00744
G1 X97.086 Y64.108 E0.07917
;G1 X96.907 Y64.095 E0.00767 ; replaced by coast
G1 X96.907 Y64.095 Z0.24 E-0.00897357230984; coast(0.179471446197) & retract
G1 X96.907 Y64.095 Z0.24 E-0.3; & endwipe
G1 X96.460 Y61.980 F7800.000
;G1 F300 ; replaced by represure
G1 X96.46 Y61.98 E0.30897357231 F600; tipRepresure
G1 X96.764 Y61.662 E0.01881
G1 X96.849 Y61.623 E0.00401
G1 X97.242 Y61.606 E0.01680
G1 X97.597 Y61.784 E0.01700
G1 X97.659 Y61.853 E0.00398
G1 X97.794 Y62.233 E0.01722
G1 X97.519 Y64.108 E0.08102
G1 X97.111 Y65.751 E0.07239
G1 X97.043 Y66.666 E0.03922
G1 X97.043 Y77.135 E0.44759
G1 X96.805 Y77.633 E0.02361
G1 X96.385 Y78.134 E0.02794
G1 X96.202 Y78.039 E0.00883
G1 X96.380 Y77.375 E0.02936
G1 X96.424 Y62.067 E0.65450
;G1 X96.437 Y62.035 E0.00148 ; replaced by coast
G1 X96.437 Y62.035 Z0.24 E-0.00172699160392; coast(0.0345398320783) & retract
G1 X96.437 Y62.035 Z0.24 E-0.3; & endwipe
G1 X96.040 Y61.876 F7800.000
;G1 F600 ; replaced by represure
G1 X96.04 Y61.876 E0.301726991604 F600; tipRepresure
G1 X96.093 Y61.743 E0.00611
G1 X96.511 Y61.306 E0.02589
G1 X96.748 Y61.199 E0.01109
G1 X97.334 Y61.173 E0.02509
G1 X97.863 Y61.438 E0.02531
G1 X98.035 Y61.632 E0.01108
G1 X98.234 Y62.190 E0.02532
G1 X97.940 Y64.191 E0.08647
G1 X97.536 Y65.819 E0.07174
G1 X97.471 Y66.682 E0.03699
G1 X97.471 Y77.232 E0.45107
G1 X97.168 Y77.866 E0.03007
G1 X96.701 Y78.424 E0.03111
G1 X96.111 Y78.850 E0.03111
G1 X95.433 Y79.116 E0.03111
G1 X94.712 Y79.207 E0.03111
G1 X93.990 Y79.116 E0.03111
G1 X93.312 Y78.850 E0.03111
G1 X92.722 Y78.424 E0.03111
G1 X92.255 Y77.866 E0.03111
G1 X91.951 Y77.232 E0.03007
G1 X91.951 Y74.392 E0.12142
G1 X92.060 Y72.867 E0.06537
G1 X93.426 Y66.403 E0.28249
G1 X93.481 Y65.750 E0.02800
G1 X93.367 Y65.089 E0.02869
G1 X93.094 Y64.489 E0.02820
G1 X91.836 Y62.601 E0.09699
G1 X91.761 Y62.275 E0.01431
G1 X91.772 Y61.928 E0.01486
G1 X91.870 Y61.594 E0.01486
G1 X92.049 Y61.296 E0.01486
G1 X92.298 Y61.054 E0.01486
G1 X92.600 Y60.882 E0.01486
G1 X92.936 Y60.793 E0.01486
G1 X93.284 Y60.791 E0.01486
G1 X93.618 Y60.877 E0.01473
G1 X93.924 Y61.048 E0.01500
G1 X94.175 Y61.288 E0.01485
G1 X94.357 Y61.584 E0.01486
G1 X94.457 Y61.917 E0.01486
G1 X94.471 Y62.280 E0.01553
G1 X93.473 Y73.277 E0.47209
G1 X93.508 Y77.610 E0.18530
G1 X93.830 Y78.169 E0.02757
G1 X94.375 Y78.483 E0.02691
G1 X94.728 Y78.530 E0.01524
G1 X95.336 Y78.367 E0.02691
G1 X95.793 Y77.910 E0.02761
G1 X95.951 Y77.318 E0.02620
G1 X95.996 Y61.984 E0.65563
;G1 X96.017 Y61.931 E0.00243 ; replaced by coast
G1 X96.017 Y61.931 Z0.24 E-0.00285043856275; coast(0.057008771255) & retract
G1 X96.017 Y61.931 Z0.24 E-0.3; & endwipe
G1 X96.177 Y61.838 F7800.000
G1 X97.105 Y62.256 F7800.000
;G1 F900 ; replaced by represure
G1 X97.105 Y62.256 E0.302850438563 F600; tipRepresure
;G1 X97.093 Y62.400 E0.00017 ; replaced by coast
G1 X97.093 Y62.4 Z0.24 E-0.00722495674728; coast(0.144499134946) & retract
G1 X97.093 Y62.4 Z0.24 E-0.3; & endwipe
G1 X96.935 Y64.312 F7800.000
;G1 F900 ; replaced by represure
G1 X96.935 Y64.312 E0.307224956747 F600; tipRepresure
;G1 X96.879 Y64.769 E0.02253 ; replaced by coast
G1 X96.879 Y64.769 Z0.24 E-0.0230209144041; coast(0.460418288082) & retract
G1 X96.879 Y64.769 Z0.24 E-0.3; & endwipe
;G1 F900 ; replaced by represure
G1 X96.879 Y64.769 E0.323020914404 F600; tipRepresure
;G1 X96.822 Y65.227 E0.01844 ; replaced by coast
G1 X96.822 Y65.227 Z0.24 E-0.0230766657037; coast(0.461533314074) & retract
G1 X96.822 Y65.227 Z0.24 E-0.3; & endwipe
;G1 F900 ; replaced by represure
G1 X96.822 Y65.227 E0.323076665704 F600; tipRepresure
;G1 X96.765 Y65.684 E0.01436 ; replaced by coast
G1 X96.765 Y65.684 Z0.24 E-0.0230270493116; coast(0.460540986232) & retract
G1 X96.765 Y65.684 Z0.24 E-0.3; & endwipe
;G1 F900 ; replaced by represure
G1 X96.765 Y65.684 E0.323027049312 F600; tipRepresure
;G1 X96.727 Y66.651 E0.02155 ; replaced by coast
G1 X96.727 Y66.651 Z0.24 E-0.0483873175533; coast(0.967746351065) & retract
G1 X96.727 Y66.651 Z0.24 E-0.3; & endwipe
;G1 F900 ; replaced by represure
G1 X96.727 Y66.651 E0.348387317553 F600; tipRepresure
;G1 X96.711 Y77.331 E0.16234 ; replaced by coast
G1 X96.7184906283 Y72.331005611 E0.16234 ; extrude all
G1 X96.711 Y77.331 Z0.24 E-0.25; coast(5) & retract
G1 X96.711 Y77.331 Z0.24 E-0.3; & endwipe
G1 X96.279 Y78.320 F7800.000
;G1 F900 ; replaced by represure
G1 X96.279 Y78.32 E0.05; represure(0.05,0.0)
G1 X96.279 Y78.32 E0.5 F600; tipRepresure
G1 X95.486 Y78.704 E0.02293
G1 X95.341 Y78.752 E0.00398
;G1 X94.773 Y78.863 E0.01504 ; replaced by coast
G1 X94.773 Y78.863 Z0.24 E-0.0289372165213; coast(0.578744330426) & retract
G1 X94.773 Y78.863 Z0.24 E-0.3; & endwipe
;G1 F900 ; replaced by represure
G1 X94.773 Y78.863 E0.328937216521 F600; tipRepresure
;G1 X94.240 Y78.802 E0.01016 ; replaced by coast
G1 X94.24 Y78.802 Z0.24 E-0.0268239631673; coast(0.536479263346) & retract
G1 X94.24 Y78.802 Z0.24 E-0.3; & endwipe
G1 X94.540 Y78.969 F7800.000
;G1 F900 ; replaced by represure
G1 X94.54 Y78.969 E0.326823963167 F600; tipRepresure
;G1 X93.571 Y78.502 E0.03374 ; replaced by coast
G1 X93.571 Y78.502 Z0.24 E-0.0537831293251; coast(1.0756625865) & retract
G1 X93.571 Y78.502 Z0.24 E-0.3; & endwipe
;G1 F900 ; replaced by represure
G1 X93.571 Y78.502 E0.353783129325 F600; tipRepresure
G1 X93.519 Y78.472 E0.00226
;G1 X93.308 Y78.244 E0.01159 ; replaced by coast
G1 X93.308 Y78.244 Z0.24 E-0.015532626951; coast(0.310652539021) & retract
G1 X93.308 Y78.244 Z0.24 E-0.3; & endwipe
G1 X92.729 Y77.366 F7800.000
