; generated by Slic3r 1.33.3-prusa3d-win64 on 2017-05-20 at 11:38:22

; external perimeters extrusion width = 0.40mm
; perimeters extrusion width = 0.48mm
; infill extrusion width = 0.48mm
; solid infill extrusion width = 0.48mm
; top infill extrusion width = 0.48mm

M104 S185 ; set temperature
G28 ; home all axes
G1 Z5 F5000 ; lift nozzle

M109 S185 ; set temperature and wait for it to be reached
G21 ; set units to millimeters
G90 ; use absolute coordinates
M83 ; use relative distances for extrusion
G1 Z0.240 F7800.000
G1 X71.580 Y61.025 F7800.000
G1 F1800
G1 X72.097 Y60.478 E0.03220
G1 X72.668 Y59.987 E0.03220
G1 X73.293 Y59.554 E0.03249
G1 X73.953 Y59.191 E0.03220
G1 X74.647 Y58.899 E0.03220
G1 X75.368 Y58.680 E0.03220
G1 X76.107 Y58.536 E0.03220
G1 X76.864 Y58.469 E0.03249
G1 X85.315 Y58.468 E0.36132
G1 X109.968 Y59.237 E1.05457
G1 X110.427 Y59.266 E0.01967
G1 X110.884 Y59.324 E0.01967
G1 X112.127 Y59.580 E0.05429
G1 X112.610 Y59.711 E0.02138
G1 X113.082 Y59.875 E0.02138
G1 X114.366 Y60.444 E0.06003
G1 X115.090 Y60.857 E0.03562
G1 X115.999 Y61.505 E0.04775
G1 X116.570 Y61.965 E0.03135
G1 X117.091 Y62.480 E0.03135
G1 X117.901 Y63.398 E0.05234
G1 X118.180 Y63.772 E0.01995
G1 X118.439 Y64.169 E0.02024
G1 X119.014 Y65.173 E0.04949
G1 X119.336 Y65.869 E0.03277
G1 X119.781 Y67.193 E0.05972
G1 X119.973 Y68.004 E0.03562
G1 X120.133 Y69.364 E0.05858
G1 X120.159 Y70.137 E0.03306
G1 X120.133 Y70.630 E0.02109
G1 X120.033 Y71.589 E0.04123
G1 X119.890 Y72.396 E0.03505
G1 X119.749 Y72.910 E0.02280
G1 X119.389 Y73.996 E0.04890
G1 X119.160 Y74.536 E0.02508
G1 X118.885 Y75.062 E0.02537
G1 X118.382 Y75.922 E0.04262
G1 X117.999 Y76.476 E0.02879
G1 X117.625 Y76.928 E0.02508
G1 X117.046 Y77.569 E0.03695
G1 X116.721 Y77.896 E0.01967
G1 X116.196 Y78.347 E0.02964
G1 X115.315 Y78.991 E0.04664
G1 X114.845 Y79.295 E0.02394
G1 X114.347 Y79.566 E0.02423
G1 X113.310 Y80.032 E0.04860
G1 X112.768 Y80.238 E0.02480
G1 X112.172 Y80.409 E0.02651
G1 X111.184 Y80.622 E0.04323
G1 X110.598 Y80.716 E0.02537
G1 X109.999 Y80.762 E0.02565
G1 X85.280 Y81.534 E1.05739
G1 X76.985 Y81.534 E0.35468
G1 X76.220 Y81.479 E0.03277
G1 X75.466 Y81.344 E0.03277
G1 X74.964 Y81.208 E0.02223
G1 X74.467 Y81.033 E0.02252
G1 X73.984 Y80.824 E0.02252
G1 X73.523 Y80.583 E0.02223
G1 X73.081 Y80.310 E0.02223
G1 X72.653 Y80.002 E0.02252
G1 X72.254 Y79.668 E0.02223
G1 X71.876 Y79.302 E0.02252
G1 X71.524 Y78.910 E0.02252
G1 X71.206 Y78.498 E0.02223
G1 X70.918 Y78.065 E0.02223
G1 X70.659 Y77.607 E0.02252
G1 X70.436 Y77.137 E0.02223
G1 X70.245 Y76.646 E0.02252
G1 X70.091 Y76.149 E0.02223
G1 X69.973 Y75.636 E0.02252
G1 X69.876 Y74.977 E0.02850
G1 X69.840 Y74.311 E0.02850
G1 X69.840 Y65.717 E0.36746
G1 X69.881 Y64.971 E0.03192
G1 X69.958 Y64.443 E0.02280
G1 X70.074 Y63.916 E0.02309
G1 X70.227 Y63.405 E0.02280
G1 X70.420 Y62.901 E0.02309
G1 X70.649 Y62.412 E0.02309
G1 X70.914 Y61.941 E0.02309
G1 X71.210 Y61.497 E0.02280
G1 X71.541 Y61.071 E0.02309
G1 X71.856 Y61.362 F7800.000
G1 F1800
G1 X72.343 Y60.835 E0.03069
G1 X72.888 Y60.358 E0.03096
G1 X73.475 Y59.945 E0.03069
G1 X74.108 Y59.593 E0.03096
G1 X74.768 Y59.311 E0.03069
G1 X75.460 Y59.098 E0.03096
G1 X76.165 Y58.961 E0.03069
G1 X76.886 Y58.897 E0.03096
G1 X85.360 Y58.898 E0.36232
G1 X110.019 Y59.668 E1.05482
G1 X110.836 Y59.750 E0.03511
G1 X111.983 Y59.986 E0.05006
G1 X112.421 Y60.102 E0.01936
G1 X112.850 Y60.246 E0.01936
G1 X113.944 Y60.718 E0.05092
G1 X114.554 Y61.031 E0.02931
G1 X115.135 Y61.406 E0.02958
G1 X116.009 Y62.052 E0.04647
G1 X116.595 Y62.580 E0.03373
G1 X117.513 Y63.600 E0.05867
G1 X117.796 Y63.970 E0.01991
G1 X118.056 Y64.364 E0.02019
G1 X118.627 Y65.358 E0.04900
G1 X118.930 Y66.008 E0.03069
G1 X119.364 Y67.295 E0.05808
G1 X119.546 Y68.050 E0.03317
G1 X119.607 Y68.459 E0.01770
G1 X119.704 Y69.380 E0.03957
G1 X119.731 Y70.103 E0.03096
G1 X119.707 Y70.588 E0.02074
G1 X119.610 Y71.515 E0.03987
G1 X119.483 Y72.255 E0.03207
G1 X119.347 Y72.761 E0.02240
G1 X118.996 Y73.823 E0.04786
G1 X118.780 Y74.336 E0.02378
G1 X118.520 Y74.835 E0.02406
G1 X118.025 Y75.685 E0.04205
G1 X117.662 Y76.212 E0.02737
G1 X117.307 Y76.640 E0.02378
G1 X116.734 Y77.275 E0.03655
G1 X116.429 Y77.583 E0.01853
G1 X115.928 Y78.012 E0.02820
G1 X115.066 Y78.643 E0.04568
G1 X114.615 Y78.934 E0.02295
G1 X114.142 Y79.189 E0.02295
G1 X113.139 Y79.639 E0.04703
G1 X112.619 Y79.836 E0.02378
G1 X112.059 Y79.996 E0.02489
G1 X111.071 Y80.208 E0.04319
G1 X110.528 Y80.292 E0.02350
G1 X109.980 Y80.334 E0.02350
G1 X85.276 Y81.105 E1.05675
G1 X77.009 Y81.106 E0.35347
G1 X76.305 Y81.058 E0.03014
G1 X75.605 Y80.936 E0.03041
G1 X75.129 Y80.810 E0.02102
G1 X74.659 Y80.648 E0.02129
G1 X74.206 Y80.455 E0.02102
G1 X73.764 Y80.227 E0.02129
G1 X73.344 Y79.971 E0.02102
G1 X72.939 Y79.681 E0.02129
G1 X72.561 Y79.367 E0.02102
G1 X72.201 Y79.022 E0.02129
G1 X71.872 Y78.657 E0.02102
G1 X71.566 Y78.265 E0.02129
G1 X71.293 Y77.856 E0.02102
G1 X71.046 Y77.423 E0.02129
G1 X70.832 Y76.974 E0.02129
G1 X70.653 Y76.516 E0.02102
G1 X70.506 Y76.040 E0.02129
G1 X70.393 Y75.555 E0.02129
G1 X70.302 Y74.934 E0.02682
G1 X70.268 Y74.308 E0.02682
G1 X70.268 Y65.724 E0.36700
G1 X70.302 Y65.065 E0.02820
G1 X70.371 Y64.566 E0.02157
G1 X70.475 Y64.079 E0.02129
G1 X70.614 Y63.600 E0.02129
G1 X70.789 Y63.127 E0.02157
G1 X70.996 Y62.674 E0.02129
G1 X71.239 Y62.232 E0.02157
G1 X71.514 Y61.809 E0.02157
G1 X71.818 Y61.408 E0.02149
G1 X72.147 Y61.683 F7800.000
G1 F1800
G1 X72.606 Y61.178 E0.02918
G1 X73.121 Y60.721 E0.02945
G1 X73.682 Y60.321 E0.02945
G1 X74.277 Y59.987 E0.02918
G1 X74.904 Y59.717 E0.02918
G1 X75.562 Y59.514 E0.02945
G1 X76.232 Y59.384 E0.02918
G1 X76.918 Y59.325 E0.02945
G1 X85.342 Y59.326 E0.36018
G1 X109.998 Y60.096 E1.05467
G1 X110.770 Y60.174 E0.03319
G1 X111.854 Y60.397 E0.04733
G1 X112.279 Y60.506 E0.01874
G1 X112.695 Y60.645 E0.01874
G1 X113.746 Y61.099 E0.04895
G1 X114.321 Y61.391 E0.02757
G1 X114.868 Y61.743 E0.02784
G1 X115.730 Y62.377 E0.04571
G1 X116.275 Y62.866 E0.03132
G1 X117.168 Y63.855 E0.05698
G1 X117.435 Y64.202 E0.01874
G1 X117.681 Y64.573 E0.01901
G1 X118.240 Y65.543 E0.04788
G1 X118.525 Y66.149 E0.02864
G1 X118.948 Y67.399 E0.05642
G1 X119.120 Y68.105 E0.03105
G1 X119.181 Y68.507 E0.01741
G1 X119.276 Y69.403 E0.03849
G1 X119.303 Y70.072 E0.02864
G1 X119.281 Y70.541 E0.02008
G1 X119.187 Y71.443 E0.03878
G1 X119.074 Y72.123 E0.02945
G1 X118.942 Y72.619 E0.02196
G1 X118.604 Y73.647 E0.04625
G1 X118.400 Y74.138 E0.02276
G1 X118.155 Y74.611 E0.02276
G1 X117.668 Y75.448 E0.04143
G1 X117.327 Y75.944 E0.02570
G1 X116.988 Y76.354 E0.02276
G1 X116.422 Y76.981 E0.03610
G1 X116.136 Y77.270 E0.01741
G1 X115.661 Y77.678 E0.02677
G1 X114.817 Y78.294 E0.04467
G1 X114.390 Y78.569 E0.02169
G1 X113.944 Y78.809 E0.02169
G1 X112.968 Y79.246 E0.04571
G1 X112.470 Y79.434 E0.02276
G1 X111.946 Y79.582 E0.02329
G1 X110.967 Y79.791 E0.04280
G1 X110.472 Y79.868 E0.02142
G1 X109.966 Y79.905 E0.02169
G1 X85.265 Y80.677 E1.05662
G1 X77.025 Y80.678 E0.35231
G1 X76.381 Y80.635 E0.02757
G1 X75.739 Y80.527 E0.02784
G1 X75.290 Y80.411 E0.01981
G1 X74.846 Y80.261 E0.02008
G1 X74.418 Y80.081 E0.01981
G1 X74.000 Y79.868 E0.02008
G1 X73.603 Y79.628 E0.01981
G1 X73.220 Y79.357 E0.02008
G1 X72.862 Y79.062 E0.01981
G1 X72.522 Y78.738 E0.02008
G1 X72.211 Y78.395 E0.01981
G1 X71.921 Y78.025 E0.02008
G1 X71.663 Y77.640 E0.01981
G1 X71.430 Y77.232 E0.02008
G1 X71.230 Y76.814 E0.01981
G1 X71.059 Y76.377 E0.02008
G1 X70.919 Y75.928 E0.02008
G1 X70.813 Y75.471 E0.02008
G1 X70.729 Y74.895 E0.02490
G1 X70.697 Y74.307 E0.02517
G1 X70.697 Y65.731 E0.36665
G1 X70.725 Y65.150 E0.02490
G1 X70.784 Y64.690 E0.01981
G1 X70.879 Y64.230 E0.02008
G1 X71.006 Y63.778 E0.02008
G1 X71.167 Y63.336 E0.02008
G1 X71.356 Y62.913 E0.01981
G1 X71.579 Y62.500 E0.02008
G1 X71.831 Y62.103 E0.02008
G1 X72.109 Y61.730 E0.01993
G1 X107.250 Y69.476 F7800.000
G1 F300
G1 X107.737 Y68.549 E0.04479
G1 X108.599 Y67.954 E0.04479
G1 X109.604 Y67.832 E0.04329
G1 X110.614 Y68.194 E0.04588
G1 X111.313 Y68.983 E0.04506
G1 X111.559 Y69.980 E0.04390
G1 X111.381 Y70.940 E0.04174
G1 X110.618 Y71.801 E0.04920
G1 X109.639 Y72.173 E0.04479
G1 X108.599 Y72.046 E0.04478
G1 X107.737 Y71.451 E0.04479
G1 X107.250 Y70.524 E0.04479
G1 X107.250 Y69.536 E0.04222
G1 X107.679 Y69.582 F7800.000
G1 F300
G1 X108.067 Y68.841 E0.03575
G1 X108.755 Y68.366 E0.03576
G1 X109.555 Y68.269 E0.03443
G1 X110.366 Y68.560 E0.03685
G1 X110.922 Y69.188 E0.03585
G1 X111.120 Y69.993 E0.03543
G1 X110.982 Y70.745 E0.03270
G1 X110.368 Y71.438 E0.03959
G1 X109.586 Y71.734 E0.03575
G1 X108.755 Y71.634 E0.03575
G1 X108.067 Y71.159 E0.03576
G1 X107.679 Y70.418 E0.03575
G1 X107.679 Y69.642 E0.03319
G1 X107.390 Y69.305 F7800.000
G1 X92.722 Y71.597 F7800.000
G1 F600
G1 X92.722 Y68.403 E0.13656
G1 X87.282 Y68.403 E0.23261
G1 X87.028 Y67.935 E0.02276
G1 X86.214 Y67.185 E0.04732
G1 X85.982 Y67.084 E0.01082
G1 X86.029 Y66.877 E0.00907
G1 X108.096 Y67.565 E0.94395
G1 X108.149 Y67.744 E0.00796
G1 X107.406 Y68.256 E0.03855
G1 X106.822 Y69.371 E0.05382
G1 X106.822 Y70.629 E0.05381
G1 X107.406 Y71.744 E0.05382
G1 X108.149 Y72.256 E0.03856
G1 X108.096 Y72.435 E0.00796
G1 X86.026 Y73.125 E0.94408
G1 X85.979 Y72.918 E0.00907
G1 X86.214 Y72.815 E0.01096
G1 X87.028 Y72.065 E0.04732
G1 X87.282 Y71.597 E0.02276
G1 X92.662 Y71.597 E0.23004
G1 X82.855 Y67.032 F7800.000
G1 F300
G1 X82.098 Y67.526 E0.03865
G1 X81.416 Y68.403 E0.04750
G1 X78.222 Y68.403 E0.13654
G1 X78.222 Y66.847 E0.06652
G1 X82.800 Y66.848 E0.19574
G1 X82.838 Y66.974 E0.00563
G1 X81.416 Y71.597 F7800.000
G1 F300
G1 X82.098 Y72.474 E0.04750
G1 X82.857 Y72.969 E0.03875
G1 X82.802 Y73.153 E0.00820
G1 X78.222 Y73.153 E0.19581
G1 X78.222 Y71.597 E0.06653
G1 X81.356 Y71.597 E0.13398
G1 X92.293 Y71.168 F7800.000
G1 F600
G1 X92.293 Y68.832 E0.09992
G1 X87.026 Y68.832 E0.22521
G1 X86.685 Y68.202 E0.03062
G1 X85.976 Y67.549 E0.04121
G1 X85.094 Y67.162 E0.04121
G1 X84.133 Y67.082 E0.04121
G1 X83.199 Y67.319 E0.04121
G1 X82.392 Y67.846 E0.04121
G1 X81.800 Y68.607 E0.04121
G1 X81.723 Y68.832 E0.01017
G1 X77.793 Y68.832 E0.16800
G1 X77.793 Y66.419 E0.10316
G1 X85.136 Y66.420 E0.31393
G1 X109.660 Y67.185 E1.04905
G1 X110.249 Y67.311 E0.02573
G1 X110.789 Y67.551 E0.02527
G1 X111.267 Y67.899 E0.02528
G1 X111.663 Y68.338 E0.02527
G1 X111.958 Y68.850 E0.02527
G1 X112.141 Y69.412 E0.02528
G1 X112.203 Y70.000 E0.02528
G1 X112.141 Y70.588 E0.02528
G1 X111.958 Y71.150 E0.02528
G1 X111.663 Y71.662 E0.02527
G1 X111.267 Y72.101 E0.02527
G1 X110.789 Y72.449 E0.02528
G1 X110.249 Y72.689 E0.02527
G1 X109.660 Y72.815 E0.02573
G1 X85.122 Y73.582 E1.04964
G1 X77.793 Y73.582 E0.31335
G1 X77.793 Y71.168 E0.10317
G1 X81.723 Y71.168 E0.16800
G1 X81.800 Y71.393 E0.01017
G1 X82.392 Y72.154 E0.04121
G1 X83.199 Y72.681 E0.04121
G1 X84.133 Y72.918 E0.04121
G1 X85.094 Y72.838 E0.04121
G1 X85.976 Y72.451 E0.04121
G1 X86.685 Y71.798 E0.04121
G1 X87.026 Y71.168 E0.03062
G1 X92.233 Y71.168 E0.22264
G1 X91.865 Y70.740 F7800.000
G1 F600
G1 X91.865 Y69.260 E0.06328
G1 X86.771 Y69.260 E0.21780
G1 X86.343 Y68.469 E0.03848
G1 X85.739 Y67.913 E0.03509
G1 X84.987 Y67.583 E0.03509
G1 X84.169 Y67.515 E0.03509
G1 X83.373 Y67.717 E0.03509
G1 X82.686 Y68.166 E0.03509
G1 X82.182 Y68.813 E0.03509
G1 X82.029 Y69.260 E0.02019
G1 X77.365 Y69.260 E0.19940
G1 X77.365 Y65.990 E0.13981
G1 X85.143 Y65.992 E0.33254
G1 X109.712 Y66.758 E1.05098
G1 X110.382 Y66.901 E0.02929
G1 X111.004 Y67.178 E0.02913
G1 X111.556 Y67.578 E0.02913
G1 X112.011 Y68.085 E0.02913
G1 X112.352 Y68.675 E0.02913
G1 X112.562 Y69.322 E0.02913
G1 X112.634 Y70.000 E0.02913
G1 X112.562 Y70.678 E0.02913
G1 X112.352 Y71.325 E0.02913
G1 X112.011 Y71.915 E0.02913
G1 X111.556 Y72.422 E0.02913
G1 X111.004 Y72.822 E0.02913
G1 X110.382 Y73.099 E0.02913
G1 X109.712 Y73.242 E0.02929
G1 X85.129 Y74.010 E1.05156
G1 X77.365 Y74.010 E0.33196
G1 X77.365 Y70.740 E0.13981
G1 X82.029 Y70.740 E0.19940
G1 X82.182 Y71.187 E0.02019
G1 X82.686 Y71.834 E0.03509
G1 X83.373 Y72.283 E0.03509
G1 X84.169 Y72.485 E0.03509
G1 X84.987 Y72.417 E0.03509
G1 X85.739 Y72.087 E0.03509
G1 X86.343 Y71.531 E0.03509
G1 X86.771 Y70.740 E0.03848
G1 X91.805 Y70.740 E0.21524
G1 X92.265 Y70.721 F7800.000
G1 X92.754 Y68.274 F7800.000
G1 F600
G1 X91.859 Y67.380 E0.05468
G1 X91.227 Y67.360 E0.02736
G1 X91.948 Y68.082 E0.04409
G1 X91.335 Y68.082 E0.02649
G1 X90.594 Y67.341 E0.04530
G1 X89.962 Y67.321 E0.02736
G1 X90.722 Y68.082 E0.04651
G1 X90.110 Y68.082 E0.02649
G1 X89.329 Y67.301 E0.04772
G1 X88.697 Y67.282 E0.02736
G1 X89.497 Y68.082 E0.04892
G1 X88.884 Y68.082 E0.02649
G1 X88.064 Y67.262 E0.05013
G1 X87.432 Y67.242 E0.02736
G1 X88.271 Y68.082 E0.05134
G1 X87.659 Y68.082 E0.02649
G1 X86.600 Y67.023 E0.06472
G1 X87.027 Y72.965 F7800.000
G1 F600
G1 X86.786 Y72.724 E0.01469
G1 X87.106 Y72.431 E0.01875
G1 X87.434 Y72.759 E0.02008
G1 X88.028 Y72.740 E0.02570
G1 X87.379 Y72.092 E0.03967
G1 X87.473 Y71.918 E0.00852
G1 X87.819 Y71.918 E0.01495
G1 X88.622 Y72.722 E0.04913
G1 X89.216 Y72.703 E0.02570
G1 X88.431 Y71.918 E0.04800
G1 X89.044 Y71.918 E0.02649
G1 X89.811 Y72.685 E0.04686
G1 X90.405 Y72.666 E0.02570
G1 X89.657 Y71.918 E0.04572
G1 X90.270 Y71.918 E0.02649
G1 X90.999 Y72.648 E0.04459
G1 X91.593 Y72.629 E0.02570
G1 X90.883 Y71.918 E0.04345
G1 X91.495 Y71.918 E0.02649
G1 X92.187 Y72.610 E0.04232
G1 X92.782 Y72.592 E0.02570
G1 X92.108 Y71.918 E0.04118
G1 X92.721 Y71.918 E0.02649
G1 X93.376 Y72.573 E0.04005
G1 X93.970 Y72.555 E0.02570
G1 X93.043 Y71.628 E0.05666
G1 X93.043 Y71.015 E0.02649
G1 X94.564 Y72.536 E0.09299
G1 X95.158 Y72.518 E0.02570
G1 X93.043 Y70.403 E0.12932
G1 X93.043 Y69.790 E0.02649
G1 X95.753 Y72.499 E0.16565
G1 X96.347 Y72.480 E0.02570
G1 X93.043 Y69.177 E0.20198
G1 X93.043 Y68.564 E0.02649
G1 X96.941 Y72.462 E0.23831
G1 X97.535 Y72.443 E0.02570
G1 X92.492 Y67.400 E0.30836
G1 X93.124 Y67.420 E0.02736
G1 X98.129 Y72.425 E0.30602
G1 X98.724 Y72.406 E0.02570
G1 X93.757 Y67.439 E0.30368
G1 X94.389 Y67.459 E0.02736
G1 X99.318 Y72.388 E0.30134
G1 X99.912 Y72.369 E0.02570
G1 X95.022 Y67.479 E0.29899
G1 X95.654 Y67.499 E0.02736
G1 X100.506 Y72.350 E0.29665
G1 X101.100 Y72.332 E0.02570
G1 X96.287 Y67.518 E0.29431
G1 X96.919 Y67.538 E0.02736
G1 X101.695 Y72.313 E0.29197
G1 X102.289 Y72.295 E0.02570
G1 X97.552 Y67.558 E0.28962
G1 X98.184 Y67.578 E0.02736
G1 X102.883 Y72.276 E0.28728
G1 X103.477 Y72.258 E0.02570
G1 X98.817 Y67.597 E0.28494
G1 X99.449 Y67.617 E0.02736
G1 X104.071 Y72.239 E0.28260
G1 X104.666 Y72.220 E0.02570
G1 X100.082 Y67.637 E0.28025
G1 X100.714 Y67.657 E0.02736
G1 X105.260 Y72.202 E0.27791
G1 X105.854 Y72.183 E0.02570
G1 X101.347 Y67.676 E0.27557
G1 X101.979 Y67.696 E0.02736
G1 X106.448 Y72.165 E0.27323
G1 X107.042 Y72.146 E0.02570
G1 X102.612 Y67.716 E0.27088
G1 X103.244 Y67.735 E0.02736
G1 X106.812 Y71.304 E0.21816
G1 X106.500 Y70.709 E0.02905
G1 X106.500 Y70.379 E0.01427
G1 X103.877 Y67.755 E0.16039
G1 X104.509 Y67.775 E0.02736
G1 X106.500 Y69.766 E0.12172
G1 X106.500 Y69.291 E0.02050
G1 X106.548 Y69.201 E0.00444
G1 X105.142 Y67.795 E0.08596
G1 X105.774 Y67.814 E0.02736
G1 X106.759 Y68.799 E0.06018
G1 X106.970 Y68.397 E0.01962
G1 X106.407 Y67.834 E0.03441
G1 X107.039 Y67.854 E0.02736
G1 X107.335 Y68.149 E0.01806
G1 X108.388 Y67.798 F7800.000
G1 F900
G1 X108.463 Y67.652 E0.00336
G1 F900
G1 X108.516 Y67.555 E0.00316
G1 X109.341 Y67.518 E0.02371
G1 F900
G1 X109.664 Y67.513 E0.00664
G1 X110.139 Y67.648 E0.01012
G1 X110.621 Y67.842 E0.01065
G1 X110.770 Y67.921 E0.00346
G1 F900
G1 X110.923 Y68.051 E0.00281
G1 F900
G1 X111.382 Y68.542 E0.01376
G1 X111.580 Y68.816 E0.00694
G1 F900
G1 X111.654 Y68.985 E0.00263
G1 F900
G1 X111.797 Y69.485 E0.01140
G1 X111.878 Y69.949 E0.01031
G1 F900
G1 X111.806 Y70.517 E0.00907
G1 X111.677 Y71.025 E0.00830
G1 X111.514 Y71.276 E0.00474
G1 F900
G1 X111.382 Y71.458 E0.00470
G1 X111.037 Y71.845 E0.01084
G1 X110.815 Y72.046 E0.00625
G1 F900
G1 X110.621 Y72.158 E0.00317
G1 F900
G1 X110.140 Y72.356 E0.01131
G1 X109.701 Y72.485 E0.00997
G1 F900
G1 X109.621 Y72.494 E0.00121
G1 F900
G1 X109.069 Y72.469 E0.01131
G1 F900
G1 X108.516 Y72.445 E0.01595
G1 X108.425 Y72.275 E0.00554
G1 F900
G1 X108.388 Y72.202 E0.00168
G1 X85.794 Y73.068 F7800.000
