; generated by Slic3r 1.33.3-prusa3d-win64 on 2017-05-20 at 12:05:22

; external perimeters extrusion width = 0.40mm
; perimeters extrusion width = 0.48mm
; infill extrusion width = 0.48mm
; solid infill extrusion width = 0.48mm
; top infill extrusion width = 0.48mm

M104 S185 ; set temperature
G28 ; home all axes
G1 Z5 F5000 ; lift nozzle

M109 S185 ; set temperature and wait for it to be reached
G21 ; set units to millimeters
G90 ; use absolute coordinates
M83 ; use relative distances for extrusion
G1 Z0.240 F7800.000
G1 X73.410 Y42.771 F7800.000
;G1 F1800 ; replaced by represure
G1 X73.41 Y42.771 E0.5 F600; long travel extraShot
G1 X80.673 Y36.055 E0.42296
G1 X81.107 Y35.701 E0.02394
G1 X82.218 Y34.893 E0.05872
G1 X82.797 Y34.513 E0.02964
G1 X83.404 Y34.192 E0.02936
G1 X84.842 Y33.553 E0.06729
G1 X85.411 Y33.343 E0.02594
G1 X85.996 Y33.181 E0.02594
G1 X87.502 Y32.861 E0.06582
G1 X88.162 Y32.766 E0.02850
G1 X88.821 Y32.731 E0.02822
G1 X90.393 Y32.749 E0.06724
G1 X90.992 Y32.790 E0.02565
G1 X91.592 Y32.881 E0.02594
G1 X93.064 Y33.195 E0.06437
G1 X93.792 Y33.412 E0.03249
G1 X114.276 Y41.248 E0.93770
G1 X114.768 Y41.472 E0.02309
G1 X115.241 Y41.732 E0.02309
G1 X115.694 Y42.026 E0.02309
G1 X116.124 Y42.353 E0.02309
G1 X116.523 Y42.707 E0.02280
G1 X116.900 Y43.093 E0.02309
G1 X117.248 Y43.507 E0.02309
G1 X117.563 Y43.945 E0.02309
G1 X117.833 Y44.382 E0.02195
G1 X118.071 Y44.837 E0.02195
G1 X118.276 Y45.307 E0.02195
G1 X118.450 Y45.797 E0.02223
G1 X118.586 Y46.292 E0.02195
G1 X118.688 Y46.795 E0.02195
G1 X118.754 Y47.304 E0.02195
G1 X118.784 Y47.824 E0.02223
G1 X118.782 Y100.224 E2.24039
G1 X118.754 Y100.656 E0.01853
G1 X118.702 Y101.086 E0.01853
G1 X118.625 Y101.506 E0.01824
G1 X118.522 Y101.927 E0.01853
G1 X118.396 Y102.335 E0.01824
G1 X118.244 Y102.740 E0.01853
G1 X118.068 Y103.137 E0.01853
G1 X117.869 Y103.522 E0.01853
G1 X117.647 Y103.894 E0.01853
G1 X117.404 Y104.253 E0.01853
G1 X117.139 Y104.596 E0.01853
G1 X116.855 Y104.923 E0.01853
G1 X116.552 Y105.233 E0.01853
G1 X116.231 Y105.524 E0.01853
G1 X115.893 Y105.795 E0.01853
G1 X115.545 Y106.043 E0.01824
G1 X115.114 Y106.309 E0.02166
G1 X114.666 Y106.545 E0.02166
G1 X114.202 Y106.749 E0.02166
G1 X113.726 Y106.921 E0.02166
G1 X113.238 Y107.059 E0.02166
G1 X112.742 Y107.162 E0.02166
G1 X112.240 Y107.231 E0.02166
G1 X111.734 Y107.265 E0.02166
G1 X78.160 Y107.261 E1.43549
G1 X77.312 Y107.171 E0.03647
G1 X76.486 Y106.985 E0.03619
G1 X75.681 Y106.702 E0.03647
G1 X74.915 Y106.326 E0.03647
G1 X74.199 Y105.864 E0.03647
G1 X73.541 Y105.321 E0.03647
G1 X72.955 Y104.709 E0.03619
G1 X72.441 Y104.029 E0.03647
G1 X72.171 Y103.592 E0.02195
G1 X71.933 Y103.138 E0.02195
G1 X71.727 Y102.667 E0.02195
G1 X71.553 Y102.177 E0.02223
G1 X71.415 Y101.683 E0.02195
G1 X71.312 Y101.173 E0.02223
G1 X71.246 Y100.664 E0.02195
G1 X71.216 Y100.145 E0.02223
G1 X71.215 Y47.870 E2.23502
G1 X71.260 Y47.172 E0.02992
G1 X71.373 Y46.474 E0.03021
G1 X71.552 Y45.791 E0.03021
G1 X71.797 Y45.128 E0.03021
G1 X72.102 Y44.498 E0.02992
G1 X72.470 Y43.895 E0.03021
G1 X72.894 Y43.330 E0.03021
;G1 X73.367 Y42.813 E0.02993 ; replaced by coast
G1 X73.367 Y42.813 Z0.24 E-0.035036338279; coast(0.70072676558) & retract
G1 X73.367 Y42.813 Z0.24 E-0.3; & endwipe
G1 X73.704 Y43.082 F7800.000
;G1 F1800 ; replaced by represure
G1 X73.704 Y43.082 E0.335036338279 F600; tipRepresure
G1 X80.950 Y36.382 E0.42196
G1 X81.449 Y35.981 E0.02737
G1 X82.554 Y35.180 E0.05833
G1 X82.999 Y34.892 E0.02268
G1 X83.582 Y34.582 E0.02820
G1 X85.000 Y33.951 E0.06637
G1 X85.540 Y33.752 E0.02461
G1 X86.094 Y33.598 E0.02461
G1 X87.574 Y33.284 E0.06467
G1 X88.201 Y33.192 E0.02710
G1 X88.821 Y33.160 E0.02654
G1 X90.372 Y33.177 E0.06632
G1 X90.946 Y33.216 E0.02461
G1 X91.515 Y33.302 E0.02461
G1 X92.963 Y33.612 E0.06328
G1 X93.657 Y33.818 E0.03096
G1 X114.100 Y41.639 E0.93584
G1 X114.565 Y41.850 E0.02185
G1 X115.014 Y42.095 E0.02185
G1 X115.442 Y42.373 E0.02185
G1 X115.849 Y42.682 E0.02185
G1 X116.227 Y43.016 E0.02157
G1 X116.584 Y43.382 E0.02185
G1 X116.912 Y43.774 E0.02185
G1 X117.211 Y44.188 E0.02185
G1 X117.465 Y44.602 E0.02074
G1 X117.689 Y45.032 E0.02074
G1 X117.882 Y45.477 E0.02074
G1 X118.044 Y45.934 E0.02074
G1 X118.172 Y46.402 E0.02074
G1 X118.267 Y46.878 E0.02074
G1 X118.328 Y47.359 E0.02074
G1 X118.356 Y47.843 E0.02074
G1 X118.354 Y100.197 E2.23841
G1 X118.280 Y101.008 E0.03483
G1 X118.111 Y101.805 E0.03483
G1 X117.848 Y102.576 E0.03483
G1 X117.492 Y103.316 E0.03511
G1 X117.055 Y104.004 E0.03483
G1 X116.539 Y104.634 E0.03483
G1 X115.952 Y105.199 E0.03483
G1 X115.297 Y105.694 E0.03511
G1 X114.889 Y105.945 E0.02046
G1 X114.471 Y106.164 E0.02019
G1 X114.032 Y106.356 E0.02046
G1 X113.582 Y106.517 E0.02046
G1 X113.127 Y106.645 E0.02019
G1 X112.658 Y106.742 E0.02046
G1 X112.184 Y106.806 E0.02046
G1 X111.713 Y106.837 E0.02019
G1 X78.190 Y106.834 E1.43331
G1 X77.392 Y106.750 E0.03428
G1 X76.610 Y106.575 E0.03428
G1 X75.853 Y106.309 E0.03428
G1 X75.128 Y105.954 E0.03455
G1 X74.454 Y105.519 E0.03428
G1 X73.830 Y105.005 E0.03455
G1 X73.272 Y104.421 E0.03455
G1 X72.790 Y103.780 E0.03428
G1 X72.536 Y103.367 E0.02074
G1 X72.312 Y102.937 E0.02074
G1 X72.118 Y102.492 E0.02074
G1 X71.957 Y102.034 E0.02074
G1 X71.828 Y101.567 E0.02074
G1 X71.733 Y101.091 E0.02074
G1 X71.672 Y100.610 E0.02074
G1 X71.644 Y100.125 E0.02074
G1 X71.644 Y47.887 E2.23350
G1 X71.685 Y47.228 E0.02820
G1 X71.790 Y46.571 E0.02848
G1 X71.957 Y45.932 E0.02820
G1 X72.187 Y45.307 E0.02848
G1 X72.473 Y44.713 E0.02820
G1 X72.819 Y44.144 E0.02848
G1 X73.214 Y43.616 E0.02820
;G1 X73.662 Y43.125 E0.02840 ; replaced by coast
G1 X73.662 Y43.125 Z0.24 E-0.03323345453; coast(0.664669090601) & retract
G1 X73.662 Y43.125 Z0.24 E-0.3; & endwipe
G1 X73.994 Y43.398 F7800.000
;G1 F1800 ; replaced by represure
G1 X73.994 Y43.398 E0.33323345453 F600; tipRepresure
G1 X81.228 Y36.708 E0.42128
G1 X81.696 Y36.331 E0.02570
G1 X82.793 Y35.536 E0.05793
G1 X83.197 Y35.272 E0.02062
G1 X83.760 Y34.972 E0.02731
G1 X85.158 Y34.350 E0.06542
G1 X85.663 Y34.162 E0.02303
G1 X86.188 Y34.016 E0.02329
G1 X87.653 Y33.705 E0.06404
G1 X88.242 Y33.619 E0.02543
G1 X88.829 Y33.588 E0.02517
G1 X90.358 Y33.606 E0.06536
G1 X90.895 Y33.641 E0.02303
G1 X91.434 Y33.723 E0.02329
G1 X92.856 Y34.027 E0.06216
G1 X93.516 Y34.223 E0.02945
G1 X113.931 Y42.032 E0.93453
G1 X114.364 Y42.228 E0.02035
G1 X114.788 Y42.459 E0.02062
G1 X115.187 Y42.718 E0.02035
G1 X115.572 Y43.009 E0.02062
G1 X115.929 Y43.324 E0.02035
G1 X116.265 Y43.669 E0.02062
G1 X116.575 Y44.038 E0.02062
G1 X116.857 Y44.430 E0.02062
G1 X117.093 Y44.814 E0.01928
G1 X117.304 Y45.220 E0.01955
G1 X117.483 Y45.633 E0.01928
G1 X117.635 Y46.064 E0.01955
G1 X117.755 Y46.499 E0.01928
G1 X117.844 Y46.948 E0.01955
G1 X117.902 Y47.401 E0.01955
G1 X117.927 Y47.858 E0.01955
G1 X117.926 Y100.171 E2.23671
G1 X117.858 Y100.932 E0.03265
G1 X117.699 Y101.686 E0.03292
G1 X117.453 Y102.409 E0.03265
G1 X117.121 Y103.103 E0.03292
G1 X116.711 Y103.748 E0.03265
G1 X116.224 Y104.344 E0.03292
G1 X115.673 Y104.873 E0.03265
G1 X115.059 Y105.337 E0.03292
G1 X114.680 Y105.570 E0.01901
G1 X114.281 Y105.780 E0.01928
G1 X113.873 Y105.958 E0.01901
G1 X113.449 Y106.110 E0.01928
G1 X113.014 Y106.231 E0.01928
G1 X112.579 Y106.321 E0.01901
G1 X112.132 Y106.381 E0.01928
G1 X111.688 Y106.409 E0.01901
G1 X78.224 Y106.406 E1.43076
G1 X77.477 Y106.330 E0.03212
G1 X76.738 Y106.166 E0.03239
G1 X76.023 Y105.916 E0.03239
G1 X75.342 Y105.583 E0.03239
G1 X74.710 Y105.176 E0.03212
G1 X74.126 Y104.694 E0.03239
G1 X73.602 Y104.147 E0.03239
G1 X73.146 Y103.542 E0.03239
G1 X72.907 Y103.153 E0.01955
G1 X72.696 Y102.747 E0.01955
G1 X72.516 Y102.334 E0.01928
G1 X72.365 Y101.902 E0.01955
G1 X72.245 Y101.468 E0.01928
G1 X72.155 Y101.019 E0.01955
G1 X72.098 Y100.566 E0.01955
G1 X72.073 Y100.109 E0.01955
G1 X72.072 Y47.896 E2.23241
G1 X72.110 Y47.277 E0.02650
G1 X72.208 Y46.665 E0.02650
G1 X72.364 Y46.065 E0.02650
G1 X72.578 Y45.483 E0.02650
G1 X72.846 Y44.924 E0.02650
G1 X73.167 Y44.394 E0.02650
G1 X73.538 Y43.897 E0.02650
;G1 X73.952 Y43.441 E0.02635 ; replaced by coast
G1 X73.952 Y43.441 Z0.24 E-0.0307949671213; coast(0.615899342425) & retract
G1 X73.952 Y43.441 Z0.24 E-0.3; & endwipe
G1 X108.372 Y73.896 F7800.000
;G1 F300 ; replaced by represure
G1 X108.372 Y73.896 E0.330794967121 F600; tipRepresure
G1 X108.372 Y73.896 E0.5 F600; long travel extraShot
G1 X109.195 Y73.751 E0.03573
G1 X109.961 Y74.174 E0.03739
G1 X110.255 Y74.984 E0.03683
G1 X109.962 Y75.791 E0.03672
G1 X109.218 Y76.220 E0.03672
G1 X108.372 Y76.071 E0.03671
G1 X107.820 Y75.413 E0.03672
G1 X107.820 Y74.554 E0.03672
;G1 X108.334 Y73.942 E0.03415 ; replaced by coast
G1 X108.334 Y73.942 Z0.24 E-0.039960605601; coast(0.79921211202) & retract
G1 X108.334 Y73.942 Z0.24 E-0.3; & endwipe
G1 X108.372 Y73.496 F7800.000
G1 X107.916 Y76.861 F7800.000
;G1 F600 ; replaced by represure
G1 X107.916 Y76.861 E0.339960605601 F600; tipRepresure
G1 X109.376 Y77.118 E0.06339
G1 X110.403 Y76.525 E0.05069
G1 X110.403 Y98.887 E0.95607
G1 X107.597 Y98.887 E0.11997
G1 X107.597 Y76.480 E0.95800
;G1 X107.878 Y76.815 E0.01867 ; replaced by coast
G1 X107.878 Y76.815 Z0.24 E-0.0218624106631; coast(0.437248213261) & retract
G1 X107.878 Y76.815 Z0.24 E-0.3; & endwipe
G1 X108.144 Y76.466 F7800.000
;G1 F600 ; replaced by represure
G1 X108.144 Y76.466 E0.321862410663 F600; tipRepresure
G1 X109.297 Y76.669 E0.05005
G1 X110.311 Y76.084 E0.05005
G1 X110.619 Y75.237 E0.03851
G1 X110.832 Y75.275 E0.00922
G1 X110.832 Y99.315 E1.02786
G1 X107.168 Y99.315 E0.15661
G1 X107.168 Y75.303 E1.02666
;G1 X108.106 Y76.420 E0.06234 ; replaced by coast
G1 X108.106 Y76.42 Z0.24 E-0.0729303263396; coast(1.45860652679) & retract
G1 X108.106 Y76.42 Z0.24 E-0.3; & endwipe
G1 X109.345 Y72.855 F7800.000
;G1 F300 ; replaced by represure
G1 X109.345 Y72.855 E0.37293032634 F600; tipRepresure
G1 X107.916 Y73.107 E0.06201
G1 X107.597 Y73.487 E0.02124
G1 X107.597 Y59.480 E0.59888
G1 X107.916 Y59.861 E0.02124
G1 X109.376 Y60.118 E0.06339
G1 X110.403 Y59.525 E0.05069
G1 X110.403 Y73.439 E0.59491
;G1 X109.397 Y72.884 E0.04913 ; replaced by coast
G1 X109.397 Y72.884 Z0.24 E-0.0574469537922; coast(1.14893907584) & retract
G1 X109.397 Y72.884 Z0.24 E-0.3; & endwipe
G1 X110.308 Y73.877 F7800.000
;G1 F600 ; replaced by represure
G1 X110.308 Y73.877 E0.357446953792 F600; tipRepresure
G1 X109.270 Y73.303 E0.05073
G1 X108.144 Y73.501 E0.04887
G1 X107.168 Y74.664 E0.06491
G1 X107.168 Y58.303 E0.69955
G1 X108.144 Y59.466 E0.06491
G1 X109.297 Y59.669 E0.05005
G1 X110.311 Y59.084 E0.05005
G1 X110.619 Y58.237 E0.03851
G1 X110.832 Y58.275 E0.00922
G1 X110.832 Y74.692 E0.70195
G1 X110.619 Y74.730 E0.00922
;G1 X110.329 Y73.933 E0.03625 ; replaced by coast
G1 X110.329 Y73.933 Z0.24 E-0.0424060432014; coast(0.848120864028) & retract
G1 X110.329 Y73.933 Z0.24 E-0.3; & endwipe
G1 X109.218 Y59.220 F7800.000
;G1 F300 ; replaced by represure
G1 X109.218 Y59.22 E0.342406043201 F600; tipRepresure
G1 X108.372 Y59.071 E0.03671
G1 X107.820 Y58.413 E0.03672
G1 X107.820 Y57.554 E0.03672
G1 X108.372 Y56.896 E0.03672
G1 X109.218 Y56.747 E0.03671
G1 X109.962 Y57.177 E0.03672
G1 X110.255 Y57.984 E0.03672
G1 X109.962 Y58.791 E0.03672
;G1 X109.270 Y59.190 E0.03415 ; replaced by coast
G1 X109.27 Y59.19 Z0.24 E-0.0399394854749; coast(0.798789709498) & retract
G1 X109.27 Y59.19 Z0.24 E-0.3; & endwipe
G1 X109.081 Y59.596 F7800.000
G1 X109.358 Y60.016 F7800.000
G1 X91.740 Y47.159 F7800.000
G1 X91.829 Y47.206 F7800.000
;G1 F300 ; replaced by represure
G1 X91.829 Y47.206 E0.339939485475 F600; tipRepresure
G1 X91.829 Y47.206 E0.5 F600; long travel extraShot
G1 X90.994 Y48.148 E0.05382
G1 X89.817 Y48.594 E0.05382
G1 X88.567 Y48.442 E0.05382
G1 X87.532 Y47.727 E0.05381
G1 X86.947 Y46.613 E0.05382
G1 X86.947 Y45.354 E0.05382
G1 X87.532 Y44.240 E0.05382
G1 X88.567 Y43.525 E0.05381
G1 X89.759 Y43.380 E0.05132
G1 X90.984 Y43.808 E0.05547
G1 X91.823 Y44.755 E0.05414
G1 X92.137 Y45.956 E0.05304
;G1 X91.843 Y47.147 E0.05247 ; replaced by coast
G1 X91.843 Y47.147 Z0.24 E-0.0613375292949; coast(1.2267505859) & retract
G1 X91.843 Y47.147 Z0.24 E-0.3; & endwipe
G1 X91.438 Y47.001 F7800.000
;G1 F300 ; replaced by represure
G1 X91.438 Y47.001 E0.361337529295 F600; tipRepresure
G1 X90.743 Y47.785 E0.04479
G1 X89.764 Y48.156 E0.04479
G1 X88.724 Y48.030 E0.04479
G1 X87.862 Y47.435 E0.04478
G1 X87.375 Y46.507 E0.04479
G1 X87.375 Y45.460 E0.04479
G1 X87.862 Y44.532 E0.04479
G1 X88.724 Y43.937 E0.04478
G1 X89.712 Y43.817 E0.04254
G1 X90.737 Y44.175 E0.04643
G1 X91.435 Y44.963 E0.04498
G1 X91.695 Y45.959 E0.04401
;G1 X91.452 Y46.942 E0.04331 ; replaced by coast
G1 X91.452 Y46.942 Z0.24 E-0.0506294874554; coast(1.01258974911) & retract
G1 X91.452 Y46.942 Z0.24 E-0.3; & endwipe
G1 X91.047 Y46.796 F7800.000
;G1 F300 ; replaced by represure
G1 X91.047 Y46.796 E0.350629487455 F600; tipRepresure
G1 X90.493 Y47.421 E0.03575
G1 X89.711 Y47.718 E0.03576
G1 X88.880 Y47.617 E0.03575
G1 X88.192 Y47.142 E0.03575
G1 X87.804 Y46.402 E0.03575
G1 X87.804 Y45.565 E0.03576
G1 X88.192 Y44.825 E0.03575
G1 X88.880 Y44.350 E0.03575
G1 X89.664 Y44.255 E0.03377
G1 X90.490 Y44.543 E0.03740
G1 X91.046 Y45.170 E0.03582
G1 X91.253 Y45.962 E0.03498
;G1 X91.061 Y46.737 E0.03415 ; replaced by coast
G1 X91.061 Y46.737 Z0.24 E-0.0399214541318; coast(0.798429082637) & retract
G1 X91.061 Y46.737 Z0.24 E-0.3; & endwipe
G1 X91.261 Y47.134 F7800.000
G1 X107.597 Y50.887 F7800.000
;G1 F600 ; replaced by represure
G1 X107.597 Y50.887 E0.339921454132 F600; tipRepresure
G1 X82.403 Y50.887 E1.07718
G1 X82.403 Y56.442 E0.23752
G1 X81.376 Y55.849 E0.05069
G1 X79.916 Y56.107 E0.06339
G1 X79.597 Y56.487 E0.02124
G1 X79.597 Y49.081 E0.31667
G1 X81.224 Y49.081 E0.06956
G1 X85.501 Y43.147 E0.31274
G1 X86.223 Y42.344 E0.04616
G1 X87.051 Y41.743 E0.04377
G1 X87.987 Y41.326 E0.04377
G1 X88.982 Y41.115 E0.04349
G1 X90.079 Y41.128 E0.04692
G1 X91.013 Y41.326 E0.04083
G1 X92.017 Y41.773 E0.04697
G1 X105.634 Y49.081 E0.66074
G1 X110.403 Y49.081 E0.20390
G1 X110.403 Y56.442 E0.31474
G1 X109.376 Y55.849 E0.05069
G1 X107.916 Y56.107 E0.06339
G1 X107.597 Y56.487 E0.02124
;G1 X107.597 Y50.947 E0.23689 ; replaced by coast
G1 X107.597 Y55.947 E0.23689 ; extrude all
G1 X107.597 Y50.947 Z0.24 E-0.25; coast(5) & retract
G1 X107.597 Y50.947 Z0.24 E-0.3; & endwipe
G1 X110.311 Y56.883 F7800.000
;G1 F600 ; replaced by represure
G1 X110.311 Y56.883 E0.05; represure(0.05,5.0)
G1 X110.311 Y56.883 E0.5 F600; tipRepresure
G1 X109.297 Y56.298 E0.05005
G1 X108.144 Y56.501 E0.05005
G1 X107.168 Y57.664 E0.06491
G1 X107.168 Y51.315 E0.27147
G1 X82.832 Y51.315 E1.04054
G1 X82.832 Y57.692 E0.27267
G1 X82.619 Y57.730 E0.00922
G1 X82.311 Y56.883 E0.03851
G1 X81.297 Y56.298 E0.05005
G1 X80.144 Y56.501 E0.05005
G1 X79.168 Y57.664 E0.06491
G1 X79.168 Y48.652 E0.38533
G1 X81.005 Y48.652 E0.07850
G1 X85.167 Y42.877 E0.30436
G1 X85.935 Y42.024 E0.04908
G1 X86.836 Y41.369 E0.04762
G1 X87.854 Y40.917 E0.04762
G1 X88.939 Y40.686 E0.04745
G1 X90.127 Y40.700 E0.05077
G1 X91.146 Y40.917 E0.04458
G1 X92.206 Y41.388 E0.04957
G1 X105.742 Y48.652 E0.65681
G1 X110.832 Y48.652 E0.21762
G1 X110.832 Y57.692 E0.38652
G1 X110.619 Y57.730 E0.00922
;G1 X110.331 Y56.940 E0.03595 ; replaced by coast
G1 X110.331 Y56.94 Z0.24 E-0.0420429542254; coast(0.840859084508) & retract
G1 X110.331 Y56.94 Z0.24 E-0.3; & endwipe
G1 X110.500 Y56.610 F7800.000
G1 X82.500 Y59.357 F7800.000
G1 X82.255 Y57.984 F7800.000
;G1 F300 ; replaced by represure
G1 X82.255 Y57.984 E0.342042954225 F600; tipRepresure
G1 X82.255 Y57.984 E0.5 F600; long travel extraShot
G1 X81.962 Y58.791 E0.03672
G1 X81.218 Y59.220 E0.03672
G1 X80.372 Y59.071 E0.03672
G1 X79.820 Y58.413 E0.03672
G1 X79.820 Y57.554 E0.03672
G1 X80.372 Y56.896 E0.03672
G1 X81.218 Y56.747 E0.03672
G1 X81.962 Y57.177 E0.03672
;G1 X82.235 Y57.927 E0.03415 ; replaced by coast
G1 X82.235 Y57.927 Z0.24 E-0.0399070482497; coast(0.798140964993) & retract
G1 X82.235 Y57.927 Z0.24 E-0.3; & endwipe
G1 X82.602 Y58.184 F7800.000
G1 X79.916 Y59.861 F7800.000
;G1 F300 ; replaced by represure
G1 X79.916 Y59.861 E0.33990704825 F600; tipRepresure
G1 X81.376 Y60.118 E0.06339
