; generated by Slic3r 1.33.3-prusa3d-win64 on 2017-05-20 at 13:33:04

; external perimeters extrusion width = 0.40mm
; perimeters extrusion width = 0.48mm
; infill extrusion width = 0.48mm
; solid infill extrusion width = 0.48mm
; top infill extrusion width = 0.48mm

M104 S185 ; set temperature
G28 ; home all axes
G1 Z5 F5000 ; lift nozzle

M109 S185 ; set temperature and wait for it to be reached
G21 ; set units to millimeters
G90 ; use absolute coordinates
M83 ; use relative distances for extrusion
G1 Z0.240 F7800.000
G1 X72.282 Y44.186 F7800.000
G1 F1800
G1 X72.596 Y43.715 E0.02423
G1 X72.950 Y43.264 E0.02451
G1 X73.339 Y42.842 E0.02451
G1 X73.759 Y42.452 E0.02451
G1 X74.203 Y42.100 E0.02423
G1 X74.679 Y41.780 E0.02451
G1 X75.179 Y41.499 E0.02451
G1 X75.699 Y41.258 E0.02451
G1 X96.218 Y33.408 E0.93932
G1 X96.953 Y33.191 E0.03277
G1 X98.522 Y32.857 E0.06855
G1 X99.162 Y32.766 E0.02765
G1 X99.807 Y32.731 E0.02765
G1 X101.274 Y32.732 E0.06270
G1 X101.913 Y32.773 E0.02736
G1 X102.532 Y32.868 E0.02679
G1 X104.042 Y33.192 E0.06604
G1 X104.599 Y33.355 E0.02480
G1 X105.141 Y33.561 E0.02480
G1 X106.609 Y34.199 E0.06843
G1 X106.995 Y34.395 E0.01853
G1 X107.369 Y34.614 E0.01853
G1 X107.729 Y34.855 E0.01853
G1 X108.856 Y35.674 E0.05955
G1 X109.417 Y36.136 E0.03106
G1 X116.524 Y42.707 E0.41385
G1 X117.016 Y43.224 E0.03049
G1 X117.459 Y43.791 E0.03078
G1 X117.753 Y44.244 E0.02309
G1 X118.010 Y44.712 E0.02280
G1 X118.234 Y45.203 E0.02309
G1 X118.419 Y45.703 E0.02280
G1 X118.569 Y46.222 E0.02309
G1 X118.679 Y46.744 E0.02280
G1 X118.751 Y47.272 E0.02280
G1 X118.783 Y47.811 E0.02309
G1 X118.783 Y100.190 E2.23949
G1 X118.709 Y101.033 E0.03619
G1 X118.539 Y101.863 E0.03619
G1 X118.274 Y102.666 E0.03619
G1 X117.917 Y103.434 E0.03619
G1 X117.477 Y104.149 E0.03590
G1 X116.954 Y104.814 E0.03619
G1 X116.357 Y105.414 E0.03619
G1 X115.694 Y105.941 E0.03619
G1 X115.253 Y106.228 E0.02252
G1 X114.792 Y106.483 E0.02252
G1 X114.313 Y106.704 E0.02252
G1 X113.821 Y106.890 E0.02252
G1 X113.316 Y107.039 E0.02252
G1 X112.801 Y107.152 E0.02252
G1 X112.280 Y107.227 E0.02252
G1 X111.754 Y107.265 E0.02252
G1 X78.200 Y107.263 E1.43464
G1 X77.371 Y107.181 E0.03562
G1 X76.557 Y107.005 E0.03562
G1 X75.768 Y106.737 E0.03562
G1 X75.015 Y106.381 E0.03562
G1 X74.307 Y105.942 E0.03562
G1 X73.654 Y105.424 E0.03562
G1 X73.065 Y104.835 E0.03562
G1 X72.543 Y104.177 E0.03590
G1 X72.242 Y103.713 E0.02366
G1 X71.977 Y103.227 E0.02366
G1 X71.749 Y102.723 E0.02366
G1 X71.561 Y102.203 E0.02366
G1 X71.412 Y101.670 E0.02366
G1 X71.305 Y101.127 E0.02366
G1 X71.238 Y100.571 E0.02394
G1 X71.215 Y100.018 E0.02366
G1 X71.216 Y47.850 E2.23046
G1 X71.240 Y47.377 E0.02024
G1 X71.294 Y46.907 E0.02024
G1 X71.380 Y46.442 E0.02024
G1 X71.497 Y45.976 E0.02052
G1 X71.642 Y45.525 E0.02024
G1 X71.816 Y45.085 E0.02024
G1 X72.018 Y44.657 E0.02024
G1 X72.251 Y44.238 E0.02052
G1 X72.614 Y44.466 F7800.000
G1 F1800
G1 X72.911 Y44.011 E0.02323
G1 X73.247 Y43.576 E0.02350
G1 X73.617 Y43.169 E0.02350
G1 X74.014 Y42.798 E0.02323
G1 X74.444 Y42.455 E0.02350
G1 X74.894 Y42.151 E0.02323
G1 X75.367 Y41.884 E0.02323
G1 X75.866 Y41.653 E0.02350
G1 X96.354 Y33.815 E0.93789
G1 X97.055 Y33.607 E0.03124
G1 X98.593 Y33.280 E0.06725
G1 X99.195 Y33.193 E0.02599
G1 X99.808 Y33.160 E0.02627
G1 X101.257 Y33.161 E0.06193
G1 X101.863 Y33.199 E0.02599
G1 X102.451 Y33.289 E0.02544
G1 X103.933 Y33.607 E0.06479
G1 X104.461 Y33.761 E0.02350
G1 X104.975 Y33.956 E0.02350
G1 X106.427 Y34.586 E0.06769
G1 X107.153 Y34.984 E0.03538
G1 X108.603 Y36.019 E0.07618
G1 X109.127 Y36.451 E0.02903
G1 X116.226 Y43.015 E0.41340
G1 X116.698 Y43.512 E0.02931
G1 X117.115 Y44.048 E0.02903
G1 X117.389 Y44.472 E0.02157
G1 X117.632 Y44.914 E0.02157
G1 X117.841 Y45.373 E0.02157
G1 X118.015 Y45.846 E0.02157
G1 X118.155 Y46.331 E0.02157
G1 X118.258 Y46.825 E0.02157
G1 X118.325 Y47.325 E0.02157
G1 X118.355 Y47.829 E0.02157
G1 X118.354 Y100.171 E2.23793
G1 X118.287 Y100.964 E0.03400
G1 X118.127 Y101.743 E0.03400
G1 X117.879 Y102.498 E0.03400
G1 X117.542 Y103.226 E0.03428
G1 X117.126 Y103.903 E0.03400
G1 X116.630 Y104.533 E0.03428
G1 X116.064 Y105.101 E0.03428
G1 X115.441 Y105.595 E0.03400
G1 X115.023 Y105.866 E0.02129
G1 X114.593 Y106.104 E0.02102
G1 X114.146 Y106.309 E0.02102
G1 X113.680 Y106.485 E0.02129
G1 X113.209 Y106.624 E0.02102
G1 X112.722 Y106.731 E0.02129
G1 X112.229 Y106.802 E0.02129
G1 X111.732 Y106.837 E0.02129
G1 X78.235 Y106.835 E1.43220
G1 X77.450 Y106.760 E0.03373
G1 X76.678 Y106.594 E0.03373
G1 X75.931 Y106.341 E0.03373
G1 X75.218 Y106.004 E0.03373
G1 X74.554 Y105.591 E0.03345
G1 X73.936 Y105.101 E0.03373
G1 X73.378 Y104.543 E0.03373
G1 X72.888 Y103.924 E0.03373
G1 X72.607 Y103.490 E0.02212
G1 X72.357 Y103.030 E0.02240
G1 X72.145 Y102.558 E0.02212
G1 X71.967 Y102.065 E0.02240
G1 X71.828 Y101.567 E0.02212
G1 X71.728 Y101.059 E0.02212
G1 X71.666 Y100.545 E0.02212
G1 X71.643 Y100.022 E0.02240
G1 X71.644 Y47.867 E2.22990
G1 X71.666 Y47.428 E0.01881
G1 X71.715 Y46.991 E0.01881
G1 X71.793 Y46.558 E0.01881
G1 X71.898 Y46.131 E0.01881
G1 X72.030 Y45.711 E0.01881
G1 X72.189 Y45.301 E0.01881
G1 X72.374 Y44.902 E0.01881
G1 X72.584 Y44.517 E0.01873
G1 X72.954 Y44.733 F7800.000
G1 F1800
G1 X73.234 Y44.296 E0.02222
G1 X73.550 Y43.883 E0.02222
G1 X73.897 Y43.496 E0.02222
G1 X74.275 Y43.139 E0.02222
G1 X74.680 Y42.813 E0.02222
G1 X75.110 Y42.522 E0.02222
G1 X75.562 Y42.266 E0.02222
G1 X76.034 Y42.047 E0.02222
G1 X96.490 Y34.221 E0.93644
G1 X97.157 Y34.024 E0.02971
G1 X98.665 Y33.702 E0.06595
G1 X99.235 Y33.620 E0.02463
G1 X99.811 Y33.588 E0.02463
G1 X101.246 Y33.589 E0.06138
G1 X101.815 Y33.625 E0.02436
G1 X102.372 Y33.710 E0.02410
G1 X103.825 Y34.021 E0.06352
G1 X104.324 Y34.166 E0.02222
G1 X104.809 Y34.351 E0.02222
G1 X106.239 Y34.972 E0.06663
G1 X106.936 Y35.354 E0.03399
G1 X108.349 Y36.365 E0.07427
G1 X108.842 Y36.771 E0.02731
G1 X115.928 Y43.324 E0.41266
G1 X116.373 Y43.791 E0.02757
G1 X116.772 Y44.305 E0.02784
G1 X117.027 Y44.700 E0.02008
G1 X117.254 Y45.118 E0.02035
G1 X117.448 Y45.546 E0.02008
G1 X117.612 Y45.992 E0.02035
G1 X117.741 Y46.444 E0.02008
G1 X117.838 Y46.910 E0.02035
G1 X117.900 Y47.376 E0.02008
G1 X117.927 Y47.851 E0.02035
G1 X117.926 Y100.153 E2.23619
G1 X117.863 Y100.901 E0.03212
G1 X117.712 Y101.637 E0.03212
G1 X117.477 Y102.351 E0.03212
G1 X117.160 Y103.032 E0.03212
G1 X116.769 Y103.666 E0.03185
G1 X116.304 Y104.256 E0.03212
G1 X115.772 Y104.787 E0.03212
G1 X115.183 Y105.253 E0.03212
G1 X114.794 Y105.504 E0.01981
G1 X114.387 Y105.727 E0.01981
G1 X113.966 Y105.920 E0.01981
G1 X113.526 Y106.084 E0.02008
G1 X113.081 Y106.215 E0.01981
G1 X112.622 Y106.313 E0.02008
G1 X112.163 Y106.378 E0.01981
G1 X111.701 Y106.409 E0.01981
G1 X78.256 Y106.407 E1.42996
G1 X77.520 Y106.337 E0.03158
G1 X76.792 Y106.181 E0.03185
G1 X76.092 Y105.944 E0.03158
G1 X75.419 Y105.626 E0.03185
G1 X74.792 Y105.235 E0.03158
G1 X74.214 Y104.775 E0.03158
G1 X73.693 Y104.251 E0.03158
G1 X73.231 Y103.666 E0.03185
G1 X72.970 Y103.261 E0.02062
G1 X72.737 Y102.832 E0.02088
G1 X72.540 Y102.392 E0.02062
G1 X72.374 Y101.932 E0.02088
G1 X72.245 Y101.468 E0.02062
G1 X72.151 Y100.988 E0.02088
G1 X72.093 Y100.503 E0.02088
G1 X72.072 Y100.015 E0.02088
G1 X72.072 Y47.883 E2.22893
G1 X72.092 Y47.477 E0.01741
G1 X72.136 Y47.072 E0.01741
G1 X72.206 Y46.677 E0.01714
G1 X72.301 Y46.282 E0.01741
G1 X72.421 Y45.893 E0.01741
G1 X72.566 Y45.512 E0.01741
G1 X72.734 Y45.141 E0.01741
G1 X72.924 Y44.785 E0.01725
G1 X80.039 Y74.174 F7800.000
G1 F300
G1 X80.805 Y73.751 E0.03739
G1 X81.628 Y73.896 E0.03573
G1 X82.180 Y74.554 E0.03672
G1 X82.180 Y75.413 E0.03672
G1 X81.628 Y76.071 E0.03672
G1 X80.782 Y76.220 E0.03671
G1 X80.038 Y75.791 E0.03672
G1 X79.745 Y74.984 E0.03672
G1 X80.019 Y74.231 E0.03426
G1 X79.907 Y73.797 F7800.000
G1 X79.597 Y76.525 F7800.000
G1 F600
G1 X80.624 Y77.118 E0.05069
G1 X82.084 Y76.861 E0.06339
G1 X82.403 Y76.480 E0.02124
G1 X82.403 Y98.887 E0.95800
G1 X79.597 Y98.887 E0.11997
G1 X79.597 Y76.585 E0.95350
G1 X79.689 Y76.084 F7800.000
G1 F600
G1 X80.703 Y76.669 E0.05005
G1 X81.856 Y76.466 E0.05005
G1 X82.832 Y75.303 E0.06491
G1 X82.832 Y99.315 E1.02666
G1 X79.168 Y99.315 E0.15661
G1 X79.168 Y75.275 E1.02786
G1 X79.381 Y75.237 E0.00922
G1 X79.669 Y76.027 E0.03595
G1 X82.084 Y73.107 F7800.000
G1 F300
G1 X80.655 Y72.855 E0.06201
G1 X79.597 Y73.439 E0.05170
G1 X79.597 Y59.525 E0.59491
G1 X80.624 Y60.118 E0.05069
G1 X82.084 Y59.861 E0.06339
G1 X82.403 Y59.480 E0.02124
G1 X82.403 Y73.487 E0.59888
G1 X82.122 Y73.152 E0.01867
G1 X81.856 Y73.501 F7800.000
G1 F600
G1 X80.730 Y73.303 E0.04887
G1 X79.692 Y73.877 E0.05073
G1 X79.381 Y74.730 E0.03882
G1 X79.168 Y74.692 E0.00922
G1 X79.168 Y58.275 E0.70195
G1 X79.381 Y58.237 E0.00922
G1 X79.689 Y59.084 E0.03851
G1 X80.703 Y59.669 E0.05005
G1 X81.856 Y59.466 E0.05005
G1 X82.832 Y58.303 E0.06491
G1 X82.832 Y74.664 E0.69955
G1 X81.894 Y73.547 E0.06234
G1 X80.782 Y59.220 F7800.000
G1 F300
G1 X80.038 Y58.791 E0.03672
G1 X79.745 Y57.984 E0.03672
G1 X80.038 Y57.177 E0.03672
G1 X80.782 Y56.747 E0.03672
G1 X81.628 Y56.896 E0.03671
G1 X82.180 Y57.554 E0.03672
G1 X82.180 Y58.413 E0.03672
G1 X81.628 Y59.071 E0.03672
G1 X80.841 Y59.209 E0.03415
G1 X80.525 Y59.526 F7800.000
G1 X80.642 Y60.016 F7800.000
G1 X98.260 Y47.159 F7800.000
G1 X98.171 Y47.206 F7800.000
G1 F300
G1 X97.870 Y45.984 E0.05382
G1 X98.175 Y44.746 E0.05448
G1 X99.061 Y43.799 E0.05546
G1 X100.183 Y43.373 E0.05132
G1 X101.433 Y43.525 E0.05382
G1 X102.468 Y44.240 E0.05381
G1 X103.053 Y45.354 E0.05382
G1 X103.053 Y46.613 E0.05382
G1 X102.468 Y47.727 E0.05382
G1 X101.433 Y48.442 E0.05381
G1 X100.183 Y48.594 E0.05382
G1 X99.006 Y48.148 E0.05382
G1 X98.211 Y47.251 E0.05125
G1 X98.562 Y47.001 F7800.000
G1 F300
G1 X98.311 Y45.984 E0.04479
G1 X98.564 Y44.957 E0.04519
G1 X99.306 Y44.164 E0.04643
G1 X100.236 Y43.811 E0.04255
G1 X101.276 Y43.937 E0.04479
G1 X102.138 Y44.532 E0.04478
G1 X102.625 Y45.460 E0.04479
G1 X102.625 Y46.507 E0.04479
G1 X102.138 Y47.435 E0.04479
G1 X101.276 Y48.030 E0.04478
G1 X100.236 Y48.156 E0.04479
G1 X99.257 Y47.785 E0.04479
G1 X98.602 Y47.046 E0.04222
G1 X98.953 Y46.796 F7800.000
G1 F300
G1 X98.753 Y45.984 E0.03576
G1 X98.954 Y45.168 E0.03590
G1 X99.551 Y44.529 E0.03740
G1 X100.289 Y44.249 E0.03377
G1 X101.120 Y44.350 E0.03575
G1 X101.808 Y44.825 E0.03575
G1 X102.196 Y45.565 E0.03575
G1 X102.196 Y46.402 E0.03576
G1 X101.808 Y47.142 E0.03575
G1 X101.120 Y47.617 E0.03575
G1 X100.289 Y47.718 E0.03575
G1 X99.507 Y47.421 E0.03576
G1 X98.993 Y46.840 E0.03319
G1 X98.553 Y46.779 F7800.000
G1 X107.597 Y50.887 F7800.000
G1 F600
G1 X82.403 Y50.887 E1.07718
G1 X82.403 Y56.487 E0.23945
G1 X82.084 Y56.107 E0.02124
G1 X80.624 Y55.849 E0.06339
G1 X79.597 Y56.442 E0.05069
G1 X79.597 Y49.081 E0.31474
G1 X84.366 Y49.081 E0.20390
G1 X97.983 Y41.773 E0.66074
G1 X98.987 Y41.326 E0.04697
G1 X99.988 Y41.113 E0.04377
G1 X101.012 Y41.113 E0.04377
G1 X101.946 Y41.312 E0.04083
G1 X102.954 Y41.746 E0.04692
G1 X103.777 Y42.344 E0.04349
G1 X104.499 Y43.147 E0.04616
G1 X108.776 Y49.081 E0.31274
G1 X110.403 Y49.081 E0.06956
G1 X110.403 Y56.487 E0.31667
G1 X110.084 Y56.107 E0.02124
G1 X108.624 Y55.849 E0.06339
G1 X107.597 Y56.442 E0.05069
G1 X107.597 Y50.947 E0.23495
G1 X109.856 Y56.501 F7800.000
G1 F600
G1 X108.703 Y56.298 E0.05005
G1 X107.689 Y56.883 E0.05005
G1 X107.381 Y57.730 E0.03851
G1 X107.168 Y57.692 E0.00922
G1 X107.168 Y51.315 E0.27267
G1 X82.832 Y51.315 E1.04054
G1 X82.832 Y57.664 E0.27147
G1 X81.856 Y56.501 E0.06491
G1 X80.703 Y56.298 E0.05005
G1 X79.689 Y56.883 E0.05005
G1 X79.381 Y57.730 E0.03851
G1 X79.168 Y57.692 E0.00922
G1 X79.168 Y48.652 E0.38652
G1 X84.258 Y48.652 E0.21762
G1 X97.794 Y41.388 E0.65681
G1 X98.854 Y40.917 E0.04957
G1 X99.943 Y40.685 E0.04762
G1 X101.057 Y40.685 E0.04762
G1 X102.077 Y40.902 E0.04458
G1 X103.167 Y41.372 E0.05077
G1 X104.065 Y42.024 E0.04745
G1 X104.833 Y42.877 E0.04908
G1 X108.995 Y48.652 E0.30436
G1 X110.832 Y48.652 E0.07850
G1 X110.832 Y57.664 E0.38533
G1 X109.894 Y56.547 E0.06234
G1 X109.628 Y56.896 F7800.000
G1 F300
G1 X110.180 Y57.554 E0.03672
G1 X110.180 Y58.413 E0.03672
G1 X109.628 Y59.071 E0.03672
G1 X108.782 Y59.220 E0.03672
G1 X108.038 Y58.791 E0.03672
G1 X107.745 Y57.984 E0.03672
G1 X108.038 Y57.177 E0.03672
G1 X108.782 Y56.747 E0.03672
G1 X109.569 Y56.886 E0.03415
G1 X109.974 Y56.696 F7800.000
G1 X108.624 Y60.118 F7800.000
G1 F300
G1 X110.084 Y59.861 E0.06339
G1 X110.403 Y59.480 E0.02124
G1 X110.403 Y73.487 E0.59888
G1 X110.084 Y73.107 E0.02124
G1 X108.624 Y72.849 E0.06339
G1 X107.597 Y73.442 E0.05069
G1 X107.597 Y59.525 E0.59501
G1 X108.572 Y60.088 E0.04812
G1 X107.689 Y59.084 F7800.000
G1 F600
G1 X108.703 Y59.669 E0.05005
G1 X109.856 Y59.466 E0.05005
G1 X110.832 Y58.303 E0.06491
G1 X110.832 Y74.664 E0.69955
G1 X109.856 Y73.501 E0.06491
G1 X108.703 Y73.298 E0.05005
G1 X107.689 Y73.883 E0.05005
G1 X107.381 Y74.730 E0.03851
G1 X107.168 Y74.692 E0.00922
G1 X107.168 Y58.275 E0.70195
G1 X107.381 Y58.237 E0.00922
G1 X107.668 Y59.027 E0.03594
G1 X108.782 Y73.747 F7800.000
G1 F300
G1 X109.628 Y73.896 E0.03672
G1 X110.180 Y74.554 E0.03672
G1 X110.180 Y75.413 E0.03672
G1 X109.626 Y76.073 E0.03682
G1 X108.762 Y76.208 E0.03739
G1 X108.038 Y75.791 E0.03574
G1 X107.745 Y74.984 E0.03672
G1 X108.038 Y74.177 E0.03672
G1 X108.730 Y73.777 E0.03415
G1 X108.919 Y73.371 F7800.000
G1 X107.597 Y76.525 F7800.000
G1 F600
G1 X108.596 Y77.102 E0.04933
G1 X110.076 Y76.869 E0.06406
G1 X110.403 Y76.480 E0.02174
G1 X110.403 Y98.887 E0.95800
G1 X107.597 Y98.887 E0.11997
G1 X107.597 Y76.585 E0.95350
G1 X107.689 Y76.084 F7800.000
G1 F600
G1 X108.679 Y76.655 E0.04889
G1 X109.851 Y76.471 E0.05072
G1 X110.832 Y75.303 E0.06521
G1 X110.832 Y99.315 E1.02666
G1 X107.168 Y99.315 E0.15661
G1 X107.168 Y75.275 E1.02786
G1 X107.381 Y75.237 E0.00922
G1 X107.668 Y76.027 E0.03594
G1 X106.740 Y51.744 F7800.000
G1 F600
G1 X83.260 Y51.744 E1.00390
G1 X83.260 Y99.744 E2.05226
G1 X78.740 Y99.744 E0.19325
G1 X78.740 Y48.224 E2.20276
G1 X84.151 Y48.224 E0.23133
G1 X97.606 Y41.003 E0.65288
G1 X98.720 Y40.507 E0.05217
G1 X99.898 Y40.256 E0.05147
G1 X101.102 Y40.256 E0.05147
G1 X102.207 Y40.491 E0.04832
G1 X103.381 Y40.997 E0.05462
G1 X104.353 Y41.704 E0.05141
G1 X105.167 Y42.608 E0.05200
G1 X109.215 Y48.224 E0.29598
G1 X111.260 Y48.224 E0.08744
G1 X111.260 Y99.744 E2.20276
G1 X106.740 Y99.744 E0.19325
G1 X106.740 Y51.804 E2.04970
G1 X106.727 Y51.344 F7800.000
G1 X107.439 Y56.781 F7800.000
G1 F900
G1 X107.407 Y56.964 E0.00074
G1 X107.449 Y57.984 F7800.000
G1 F900
G1 X107.119 Y57.984 E0.00162
G1 F900
G1 X106.954 Y57.984 E0.00223
G1 X107.407 Y59.004 F7800.000
G1 F900
G1 X107.439 Y59.187 E0.00074
G1 X110.274 Y60.829 F7800.000
G1 F600
G1 X109.700 Y60.254 E0.03508
G1 X109.180 Y60.346 E0.02282
G1 X110.082 Y61.248 E0.05509
G1 X110.082 Y61.860 E0.02644
G1 X108.659 Y60.438 E0.08687
G1 X108.564 Y60.455 E0.00417
G1 X107.918 Y60.082 E0.03221
G1 X107.918 Y60.309 E0.00981
G1 X110.082 Y62.472 E0.13214
G1 X110.082 Y63.085 E0.02644
G1 X107.918 Y60.921 E0.13214
G1 X107.918 Y61.533 E0.02644
G1 X110.082 Y63.697 E0.13214
G1 X110.082 Y64.309 E0.02644
G1 X107.918 Y62.146 E0.13214
G1 X107.918 Y62.758 E0.02644
G1 X110.082 Y64.921 E0.13214
G1 X110.082 Y65.533 E0.02644
G1 X107.918 Y63.370 E0.13214
G1 X107.918 Y63.982 E0.02644
G1 X110.082 Y66.145 E0.13214
G1 X110.082 Y66.758 E0.02644
G1 X107.918 Y64.594 E0.13214
G1 X107.918 Y65.206 E0.02644
G1 X110.082 Y67.370 E0.13214
G1 X110.082 Y67.982 E0.02644
G1 X107.918 Y65.819 E0.13214
G1 X107.918 Y66.431 E0.02644
G1 X110.082 Y68.594 E0.13214
G1 X110.082 Y69.206 E0.02644
G1 X107.918 Y67.043 E0.13214
G1 X107.918 Y67.655 E0.02644
G1 X110.082 Y69.818 E0.13214
G1 X110.082 Y70.431 E0.02644
G1 X107.918 Y68.267 E0.13214
G1 X107.918 Y68.879 E0.02644
G1 X110.082 Y71.043 E0.13214
G1 X110.082 Y71.655 E0.02644
G1 X107.918 Y69.492 E0.13214
G1 X107.918 Y70.104 E0.02644
G1 X110.082 Y72.267 E0.13214
G1 X110.082 Y72.780 E0.02215
G1 X109.961 Y72.759 E0.00529
G1 X107.918 Y70.716 E0.12477
G1 X107.918 Y71.328 E0.02644
G1 X109.218 Y72.628 E0.07938
G1 X108.564 Y72.512 E0.02867
G1 X108.517 Y72.539 E0.00233
G1 X107.918 Y71.940 E0.03660
G1 X107.918 Y72.552 E0.02644
