; generated by Slic3r 1.33.3-prusa3d-win64 on 2017-05-20 at 16:38:52

; external perimeters extrusion width = 0.40mm
; perimeters extrusion width = 0.48mm
; infill extrusion width = 0.48mm
; solid infill extrusion width = 0.48mm
; top infill extrusion width = 0.48mm

M104 S185 ; set temperature
G28 ; home all axes
G1 Z5 F5000 ; lift nozzle

M109 S185 ; set temperature and wait for it to be reached
G21 ; set units to millimeters
G90 ; use absolute coordinates
M83 ; use relative distances for extrusion
G1 Z0.240 F7800.000
G1 X72.885 Y63.174 F7800.000
;G1 F1800 ; replaced by represure
G1 X72.885 Y63.174 E0.5 F600; long travel extraShot
G1 X73.292 Y62.697 E0.02679
G1 X73.738 Y62.257 E0.02679
G1 X75.269 Y61.016 E0.08427
G1 X75.649 Y60.757 E0.01967
G1 X76.051 Y60.519 E0.01995
G1 X77.622 Y59.723 E0.07531
G1 X78.051 Y59.538 E0.01995
G1 X78.496 Y59.378 E0.02024
G1 X80.392 Y58.831 E0.08437
G1 X81.074 Y58.704 E0.02964
G1 X82.788 Y58.503 E0.07382
G1 X83.254 Y58.470 E0.01995
G1 X83.721 Y58.468 E0.01995
G1 X109.454 Y59.237 E1.10075
G1 X110.026 Y59.277 E0.02451
G1 X110.600 Y59.364 E0.02480
G1 X111.727 Y59.607 E0.04929
G1 X112.459 Y59.833 E0.03277
G1 X113.735 Y60.386 E0.05946
G1 X114.472 Y60.789 E0.03590
G1 X115.590 Y61.580 E0.05857
G1 X116.182 Y62.077 E0.03306
G1 X116.531 Y62.426 E0.02109
G1 X117.177 Y63.143 E0.04122
G1 X117.681 Y63.789 E0.03505
G1 X117.938 Y64.186 E0.02024
G1 X118.405 Y64.992 E0.03980
G1 X118.738 Y65.660 E0.03192
G1 X118.936 Y66.162 E0.02309
G1 X119.223 Y67.040 E0.03948
G1 X119.415 Y67.761 E0.03192
G1 X119.531 Y68.492 E0.03163
G1 X119.626 Y69.411 E0.03949
G1 X119.650 Y69.950 E0.02309
G1 X119.617 Y70.696 E0.03192
G1 X119.518 Y71.622 E0.03980
G1 X119.442 Y72.103 E0.02081
G1 X119.283 Y72.764 E0.02907
G1 X118.946 Y73.808 E0.04690
G1 X118.737 Y74.342 E0.02451
G1 X118.490 Y74.852 E0.02423
G1 X117.934 Y75.820 E0.04775
G1 X117.604 Y76.321 E0.02565
G1 X117.229 Y76.797 E0.02594
G1 X116.512 Y77.594 E0.04579
G1 X116.108 Y77.991 E0.02423
G1 X115.669 Y78.360 E0.02451
G1 X114.771 Y79.014 E0.04749
G1 X114.259 Y79.339 E0.02594
G1 X113.722 Y79.621 E0.02594
G1 X112.707 Y80.071 E0.04746
G1 X112.168 Y80.267 E0.02451
G1 X111.616 Y80.420 E0.02451
G1 X110.397 Y80.672 E0.05320
G1 X109.961 Y80.730 E0.01881
G1 X109.522 Y80.760 E0.01881
G1 X83.691 Y81.533 E1.10493
G1 X83.237 Y81.531 E0.01938
G1 X82.778 Y81.500 E0.01967
G1 X81.147 Y81.306 E0.07025
G1 X80.706 Y81.236 E0.01910
G1 X80.134 Y81.103 E0.02508
G1 X78.662 Y80.673 E0.06557
G1 X77.940 Y80.417 E0.03277
G1 X77.502 Y80.219 E0.02052
G1 X76.115 Y79.516 E0.06651
G1 X75.683 Y79.264 E0.02138
G1 X75.269 Y78.984 E0.02138
G1 X73.833 Y77.827 E0.07881
G1 X73.454 Y77.472 E0.02223
G1 X73.105 Y77.095 E0.02195
G1 X72.792 Y76.705 E0.02138
G1 X71.904 Y75.489 E0.06439
G1 X71.573 Y74.941 E0.02736
G1 X71.292 Y74.366 E0.02736
G1 X71.113 Y73.913 E0.02081
G1 X70.674 Y72.642 E0.05750
G1 X70.531 Y72.108 E0.02366
G1 X70.429 Y71.564 E0.02366
G1 X70.371 Y71.040 E0.02252
G1 X70.350 Y70.514 E0.02252
G1 X70.355 Y69.252 E0.05394
G1 X70.421 Y68.495 E0.03249
G1 X70.525 Y67.918 E0.02508
G1 X70.678 Y67.345 E0.02537
G1 X71.129 Y66.042 E0.05895
G1 X71.352 Y65.500 E0.02508
G1 X71.599 Y65.012 E0.02337
G1 X71.882 Y64.544 E0.02337
;G1 X72.848 Y63.221 E0.07004 ; replaced by coast
G1 X72.848 Y63.221 Z0.24 E-0.0819067304927; coast(1.63813460985) & retract
G1 X72.848 Y63.221 Z0.24 E-0.3; & endwipe
G1 X73.230 Y63.428 F7800.000
;G1 F1800 ; replaced by represure
G1 X73.23 Y63.428 E0.381906730493 F600; tipRepresure
G1 X73.613 Y62.981 E0.02516
G1 X74.037 Y62.564 E0.02544
G1 X75.541 Y61.348 E0.08267
G1 X75.900 Y61.106 E0.01853
G1 X76.273 Y60.886 E0.01853
G1 X77.822 Y60.103 E0.07420
G1 X78.226 Y59.929 E0.01881
G1 X78.641 Y59.782 E0.01881
G1 X80.502 Y59.245 E0.08280
G1 X81.144 Y59.127 E0.02793
G1 X82.854 Y58.927 E0.07363
G1 X83.280 Y58.898 E0.01825
G1 X83.714 Y58.897 E0.01853
G1 X109.441 Y59.665 E1.10050
G1 X109.971 Y59.702 E0.02268
G1 X110.489 Y59.779 E0.02240
G1 X111.605 Y60.018 E0.04879
G1 X112.291 Y60.228 E0.03069
G1 X113.539 Y60.767 E0.05811
G1 X114.226 Y61.140 E0.03345
G1 X115.320 Y61.913 E0.05725
G1 X115.876 Y62.377 E0.03096
G1 X116.215 Y62.715 E0.02046
G1 X116.843 Y63.413 E0.04014
G1 X117.315 Y64.012 E0.03262
G1 X117.569 Y64.403 E0.01991
G1 X118.026 Y65.193 E0.03904
G1 X118.342 Y65.823 E0.03014
G1 X118.532 Y66.305 E0.02212
G1 X118.811 Y67.160 E0.03846
G1 X118.992 Y67.834 E0.02986
G1 X119.105 Y68.530 E0.03014
G1 X119.198 Y69.438 E0.03902
G1 X119.221 Y69.942 E0.02157
G1 X119.191 Y70.646 E0.03014
G1 X119.095 Y71.554 E0.03904
G1 X119.028 Y71.989 E0.01881
G1 X118.876 Y72.630 E0.02820
G1 X118.546 Y73.653 E0.04593
G1 X118.349 Y74.159 E0.02323
G1 X118.116 Y74.643 E0.02295
G1 X117.569 Y75.597 E0.04703
G1 X117.259 Y76.066 E0.02406
G1 X116.903 Y76.519 E0.02461
G1 X116.206 Y77.294 E0.04458
G1 X115.819 Y77.675 E0.02323
G1 X115.402 Y78.024 E0.02323
G1 X114.529 Y78.661 E0.04623
G1 X114.037 Y78.973 E0.02489
G1 X113.527 Y79.239 E0.02461
G1 X112.533 Y79.679 E0.04647
G1 X112.022 Y79.864 E0.02323
G1 X111.492 Y80.009 E0.02350
G1 X110.331 Y80.249 E0.05066
G1 X109.915 Y80.304 E0.01798
G1 X109.502 Y80.332 E0.01770
G1 X83.679 Y81.105 E1.10456
G1 X83.252 Y81.103 E0.01825
G1 X82.826 Y81.074 E0.01825
G1 X80.816 Y80.820 E0.08662
G1 X80.249 Y80.690 E0.02489
G1 X78.796 Y80.266 E0.06473
G1 X78.118 Y80.028 E0.03069
G1 X77.694 Y79.836 E0.01991
G1 X76.330 Y79.145 E0.06537
G1 X75.927 Y78.912 E0.01991
G1 X75.541 Y78.652 E0.01991
G1 X74.129 Y77.516 E0.07746
G1 X73.774 Y77.186 E0.02074
G1 X73.443 Y76.831 E0.02074
G1 X73.139 Y76.453 E0.02074
G1 X72.273 Y75.270 E0.06269
G1 X71.961 Y74.756 E0.02572
G1 X71.694 Y74.216 E0.02572
G1 X71.519 Y73.778 E0.02019
G1 X71.087 Y72.527 E0.05658
G1 X70.952 Y72.027 E0.02212
G1 X70.855 Y71.513 E0.02240
G1 X70.799 Y71.018 E0.02129
G1 X70.779 Y70.520 E0.02129
G1 X70.782 Y69.279 E0.05306
G1 X70.844 Y68.558 E0.03096
G1 X70.945 Y68.004 E0.02406
G1 X71.091 Y67.461 E0.02406
G1 X71.532 Y66.186 E0.05767
G1 X71.747 Y65.666 E0.02406
G1 X71.979 Y65.211 E0.02185
G1 X72.247 Y64.768 E0.02212
;G1 X73.193 Y63.475 E0.06850 ; replaced by coast
G1 X73.193 Y63.475 Z0.24 E-0.0801056333849; coast(1.6021126677) & retract
G1 X73.193 Y63.475 Z0.24 E-0.3; & endwipe
G1 X73.575 Y63.683 F7800.000
;G1 F1800 ; replaced by represure
G1 X73.575 Y63.683 E0.380105633385 F600; tipRepresure
G1 X73.938 Y63.261 E0.02383
G1 X74.337 Y62.871 E0.02383
G1 X75.806 Y61.685 E0.08073
G1 X76.144 Y61.458 E0.01741
G1 X76.496 Y61.253 E0.01741
G1 X78.027 Y60.480 E0.07332
G1 X78.401 Y60.321 E0.01741
G1 X78.785 Y60.186 E0.01741
G1 X80.617 Y59.659 E0.08149
G1 X81.214 Y59.550 E0.02597
G1 X82.919 Y59.351 E0.07337
G1 X83.701 Y59.325 E0.03346
G1 X109.428 Y60.094 E1.10049
G1 X109.903 Y60.126 E0.02035
G1 X110.381 Y60.194 E0.02062
G1 X111.478 Y60.428 E0.04796
G1 X112.125 Y60.623 E0.02891
G1 X113.343 Y61.148 E0.05671
G1 X113.982 Y61.493 E0.03105
G1 X114.317 Y61.714 E0.01714
G1 X115.050 Y62.246 E0.03875
G1 X115.570 Y62.679 E0.02891
G1 X115.899 Y63.005 E0.01981
G1 X116.511 Y63.683 E0.03905
G1 X116.950 Y64.238 E0.03025
G1 X117.200 Y64.621 E0.01955
G1 X117.645 Y65.390 E0.03798
G1 X117.941 Y65.977 E0.02811
G1 X118.174 Y66.585 E0.02784
G1 X118.445 Y67.423 E0.03768
G1 X118.569 Y67.902 E0.02115
G1 X118.677 Y68.563 E0.02864
G1 X118.770 Y69.459 E0.03849
G1 X118.792 Y69.928 E0.02008
G1 X118.766 Y70.591 E0.02838
G1 X118.613 Y71.877 E0.05537
G1 X118.466 Y72.505 E0.02757
G1 X118.146 Y73.499 E0.04465
G1 X117.963 Y73.972 E0.02169
G1 X117.741 Y74.435 E0.02196
G1 X117.206 Y75.368 E0.04598
G1 X116.913 Y75.813 E0.02276
G1 X116.573 Y76.246 E0.02356
G1 X115.895 Y76.999 E0.04334
G1 X115.529 Y77.360 E0.02196
G1 X115.135 Y77.689 E0.02196
G1 X114.280 Y78.312 E0.04520
G1 X113.815 Y78.606 E0.02356
G1 X113.337 Y78.855 E0.02303
G1 X112.359 Y79.287 E0.04571
G1 X111.864 Y79.464 E0.02249
G1 X111.362 Y79.599 E0.02222
G1 X110.259 Y79.827 E0.04815
G1 X109.480 Y79.904 E0.03346
G1 X83.673 Y80.676 E1.10389
G1 X83.272 Y80.674 E0.01714
G1 X82.866 Y80.647 E0.01741
G1 X80.924 Y80.405 E0.08368
G1 X80.266 Y80.250 E0.02891
G1 X78.820 Y79.825 E0.06441
G1 X78.302 Y79.639 E0.02356
G1 X77.890 Y79.455 E0.01928
G1 X76.550 Y78.776 E0.06422
G1 X76.175 Y78.561 E0.01848
G1 X75.811 Y78.318 E0.01874
G1 X74.423 Y77.205 E0.07607
G1 X74.092 Y76.898 E0.01928
G1 X73.780 Y76.564 E0.01955
G1 X73.488 Y76.204 E0.01981
G1 X72.637 Y75.044 E0.06152
G1 X72.344 Y74.563 E0.02410
G1 X72.093 Y74.058 E0.02410
G1 X71.923 Y73.634 E0.01955
G1 X71.500 Y72.411 E0.05533
G1 X71.372 Y71.940 E0.02088
G1 X71.279 Y71.454 E0.02115
G1 X71.226 Y70.987 E0.02008
G1 X71.207 Y70.518 E0.02008
G1 X71.211 Y69.293 E0.05236
G1 X71.269 Y68.613 E0.02918
G1 X71.364 Y68.095 E0.02249
G1 X71.502 Y67.581 E0.02276
G1 X71.934 Y66.337 E0.05634
G1 X72.140 Y65.839 E0.02303
G1 X72.359 Y65.409 E0.02062
G1 X72.613 Y64.992 E0.02088
;G1 X73.538 Y63.730 E0.06689 ; replaced by coast
G1 X73.538 Y63.73 Z0.24 E-0.078234726944; coast(1.56469453888) & retract
G1 X73.538 Y63.73 Z0.24 E-0.3; & endwipe
G1 X88.783 Y68.832 F7800.000
;G1 F300 ; replaced by represure
G1 X88.783 Y68.832 E0.378234726944 F600; tipRepresure
G1 X88.783 Y71.168 E0.09992
G1 X86.516 Y71.168 E0.09694
G1 X86.175 Y71.798 E0.03062
G1 X85.466 Y72.451 E0.04121
G1 X84.583 Y72.838 E0.04121
G1 X83.623 Y72.918 E0.04121
G1 X82.688 Y72.681 E0.04121
G1 X81.882 Y72.154 E0.04121
G1 X81.290 Y71.393 E0.04121
G1 X81.212 Y71.168 E0.01017
G1 X78.946 Y71.168 E0.09690
G1 X78.946 Y68.832 E0.09992
G1 X81.212 Y68.832 E0.09690
G1 X81.290 Y68.607 E0.01017
G1 X81.882 Y67.846 E0.04121
G1 X82.688 Y67.319 E0.04121
G1 X83.594 Y67.089 E0.03996
G1 X84.580 Y67.160 E0.04224
G1 X85.466 Y67.549 E0.04137
G1 X86.175 Y68.202 E0.04121
G1 X86.516 Y68.832 E0.03062
;G1 X88.723 Y68.832 E0.09437 ; replaced by coast
G1 X88.723 Y68.832 Z0.24 E-0.11035; coast(2.207) & retract
G1 X88.723 Y68.832 Z0.24 E-0.3; & endwipe
G1 X88.354 Y69.260 F7800.000
;G1 F300 ; replaced by represure
G1 X88.354 Y69.26 E0.41035 F600; tipRepresure
G1 X88.354 Y70.740 E0.06328
G1 X86.260 Y70.740 E0.08954
G1 X85.832 Y71.531 E0.03848
G1 X85.228 Y72.087 E0.03509
G1 X84.476 Y72.417 E0.03509
G1 X83.659 Y72.485 E0.03509
G1 X82.863 Y72.283 E0.03509
G1 X82.176 Y71.834 E0.03509
G1 X81.672 Y71.187 E0.03509
G1 X81.518 Y70.740 E0.02019
G1 X79.374 Y70.740 E0.09166
G1 X79.374 Y69.260 E0.06328
G1 X81.518 Y69.260 E0.09166
G1 X81.672 Y68.813 E0.02019
G1 X82.176 Y68.166 E0.03509
G1 X82.863 Y67.717 E0.03509
G1 X83.633 Y67.522 E0.03395
G1 X84.475 Y67.582 E0.03612
G1 X85.228 Y67.913 E0.03515
G1 X85.832 Y68.469 E0.03509
G1 X86.260 Y69.260 E0.03848
;G1 X88.294 Y69.260 E0.08697 ; replaced by coast
G1 X88.294 Y69.26 Z0.24 E-0.1017; coast(2.034) & retract
G1 X88.294 Y69.26 Z0.24 E-0.3; & endwipe
G1 X88.752 Y69.300 F7800.000
G1 X81.845 Y67.358 F7800.000
;G1 F300 ; replaced by represure
G1 X81.845 Y67.358 E0.4017 F600; tipRepresure
G1 X81.587 Y67.526 E0.01316
G1 X80.905 Y68.403 E0.04750
G1 X79.451 Y68.403 E0.06215
G1 X80.160 Y67.830 E0.03897
G1 X81.134 Y67.338 E0.04665
G1 X81.752 Y67.157 E0.02755
;G1 X81.820 Y67.304 E0.00692 ; replaced by coast
G1 X81.82 Y67.304 Z0.24 E-0.00809830229122; coast(0.161966045824) & retract
G1 X81.82 Y67.304 Z0.24 E-0.3; & endwipe
G1 X80.905 Y71.597 F7800.000
;G1 F300 ; replaced by represure
G1 X80.905 Y71.597 E0.308098302291 F600; tipRepresure
G1 X81.587 Y72.474 E0.04750
G1 X81.845 Y72.642 E0.01316
G1 X81.752 Y72.843 E0.00949
G1 X81.134 Y72.662 E0.02755
G1 X80.160 Y72.170 E0.04665
G1 X79.451 Y71.597 E0.03897
;G1 X80.845 Y71.597 E0.05958 ; replaced by coast
G1 X80.845 Y71.597 Z0.24 E-0.0697; coast(1.394) & retract
G1 X80.845 Y71.597 Z0.24 E-0.3; & endwipe
G1 X85.547 Y72.883 F7800.000
;G1 F600 ; replaced by represure
G1 X85.547 Y72.883 E0.3697 F600; tipRepresure
G1 X85.703 Y72.815 E0.00728
G1 X86.518 Y72.065 E0.04732
G1 X86.771 Y71.597 E0.02276
G1 X89.211 Y71.597 E0.10434
G1 X89.211 Y68.403 E0.13656
G1 X86.771 Y68.403 E0.10434
G1 X86.518 Y67.935 E0.02276
G1 X85.703 Y67.185 E0.04732
G1 X85.548 Y67.117 E0.00726
G1 X85.594 Y66.910 E0.00906
G1 X107.582 Y67.567 E0.94052
G1 X107.635 Y67.746 E0.00796
G1 X106.896 Y68.256 E0.03839
G1 X106.311 Y69.371 E0.05382
G1 X106.311 Y70.629 E0.05381
G1 X106.896 Y71.744 E0.05382
G1 X107.635 Y72.254 E0.03840
G1 X107.582 Y72.433 E0.00796
G1 X85.594 Y73.090 E0.94054
;G1 X85.560 Y72.942 E0.00650 ; replaced by coast
G1 X85.56 Y72.942 Z0.24 E-0.00759275970909; coast(0.151855194182) & retract
G1 X85.56 Y72.942 Z0.24 E-0.3; & endwipe
G1 X106.740 Y70.524 F7800.000
;G1 F300 ; replaced by represure
G1 X106.74 Y70.524 E0.307592759709 F600; tipRepresure
G1 X106.74 Y70.524 E0.5 F600; long travel extraShot
G1 X106.740 Y69.476 E0.04478
G1 X107.226 Y68.549 E0.04479
G1 X108.088 Y67.954 E0.04479
G1 X109.093 Y67.832 E0.04329
G1 X110.103 Y68.194 E0.04588
G1 X110.802 Y68.983 E0.04506
G1 X111.054 Y70.006 E0.04506
G1 X110.779 Y71.043 E0.04588
G1 X110.108 Y71.801 E0.04329
G1 X109.128 Y72.173 E0.04479
G1 X108.088 Y72.046 E0.04478
G1 X107.226 Y71.451 E0.04479
;G1 X106.767 Y70.577 E0.04222 ; replaced by coast
G1 X106.767 Y70.577 Z0.24 E-0.0493598267825; coast(0.98719653565) & retract
G1 X106.767 Y70.577 Z0.24 E-0.3; & endwipe
G1 X107.168 Y70.418 F7800.000
;G1 F300 ; replaced by represure
G1 X107.168 Y70.418 E0.349359826783 F600; tipRepresure
G1 X107.168 Y69.582 E0.03575
G1 X107.557 Y68.841 E0.03575
G1 X108.245 Y68.366 E0.03576
G1 X109.044 Y68.269 E0.03443
G1 X109.855 Y68.560 E0.03685
G1 X110.411 Y69.188 E0.03585
G1 X110.612 Y70.002 E0.03585
G1 X110.391 Y70.835 E0.03685
G1 X109.857 Y71.438 E0.03443
G1 X109.075 Y71.734 E0.03575
G1 X108.245 Y71.634 E0.03575
G1 X107.557 Y71.159 E0.03576
;G1 X107.196 Y70.471 E0.03319 ; replaced by coast
G1 X107.196 Y70.471 Z0.24 E-0.0388479407434; coast(0.776958814867) & retract
G1 X107.196 Y70.471 Z0.24 E-0.3; & endwipe
G1 X106.784 Y70.307 F7800.000
G1 X106.408 Y70.605 F7800.000
G1 X106.408 Y70.605 F7800.000
G1 X104.389 Y70.605 F7800.000
G1 X103.765 Y70.000 F7800.000
G1 X92.105 Y70.000 F7800.000
G1 X90.649 Y68.500 F7800.000
G1 X89.114 Y67.709 F7800.000
G1 X87.201 Y67.681 F7800.000
G1 X87.117 Y67.629 F7800.000
G1 X86.886 Y67.511 F7800.000
G1 X85.824 Y67.078 F7800.000
G1 X85.744 Y67.053 F7800.000
G1 X84.671 Y66.811 F7800.000
G1 X84.662 Y66.810 F7800.000
G1 X83.567 Y66.754 F7800.000
G1 X83.565 Y66.754 F7800.000
G1 X83.565 Y66.754 F7800.000
G1 X82.536 Y66.944 F7800.000
G1 X82.513 Y66.950 F7800.000
G1 X82.291 Y67.030 F7800.000
G1 X81.516 Y67.388 F7800.000
G1 X81.439 Y67.431 F7800.000
G1 X81.228 Y67.575 F7800.000
G1 X80.709 Y68.002 F7800.000
G1 X80.330 Y68.092 F7800.000
G1 X79.414 Y68.416 F7800.000
G1 X79.248 Y68.500 F7800.000
G1 X79.248 Y70.000 F7800.000
G1 X78.304 Y70.381 F7800.000
;G1 F600 ; replaced by represure
G1 X78.304 Y70.381 E0.338847940743 F600; tipRepresure
G1 X78.304 Y70.381 E0.5 F600; long travel extraShot
G1 X78.304 Y69.619 E0.03257
G1 X78.569 Y68.860 E0.03438
G1 X79.112 Y68.127 E0.03900
G1 X79.926 Y67.468 E0.04478
G1 X80.976 Y66.937 E0.05028
G1 X82.200 Y66.579 E0.05453
G1 X83.552 Y66.421 E0.05824
G1 X109.150 Y67.186 E1.09493
G1 X109.738 Y67.311 E0.02571
G1 X110.278 Y67.551 E0.02527
G1 X110.757 Y67.899 E0.02528
G1 X111.152 Y68.338 E0.02527
G1 X111.448 Y68.850 E0.02527
G1 X111.630 Y69.412 E0.02528
G1 X111.692 Y70.000 E0.02528
G1 X111.630 Y70.588 E0.02528
G1 X111.448 Y71.150 E0.02528
G1 X111.152 Y71.662 E0.02527
G1 X110.757 Y72.101 E0.02527
G1 X110.278 Y72.449 E0.02528
G1 X109.738 Y72.689 E0.02527
G1 X109.150 Y72.814 E0.02571
G1 X83.530 Y73.580 E1.09590
G1 X82.200 Y73.421 E0.05724
G1 X80.976 Y73.063 E0.05457
G1 X79.926 Y72.532 E0.05028
G1 X79.112 Y71.873 E0.04478
G1 X78.569 Y71.140 E0.03900
;G1 X78.324 Y70.438 E0.03181 ; replaced by coast
G1 X78.324 Y70.438 Z0.24 E-0.0371762356889; coast(0.743524713779) & retract
G1 X78.324 Y70.438 Z0.24 E-0.3; & endwipe
G1 X77.876 Y70.454 F7800.000
;G1 F600 ; replaced by represure
G1 X77.876 Y70.454 E0.337176235689 F600; tipRepresure
G1 X77.876 Y69.546 E0.03878
G1 X78.186 Y68.657 E0.04026
G1 X78.800 Y67.828 E0.04411
G1 X79.692 Y67.106 E0.04907
G1 X80.817 Y66.537 E0.05392
G1 X82.114 Y66.158 E0.05776
G1 X83.534 Y65.991 E0.06112
G1 X109.201 Y66.758 E1.09792
G1 X109.871 Y66.901 E0.02929
G1 X110.494 Y67.178 E0.02913
