; generated by Slic3r 1.33.3-prusa3d-win64 on 2017-05-14 at 22:51:42

; external perimeters extrusion width = 0.40mm
; perimeters extrusion width = 0.48mm
; infill extrusion width = 0.48mm
; solid infill extrusion width = 0.48mm
; top infill extrusion width = 0.48mm

M104 S185 ; set temperature
G28 ; home all axes
G1 Z5 F5000 ; lift nozzle

M109 S185 ; set temperature and wait for it to be reached
G21 ; set units to millimeters
G90 ; use absolute coordinates
M83 ; use relative distances for extrusion
G1 Z0.240 F7800.000
G1 X66.743 Y60.840 F7800.000
;G1 F1800 ; replaced by represure
G1 X66.743 Y60.84 E0.5 F600; long travel extraShot
G1 X67.259 Y60.328 E0.03106
G1 X67.828 Y59.867 E0.03135
G1 X68.436 Y59.468 E0.03106
G1 X69.086 Y59.129 E0.03135
G1 X69.760 Y58.859 E0.03106
G1 X70.465 Y58.656 E0.03135
G1 X71.180 Y58.526 E0.03106
G1 X71.911 Y58.468 E0.03135
G1 X80.292 Y58.467 E0.35837
G1 X114.922 Y59.236 E1.48099
G1 X115.528 Y59.276 E0.02594
G1 X116.128 Y59.367 E0.02594
G1 X117.250 Y59.610 E0.04912
G1 X117.982 Y59.838 E0.03277
G1 X119.258 Y60.391 E0.05946
G1 X119.994 Y60.796 E0.03590
G1 X121.106 Y61.584 E0.05829
G1 X121.698 Y62.082 E0.03306
G1 X122.046 Y62.431 E0.02109
G1 X122.692 Y63.148 E0.04123
G1 X123.199 Y63.800 E0.03533
G1 X123.452 Y64.192 E0.01995
G1 X123.918 Y64.998 E0.03980
G1 X124.251 Y65.666 E0.03192
G1 X124.446 Y66.162 E0.02280
G1 X124.734 Y67.040 E0.03949
G1 X124.927 Y67.768 E0.03220
G1 X125.043 Y68.499 E0.03163
G1 X125.137 Y69.418 E0.03949
G1 X125.160 Y69.957 E0.02309
G1 X125.127 Y70.703 E0.03192
G1 X125.028 Y71.629 E0.03980
G1 X124.951 Y72.116 E0.02109
G1 X124.788 Y72.783 E0.02936
G1 X124.437 Y73.864 E0.04861
G1 X124.210 Y74.427 E0.02594
G1 X123.937 Y74.969 E0.02594
G1 X123.400 Y75.894 E0.04576
G1 X123.019 Y76.450 E0.02879
G1 X122.634 Y76.918 E0.02594
G1 X122.050 Y77.564 E0.03724
G1 X121.741 Y77.877 E0.01881
G1 X121.201 Y78.343 E0.03049
G1 X120.304 Y78.999 E0.04750
G1 X119.810 Y79.316 E0.02508
G1 X119.293 Y79.592 E0.02508
G1 X118.273 Y80.048 E0.04775
G1 X117.692 Y80.263 E0.02651
G1 X117.101 Y80.426 E0.02622
G1 X115.974 Y80.661 E0.04921
G1 X115.452 Y80.732 E0.02252
G1 X114.919 Y80.764 E0.02280
G1 X80.255 Y81.534 E1.48247
G1 X72.025 Y81.535 E0.35187
G1 X71.379 Y81.497 E0.02765
G1 X70.746 Y81.404 E0.02736
G1 X70.220 Y81.282 E0.02309
G1 X69.705 Y81.122 E0.02309
G1 X69.202 Y80.924 E0.02309
G1 X68.716 Y80.689 E0.02309
G1 X68.254 Y80.422 E0.02280
G1 X67.808 Y80.118 E0.02309
G1 X67.385 Y79.782 E0.02309
G1 X66.988 Y79.416 E0.02309
G1 X66.619 Y79.021 E0.02309
G1 X66.281 Y78.601 E0.02309
G1 X65.975 Y78.156 E0.02309
G1 X65.702 Y77.689 E0.02309
G1 X65.465 Y77.204 E0.02309
G1 X65.265 Y76.703 E0.02309
G1 X65.102 Y76.188 E0.02309
G1 X64.978 Y75.662 E0.02309
G1 X64.877 Y74.990 E0.02907
G1 X64.840 Y74.311 E0.02907
G1 X64.840 Y65.710 E0.36775
G1 X64.889 Y64.905 E0.03448
G1 X64.975 Y64.352 E0.02394
G1 X65.103 Y63.807 E0.02394
G1 X65.273 Y63.273 E0.02394
G1 X65.484 Y62.754 E0.02394
G1 X65.734 Y62.253 E0.02394
G1 X66.021 Y61.772 E0.02394
G1 X66.345 Y61.315 E0.02394
;G1 X66.702 Y60.884 E0.02394 ; replaced by coast
G1 X66.702 Y60.884 Z0.24 E-0.0279825838693; coast(0.559651677385) & retract
G1 X66.702 Y60.884 Z0.24 E-0.3; & endwipe
G1 X67.008 Y61.186 F7800.000
;G1 F1800 ; replaced by represure
G1 X67.008 Y61.186 E0.327982583869 F600; tipRepresure
G1 X67.499 Y60.689 E0.02986
G1 X68.032 Y60.248 E0.02958
G1 X68.613 Y59.861 E0.02986
G1 X69.230 Y59.534 E0.02986
G1 X69.872 Y59.274 E0.02958
G1 X70.542 Y59.078 E0.02986
G1 X71.229 Y58.952 E0.02986
G1 X71.925 Y58.896 E0.02986
G1 X80.281 Y58.896 E0.35729
G1 X114.912 Y59.664 E1.48102
G1 X115.461 Y59.700 E0.02350
G1 X116.005 Y59.780 E0.02350
G1 X117.115 Y60.018 E0.04856
G1 X117.808 Y60.230 E0.03096
G1 X119.055 Y60.770 E0.05811
G1 X119.742 Y61.144 E0.03345
G1 X120.836 Y61.917 E0.05725
G1 X121.391 Y62.382 E0.03096
G1 X121.725 Y62.715 E0.02019
G1 X122.354 Y63.413 E0.04014
G1 X122.829 Y64.018 E0.03290
G1 X123.083 Y64.408 E0.01991
G1 X123.537 Y65.193 E0.03876
G1 X123.852 Y65.823 E0.03014
G1 X124.042 Y66.305 E0.02212
G1 X124.322 Y67.160 E0.03846
G1 X124.503 Y67.834 E0.02986
G1 X124.615 Y68.530 E0.03014
G1 X124.709 Y69.438 E0.03902
G1 X124.732 Y69.942 E0.02157
G1 X124.702 Y70.646 E0.03014
G1 X124.606 Y71.554 E0.03904
G1 X124.537 Y71.995 E0.01908
G1 X124.381 Y72.649 E0.02875
G1 X124.040 Y73.702 E0.04731
G1 X123.826 Y74.236 E0.02461
G1 X123.568 Y74.751 E0.02461
G1 X123.039 Y75.663 E0.04509
G1 X122.681 Y76.186 E0.02710
G1 X122.316 Y76.631 E0.02461
G1 X121.739 Y77.270 E0.03683
G1 X121.448 Y77.565 E0.01770
G1 X120.933 Y78.008 E0.02903
G1 X120.055 Y78.650 E0.04651
G1 X119.587 Y78.950 E0.02378
G1 X119.096 Y79.211 E0.02378
G1 X118.103 Y79.654 E0.04647
G1 X117.551 Y79.858 E0.02516
G1 X116.996 Y80.011 E0.02461
G1 X115.874 Y80.244 E0.04900
G1 X115.393 Y80.307 E0.02074
G1 X114.909 Y80.336 E0.02074
G1 X80.246 Y81.106 E1.48237
G1 X72.041 Y81.106 E0.35083
G1 X71.453 Y81.074 E0.02516
G1 X70.864 Y80.990 E0.02544
G1 X70.366 Y80.877 E0.02185
G1 X69.877 Y80.728 E0.02185
G1 X69.401 Y80.543 E0.02185
G1 X68.946 Y80.325 E0.02157
G1 X68.502 Y80.072 E0.02185
G1 X68.079 Y79.786 E0.02185
G1 X67.678 Y79.469 E0.02185
G1 X67.301 Y79.124 E0.02185
G1 X66.956 Y78.756 E0.02157
G1 X66.635 Y78.358 E0.02185
G1 X66.344 Y77.938 E0.02185
G1 X66.086 Y77.497 E0.02185
G1 X65.861 Y77.039 E0.02185
G1 X65.670 Y76.564 E0.02185
G1 X65.516 Y76.077 E0.02185
G1 X65.398 Y75.580 E0.02185
G1 X65.304 Y74.947 E0.02737
G1 X65.268 Y74.308 E0.02737
G1 X65.268 Y65.718 E0.36728
G1 X65.309 Y65.001 E0.03069
G1 X65.386 Y64.483 E0.02240
G1 X65.503 Y63.972 E0.02240
G1 X65.655 Y63.478 E0.02212
G1 X65.848 Y62.990 E0.02240
G1 X66.077 Y62.519 E0.02240
G1 X66.341 Y62.067 E0.02240
G1 X66.639 Y61.636 E0.02240
;G1 X66.968 Y61.231 E0.02232 ; replaced by coast
G1 X66.968 Y61.231 Z0.24 E-0.0260895572979; coast(0.521791145958) & retract
G1 X66.968 Y61.231 Z0.24 E-0.3; & endwipe
G1 X67.280 Y61.525 F7800.000
;G1 F1800 ; replaced by represure
G1 X67.28 Y61.525 E0.326089557298 F600; tipRepresure
G1 X67.741 Y61.048 E0.02838
G1 X68.250 Y60.621 E0.02838
G1 X68.799 Y60.249 E0.02838
G1 X69.384 Y59.935 E0.02838
G1 X69.998 Y59.684 E0.02838
G1 X70.635 Y59.497 E0.02838
G1 X71.288 Y59.376 E0.02838
G1 X71.949 Y59.324 E0.02838
G1 X80.271 Y59.324 E0.35579
G1 X114.896 Y60.093 E1.48078
G1 X115.396 Y60.124 E0.02142
G1 X115.892 Y60.195 E0.02142
G1 X116.988 Y60.428 E0.04793
G1 X117.636 Y60.623 E0.02891
G1 X118.848 Y61.146 E0.05644
G1 X119.493 Y61.493 E0.03132
G1 X119.828 Y61.714 E0.01714
G1 X120.561 Y62.246 E0.03875
G1 X121.081 Y62.679 E0.02891
G1 X121.410 Y63.005 E0.01981
G1 X122.021 Y63.683 E0.03905
G1 X122.460 Y64.238 E0.03025
G1 X122.710 Y64.621 E0.01955
G1 X123.155 Y65.390 E0.03798
G1 X123.452 Y65.977 E0.02811
G1 X123.685 Y66.585 E0.02784
G1 X123.957 Y67.429 E0.03795
G1 X124.079 Y67.902 E0.02088
G1 X124.188 Y68.563 E0.02864
G1 X124.281 Y69.459 E0.03849
G1 X124.303 Y69.928 E0.02008
G1 X124.276 Y70.591 E0.02838
G1 X124.123 Y71.877 E0.05537
G1 X123.975 Y72.511 E0.02784
G1 X123.644 Y73.535 E0.04599
G1 X123.444 Y74.041 E0.02329
G1 X123.198 Y74.534 E0.02356
G1 X122.681 Y75.427 E0.04411
G1 X122.346 Y75.919 E0.02543
G1 X122.001 Y76.340 E0.02329
G1 X121.149 Y77.257 E0.05350
G1 X120.661 Y77.678 E0.02757
G1 X119.806 Y78.301 E0.04521
G1 X119.363 Y78.584 E0.02249
G1 X118.898 Y78.831 E0.02249
G1 X117.939 Y79.258 E0.04491
G1 X117.410 Y79.453 E0.02410
G1 X116.885 Y79.597 E0.02329
G1 X115.782 Y79.824 E0.04815
G1 X115.341 Y79.881 E0.01901
G1 X114.897 Y79.907 E0.01901
G1 X80.238 Y80.678 E1.48222
G1 X72.056 Y80.678 E0.34982
G1 X71.518 Y80.650 E0.02303
G1 X70.979 Y80.575 E0.02329
G1 X70.514 Y80.473 E0.02035
G1 X70.052 Y80.335 E0.02062
G1 X69.602 Y80.162 E0.02062
G1 X69.165 Y79.957 E0.02062
G1 X68.746 Y79.719 E0.02062
G1 X68.346 Y79.450 E0.02062
G1 X67.971 Y79.156 E0.02035
G1 X67.615 Y78.831 E0.02062
G1 X67.284 Y78.480 E0.02062
G1 X66.981 Y78.105 E0.02062
G1 X66.710 Y77.714 E0.02035
G1 X66.465 Y77.299 E0.02062
G1 X66.253 Y76.866 E0.02062
G1 X66.073 Y76.418 E0.02062
G1 X65.928 Y75.959 E0.02062
G1 X65.817 Y75.489 E0.02062
G1 X65.730 Y74.901 E0.02543
G1 X65.697 Y74.307 E0.02543
G1 X65.697 Y65.725 E0.36692
G1 X65.730 Y65.093 E0.02704
G1 X65.797 Y64.616 E0.02062
G1 X65.902 Y64.139 E0.02088
G1 X66.042 Y63.671 E0.02088
G1 X66.217 Y63.215 E0.02088
G1 X66.424 Y62.779 E0.02062
G1 X66.666 Y62.355 E0.02088
G1 X66.940 Y61.950 E0.02088
;G1 X67.241 Y61.570 E0.02073 ; replaced by coast
G1 X67.241 Y61.57 Z0.24 E-0.0242384508581; coast(0.484769017162) & retract
G1 X67.241 Y61.57 Z0.24 E-0.3; & endwipe
G1 X112.250 Y69.476 F7800.000
;G1 F300 ; replaced by represure
G1 X112.25 Y69.476 E0.324238450858 F600; tipRepresure
G1 X112.25 Y69.476 E0.5 F600; long travel extraShot
G1 X112.737 Y68.549 E0.04479
G1 X113.599 Y67.954 E0.04479
G1 X114.604 Y67.832 E0.04329
G1 X115.614 Y68.194 E0.04588
G1 X116.313 Y68.983 E0.04506
G1 X116.559 Y69.980 E0.04390
G1 X116.381 Y70.940 E0.04174
G1 X115.618 Y71.801 E0.04920
G1 X114.639 Y72.173 E0.04479
G1 X113.599 Y72.046 E0.04478
G1 X112.737 Y71.451 E0.04479
G1 X112.250 Y70.524 E0.04479
;G1 X112.250 Y69.536 E0.04222 ; replaced by coast
G1 X112.25 Y69.536 Z0.24 E-0.0494; coast(0.988) & retract
G1 X112.25 Y69.536 Z0.24 E-0.3; & endwipe
G1 X112.679 Y69.582 F7800.000
;G1 F300 ; replaced by represure
G1 X112.679 Y69.582 E0.3494 F600; tipRepresure
G1 X113.067 Y68.841 E0.03575
G1 X113.755 Y68.366 E0.03576
G1 X114.555 Y68.269 E0.03443
G1 X115.366 Y68.560 E0.03685
G1 X115.922 Y69.188 E0.03585
G1 X116.120 Y69.993 E0.03543
G1 X115.982 Y70.745 E0.03270
G1 X115.368 Y71.438 E0.03959
G1 X114.586 Y71.734 E0.03575
G1 X113.755 Y71.634 E0.03575
G1 X113.067 Y71.159 E0.03576
G1 X112.679 Y70.418 E0.03575
;G1 X112.679 Y69.642 E0.03319 ; replaced by coast
G1 X112.679 Y69.642 Z0.24 E-0.0388; coast(0.776) & retract
G1 X112.679 Y69.642 Z0.24 E-0.3; & endwipe
G1 X112.390 Y69.305 F7800.000
G1 X87.722 Y71.597 F7800.000
;G1 F600 ; replaced by represure
G1 X87.722 Y71.597 E0.3388 F600; tipRepresure
G1 X87.722 Y71.597 E0.5 F600; long travel extraShot
G1 X87.722 Y68.403 E0.13656
G1 X82.282 Y68.403 E0.23261
G1 X82.028 Y67.935 E0.02276
G1 X81.214 Y67.185 E0.04732
G1 X80.960 Y67.074 E0.01185
G1 X81.006 Y66.868 E0.00903
G1 X113.074 Y67.579 E1.37142
G1 X113.127 Y67.759 E0.00799
G1 X112.406 Y68.256 E0.03745
G1 X111.822 Y69.371 E0.05382
G1 X111.822 Y70.629 E0.05381
G1 X112.406 Y71.744 E0.05382
G1 X113.127 Y72.241 E0.03745
G1 X113.074 Y72.421 E0.00799
G1 X81.003 Y73.133 E1.37154
G1 X80.957 Y72.927 E0.00903
G1 X81.214 Y72.815 E0.01198
G1 X82.028 Y72.065 E0.04732
G1 X82.282 Y71.597 E0.02276
;G1 X87.662 Y71.597 E0.23004 ; replaced by coast
G1 X82.662 Y71.597 E0.23004 ; extrude all
G1 X87.662 Y71.597 Z0.24 E-0.25; coast(5) & retract
G1 X87.662 Y71.597 Z0.24 E-0.3; & endwipe
G1 X77.855 Y67.032 F7800.000
;G1 F300 ; replaced by represure
G1 X77.855 Y67.032 E0.05; represure(0.05,5.0)
G1 X77.855 Y67.032 E0.5 F600; tipRepresure
G1 X77.098 Y67.526 E0.03867
G1 X76.416 Y68.403 E0.04750
G1 X73.222 Y68.403 E0.13654
G1 X73.222 Y66.847 E0.06652
G1 X77.800 Y66.848 E0.19575
;G1 X77.838 Y66.974 E0.00563 ; replaced by coast
G1 X77.838 Y66.974 Z0.24 E-0.00658027355055; coast(0.131605471011) & retract
G1 X77.838 Y66.974 Z0.24 E-0.3; & endwipe
G1 X76.416 Y71.597 F7800.000
;G1 F300 ; replaced by represure
G1 X76.416 Y71.597 E0.306580273551 F600; tipRepresure
G1 X77.098 Y72.474 E0.04750
G1 X77.857 Y72.969 E0.03875
G1 X77.802 Y73.153 E0.00820
G1 X73.222 Y73.153 E0.19581
G1 X73.222 Y71.597 E0.06653
;G1 X76.356 Y71.597 E0.13398 ; replaced by coast
G1 X76.356 Y71.597 Z0.24 E-0.1567; coast(3.134) & retract
G1 X76.356 Y71.597 Z0.24 E-0.3; & endwipe
G1 X87.293 Y71.168 F7800.000
;G1 F600 ; replaced by represure
G1 X87.293 Y71.168 E0.4567 F600; tipRepresure
G1 X87.293 Y68.832 E0.09992
G1 X82.026 Y68.832 E0.22521
G1 X81.685 Y68.202 E0.03062
G1 X80.976 Y67.549 E0.04121
G1 X80.094 Y67.162 E0.04121
G1 X79.133 Y67.082 E0.04121
G1 X78.199 Y67.319 E0.04121
G1 X77.392 Y67.846 E0.04121
G1 X76.800 Y68.607 E0.04121
G1 X76.723 Y68.832 E0.01017
G1 X72.793 Y68.832 E0.16800
G1 X72.793 Y66.419 E0.10316
G1 X80.137 Y66.420 E0.31397
G1 X114.663 Y67.186 E1.47655
G1 X115.249 Y67.311 E0.02560
G1 X115.789 Y67.551 E0.02527
G1 X116.267 Y67.899 E0.02528
G1 X116.663 Y68.338 E0.02527
G1 X116.958 Y68.850 E0.02527
G1 X117.141 Y69.412 E0.02528
G1 X117.203 Y70.000 E0.02528
G1 X117.141 Y70.588 E0.02528
G1 X116.958 Y71.150 E0.02528
G1 X116.663 Y71.662 E0.02527
G1 X116.267 Y72.101 E0.02527
G1 X115.789 Y72.449 E0.02528
G1 X115.249 Y72.689 E0.02527
G1 X114.663 Y72.814 E0.02560
G1 X80.125 Y73.582 E1.47704
G1 X72.793 Y73.582 E0.31348
G1 X72.793 Y71.168 E0.10317
G1 X76.723 Y71.168 E0.16800
G1 X76.800 Y71.393 E0.01017
G1 X77.392 Y72.154 E0.04121
G1 X78.199 Y72.681 E0.04121
G1 X79.133 Y72.918 E0.04121
G1 X80.094 Y72.838 E0.04121
G1 X80.976 Y72.451 E0.04121
G1 X81.685 Y71.798 E0.04121
G1 X82.026 Y71.168 E0.03062
;G1 X87.233 Y71.168 E0.22264 ; replaced by coast
G1 X82.233 Y71.168 E0.22264 ; extrude all
G1 X87.233 Y71.168 Z0.24 E-0.25; coast(5) & retract
G1 X87.233 Y71.168 Z0.24 E-0.3; & endwipe
G1 X86.865 Y70.740 F7800.000
;G1 F600 ; replaced by represure
G1 X86.865 Y70.74 E0.05; represure(0.05,0.0)
G1 X86.865 Y70.74 E0.5 F600; tipRepresure
G1 X86.865 Y69.260 E0.06328
G1 X81.771 Y69.260 E0.21780
G1 X81.343 Y68.469 E0.03848
G1 X80.739 Y67.913 E0.03509
G1 X79.987 Y67.583 E0.03509
G1 X79.169 Y67.515 E0.03509
G1 X78.373 Y67.717 E0.03509
G1 X77.686 Y68.166 E0.03509
G1 X77.182 Y68.813 E0.03509
G1 X77.029 Y69.260 E0.02019
G1 X72.365 Y69.260 E0.19940
G1 X72.365 Y65.990 E0.13981
G1 X80.142 Y65.991 E0.33250
G1 X114.713 Y66.759 E1.47847
G1 X115.382 Y66.901 E0.02925
G1 X116.004 Y67.178 E0.02913
G1 X116.556 Y67.578 E0.02913
G1 X117.011 Y68.085 E0.02913
G1 X117.352 Y68.675 E0.02913
G1 X117.562 Y69.322 E0.02913
G1 X117.634 Y70.000 E0.02913
G1 X117.562 Y70.678 E0.02913
G1 X117.352 Y71.325 E0.02913
G1 X117.011 Y71.915 E0.02913
G1 X116.556 Y72.422 E0.02913
G1 X116.004 Y72.822 E0.02913
G1 X115.382 Y73.099 E0.02913
G1 X114.713 Y73.241 E0.02925
G1 X80.130 Y74.010 E1.47897
G1 X72.365 Y74.010 E0.33200
G1 X72.365 Y70.740 E0.13981
G1 X77.029 Y70.740 E0.19940
G1 X77.182 Y71.187 E0.02019
G1 X77.686 Y71.834 E0.03509
G1 X78.373 Y72.283 E0.03509
G1 X79.169 Y72.485 E0.03509
G1 X79.987 Y72.417 E0.03509
G1 X80.739 Y72.087 E0.03509
G1 X81.343 Y71.531 E0.03509
G1 X81.771 Y70.740 E0.03848
;G1 X86.805 Y70.740 E0.21524 ; replaced by coast
G1 X81.805 Y70.74 E0.21524 ; extrude all
G1 X86.805 Y70.74 Z0.24 E-0.25; coast(5) & retract
G1 X86.805 Y70.74 Z0.24 E-0.3; & endwipe
G1 X87.265 Y70.721 F7800.000
G1 X87.787 Y68.274 F7800.000
;G1 F600 ; replaced by represure
G1 X87.787 Y68.274 E0.05; represure(0.05,0.0)
G1 X87.787 Y68.274 E0.5 F600; tipRepresure
G1 X86.831 Y67.319 E0.05873
G1 X86.201 Y67.305 E0.02736
G1 X86.978 Y68.082 E0.04774
G1 X86.362 Y68.082 E0.02674
G1 X85.571 Y67.291 E0.04860
G1 X84.942 Y67.277 E0.02736
G1 X85.747 Y68.082 E0.04946
G1 X85.131 Y68.082 E0.02674
G1 X84.312 Y67.263 E0.05031
G1 X83.682 Y67.249 E0.02736
G1 X84.515 Y68.082 E0.05117
G1 X83.900 Y68.082 E0.02674
G1 X83.053 Y67.235 E0.05203
G1 X82.423 Y67.221 E0.02736
G1 X83.284 Y68.082 E0.05289
G1 X82.669 Y68.082 E0.02674
;G1 X81.596 Y67.009 E0.06586 ; replaced by coast
G1 X81.596 Y67.009 Z0.24 E-0.0758725576213; coast(1.51745115243) & retract
G1 X81.596 Y67.009 Z0.24 E-0.3; & endwipe
G1 X82.028 Y72.982 F7800.000
;G1 F600 ; replaced by represure
G1 X82.028 Y72.982 E0.375872557621 F600; tipRepresure
G1 X81.778 Y72.732 E0.01536
G1 X82.099 Y72.437 E0.01893
G1 X82.442 Y72.780 E0.02107
G1 X83.044 Y72.767 E0.02617
G1 X82.376 Y72.098 E0.04105
G1 X82.473 Y71.918 E0.00889
G1 X82.811 Y71.918 E0.01470
G1 X83.646 Y72.753 E0.05129
G1 X84.248 Y72.740 E0.02617
G1 X83.427 Y71.918 E0.05046
G1 X84.043 Y71.918 E0.02674
G1 X84.851 Y72.726 E0.04964
G1 X85.453 Y72.713 E0.02617
G1 X84.658 Y71.918 E0.04882
G1 X85.274 Y71.918 E0.02674
G1 X86.055 Y72.700 E0.04800
G1 X86.658 Y72.686 E0.02617
G1 X85.890 Y71.918 E0.04718
G1 X86.505 Y71.918 E0.02674
G1 X87.260 Y72.673 E0.04635
G1 X87.862 Y72.660 E0.02617
G1 X87.121 Y71.918 E0.04553
G1 X87.737 Y71.918 E0.02674
G1 X88.464 Y72.646 E0.04471
