; generated by Slic3r 1.33.3-prusa3d-win64 on 2017-05-13 at 22:42:18

; external perimeters extrusion width = 0.40mm
; perimeters extrusion width = 0.48mm
; infill extrusion width = 0.48mm
; solid infill extrusion width = 0.48mm
; top infill extrusion width = 0.48mm

M104 S185 ; set temperature
G28 ; home all axes
G1 Z5 F5000 ; lift nozzle

M109 S185 ; set temperature and wait for it to be reached
G21 ; set units to millimeters
G90 ; use absolute coordinates
M83 ; use relative distances for extrusion
G1 Z0.240 F7800.000
G1 X72.577 Y52.258 F7800.000
;G1 F1800 ; replaced by represure
G1 X72.577 Y52.258 E0.5 F600; long travel extraShot
G1 X73.100 Y51.610 E0.03562
G1 X73.693 Y51.025 E0.03562
G1 X74.350 Y50.512 E0.03562
G1 X75.061 Y50.077 E0.03562
G1 X75.816 Y49.727 E0.03562
G1 X76.607 Y49.465 E0.03562
G1 X77.423 Y49.295 E0.03562
G1 X78.259 Y49.219 E0.03590
G1 X111.807 Y49.221 E1.43435
G1 X112.385 Y49.268 E0.02480
G1 X112.951 Y49.360 E0.02451
G1 X113.514 Y49.498 E0.02480
G1 X114.065 Y49.681 E0.02480
G1 X114.599 Y49.906 E0.02480
G1 X115.108 Y50.170 E0.02451
G1 X115.594 Y50.474 E0.02451
G1 X116.061 Y50.819 E0.02480
G1 X116.647 Y51.343 E0.03363
G1 X117.172 Y51.928 E0.03363
G1 X117.632 Y52.566 E0.03363
G1 X118.020 Y53.250 E0.03363
G1 X118.333 Y53.972 E0.03363
G1 X118.566 Y54.723 E0.03363
G1 X118.716 Y55.495 E0.03363
G1 X118.782 Y56.279 E0.03363
G1 X118.776 Y83.867 E1.17953
G1 X118.726 Y84.431 E0.02423
G1 X118.630 Y84.996 E0.02451
G1 X118.492 Y85.546 E0.02423
G1 X118.310 Y86.089 E0.02451
G1 X118.088 Y86.611 E0.02423
G1 X117.826 Y87.114 E0.02423
G1 X117.526 Y87.594 E0.02423
G1 X117.186 Y88.055 E0.02451
G1 X116.657 Y88.647 E0.03391
G1 X116.067 Y89.177 E0.03391
G1 X115.428 Y89.636 E0.03363
G1 X114.738 Y90.026 E0.03391
G1 X114.009 Y90.340 E0.03391
G1 X113.251 Y90.572 E0.03391
G1 X112.478 Y90.719 E0.03363
G1 X111.688 Y90.783 E0.03391
G1 X78.193 Y90.779 E1.43207
G1 X77.615 Y90.732 E0.02480
G1 X77.049 Y90.640 E0.02451
G1 X76.492 Y90.503 E0.02451
G1 X75.942 Y90.322 E0.02480
G1 X75.413 Y90.099 E0.02451
G1 X74.898 Y89.833 E0.02480
G1 X74.411 Y89.530 E0.02451
G1 X73.945 Y89.186 E0.02480
G1 X73.363 Y88.666 E0.03334
G1 X72.840 Y88.087 E0.03334
G1 X72.382 Y87.456 E0.03334
G1 X71.994 Y86.780 E0.03334
G1 X71.681 Y86.066 E0.03334
G1 X71.446 Y85.322 E0.03334
G1 X71.292 Y84.558 E0.03334
G1 X71.220 Y83.774 E0.03363
G1 X71.221 Y56.193 E1.17924
G1 X71.261 Y55.675 E0.02223
G1 X71.339 Y55.161 E0.02223
G1 X71.452 Y54.653 E0.02223
G1 X71.602 Y54.155 E0.02223
G1 X71.787 Y53.669 E0.02223
G1 X72.006 Y53.198 E0.02223
G1 X72.258 Y52.743 E0.02223
;G1 X72.542 Y52.307 E0.02223 ; replaced by coast
G1 X72.542 Y52.307 Z0.24 E-0.026016917573; coast(0.52033835146) & retract
G1 X72.542 Y52.307 Z0.24 E-0.3; & endwipe
G1 X72.900 Y52.543 F7800.000
;G1 F1800 ; replaced by represure
G1 X72.9 Y52.543 E0.326016917573 F600; tipRepresure
G1 X73.391 Y51.926 E0.03373
G1 X73.951 Y51.370 E0.03373
G1 X74.570 Y50.881 E0.03373
G1 X75.247 Y50.464 E0.03400
G1 X75.962 Y50.130 E0.03373
G1 X76.710 Y49.881 E0.03373
G1 X77.482 Y49.719 E0.03373
G1 X78.274 Y49.647 E0.03400
G1 X111.772 Y49.648 E1.43220
G1 X112.313 Y49.691 E0.02323
G1 X112.850 Y49.777 E0.02323
G1 X113.384 Y49.907 E0.02350
G1 X113.900 Y50.077 E0.02323
G1 X114.401 Y50.287 E0.02323
G1 X114.884 Y50.536 E0.02323
G1 X115.345 Y50.823 E0.02323
G1 X115.788 Y51.149 E0.02350
G1 X116.337 Y51.640 E0.03152
G1 X116.835 Y52.192 E0.03179
G1 X117.270 Y52.796 E0.03179
G1 X117.637 Y53.442 E0.03179
G1 X117.932 Y54.125 E0.03179
G1 X118.152 Y54.835 E0.03179
G1 X118.293 Y55.565 E0.03179
G1 X118.354 Y56.300 E0.03152
G1 X118.349 Y83.823 E1.17678
G1 X118.303 Y84.358 E0.02295
G1 X118.215 Y84.888 E0.02295
G1 X118.086 Y85.409 E0.02295
G1 X117.916 Y85.918 E0.02295
G1 X117.705 Y86.419 E0.02323
G1 X117.458 Y86.895 E0.02295
G1 X117.174 Y87.351 E0.02295
G1 X116.855 Y87.783 E0.02295
G1 X116.360 Y88.337 E0.03179
G1 X115.808 Y88.835 E0.03179
G1 X115.199 Y89.274 E0.03207
G1 X114.552 Y89.640 E0.03179
G1 X113.869 Y89.935 E0.03179
G1 X113.152 Y90.155 E0.03207
G1 X112.422 Y90.295 E0.03179
G1 X111.674 Y90.355 E0.03207
G1 X78.228 Y90.352 E1.42999
G1 X77.687 Y90.309 E0.02323
G1 X77.150 Y90.223 E0.02323
G1 X76.622 Y90.095 E0.02323
G1 X76.106 Y89.926 E0.02323
G1 X75.605 Y89.716 E0.02323
G1 X75.122 Y89.467 E0.02323
G1 X74.660 Y89.181 E0.02323
G1 X74.217 Y88.855 E0.02350
G1 X73.672 Y88.369 E0.03124
G1 X73.177 Y87.823 E0.03152
G1 X72.744 Y87.226 E0.03152
G1 X72.377 Y86.587 E0.03152
G1 X72.083 Y85.918 E0.03124
G1 X71.861 Y85.215 E0.03152
G1 X71.715 Y84.492 E0.03152
G1 X71.648 Y83.758 E0.03152
G1 X71.648 Y56.235 E1.17678
G1 X71.684 Y55.751 E0.02074
G1 X71.754 Y55.271 E0.02074
G1 X71.858 Y54.797 E0.02074
G1 X71.997 Y54.326 E0.02102
G1 X72.167 Y53.871 E0.02074
G1 X72.369 Y53.430 E0.02074
G1 X72.601 Y53.004 E0.02074
;G1 X72.866 Y52.592 E0.02094 ; replaced by coast
G1 X72.866 Y52.592 Z0.24 E-0.0244933154146; coast(0.489866308292) & retract
G1 X72.866 Y52.592 Z0.24 E-0.3; & endwipe
G1 X73.216 Y52.838 F7800.000
;G1 F1800 ; replaced by represure
G1 X73.216 Y52.838 E0.324493315415 F600; tipRepresure
G1 X73.676 Y52.251 E0.03185
G1 X74.204 Y51.718 E0.03212
G1 X74.786 Y51.253 E0.03185
G1 X75.424 Y50.855 E0.03212
G1 X76.098 Y50.537 E0.03185
G1 X76.810 Y50.298 E0.03212
G1 X77.545 Y50.143 E0.03212
G1 X78.293 Y50.075 E0.03212
G1 X111.744 Y50.076 E1.43023
G1 X112.256 Y50.116 E0.02196
G1 X112.763 Y50.197 E0.02196
G1 X113.256 Y50.316 E0.02169
G1 X113.744 Y50.476 E0.02196
G1 X114.212 Y50.672 E0.02169
G1 X114.669 Y50.907 E0.02196
G1 X115.105 Y51.178 E0.02196
G1 X115.518 Y51.482 E0.02196
G1 X116.041 Y51.950 E0.02998
G1 X116.506 Y52.467 E0.02971
G1 X116.912 Y53.030 E0.02971
G1 X117.258 Y53.641 E0.02998
G1 X117.533 Y54.279 E0.02971
G1 X117.737 Y54.943 E0.02971
G1 X117.869 Y55.625 E0.02971
G1 X117.926 Y56.324 E0.02998
G1 X117.922 Y83.788 E1.17423
G1 X117.880 Y84.287 E0.02142
G1 X117.798 Y84.788 E0.02169
G1 X117.677 Y85.280 E0.02169
G1 X117.517 Y85.762 E0.02169
G1 X117.320 Y86.229 E0.02169
G1 X117.087 Y86.680 E0.02169
G1 X116.822 Y87.105 E0.02142
G1 X116.522 Y87.514 E0.02169
G1 X116.059 Y88.032 E0.02971
G1 X115.538 Y88.502 E0.02998
G1 X114.970 Y88.912 E0.02998
G1 X114.359 Y89.258 E0.02998
G1 X113.715 Y89.535 E0.02998
G1 X113.045 Y89.740 E0.02998
G1 X112.356 Y89.871 E0.02998
G1 X111.657 Y89.927 E0.02998
G1 X78.256 Y89.924 E1.42809
G1 X77.750 Y89.885 E0.02169
G1 X77.243 Y89.804 E0.02196
G1 X76.744 Y89.684 E0.02196
G1 X76.262 Y89.526 E0.02169
G1 X75.793 Y89.331 E0.02169
G1 X75.337 Y89.096 E0.02196
G1 X74.900 Y88.826 E0.02196
G1 X74.486 Y88.522 E0.02196
G1 X73.972 Y88.063 E0.02945
G1 X73.506 Y87.548 E0.02971
G1 X73.102 Y86.991 E0.02945
G1 X72.756 Y86.387 E0.02971
G1 X72.481 Y85.756 E0.02945
G1 X72.272 Y85.093 E0.02971
G1 X72.137 Y84.418 E0.02945
G1 X72.076 Y83.732 E0.02945
G1 X72.076 Y56.268 E1.17423
G1 X72.108 Y55.819 E0.01928
G1 X72.171 Y55.372 E0.01928
G1 X72.266 Y54.931 E0.01928
G1 X72.391 Y54.498 E0.01928
G1 X72.547 Y54.075 E0.01928
G1 X72.731 Y53.663 E0.01928
G1 X72.944 Y53.266 E0.01928
;G1 X73.183 Y52.888 E0.01912 ; replaced by coast
G1 X73.183 Y52.888 Z0.24 E-0.0223609592817; coast(0.447219185635) & retract
G1 X73.183 Y52.888 Z0.24 E-0.3; & endwipe
G1 X107.820 Y77.071 F7800.000
;G1 F300 ; replaced by represure
G1 X107.82 Y77.071 E0.322360959282 F600; tipRepresure
G1 X107.82 Y77.071 E0.5 F600; long travel extraShot
G1 X108.372 Y76.413 E0.03672
G1 X109.188 Y76.269 E0.03540
G1 X109.955 Y76.687 E0.03737
G1 X110.272 Y77.453 E0.03545
G1 X109.962 Y78.307 E0.03885
G1 X109.218 Y78.736 E0.03672
G1 X108.372 Y78.587 E0.03671
G1 X107.820 Y77.929 E0.03672
;G1 X107.820 Y77.131 E0.03415 ; replaced by coast
G1 X107.82 Y77.131 Z0.24 E-0.0399; coast(0.798) & retract
G1 X107.82 Y77.131 Z0.24 E-0.3; & endwipe
G1 X107.563 Y76.764 F7800.000
G1 X107.916 Y79.377 F7800.000
;G1 F300 ; replaced by represure
G1 X107.916 Y79.377 E0.3399 F600; tipRepresure
G1 X109.376 Y79.634 E0.06339
G1 X110.403 Y79.042 E0.05069
G1 X110.403 Y82.403 E0.14371
G1 X107.597 Y82.403 E0.11997
G1 X107.597 Y78.996 E0.14565
;G1 X107.878 Y79.331 E0.01867 ; replaced by coast
G1 X107.878 Y79.331 Z0.24 E-0.0218624106631; coast(0.437248213261) & retract
G1 X107.878 Y79.331 Z0.24 E-0.3; & endwipe
G1 X108.144 Y78.982 F7800.000
;G1 F300 ; replaced by represure
G1 X108.144 Y78.982 E0.321862410663 F600; tipRepresure
G1 X109.297 Y79.185 E0.05005
G1 X110.311 Y78.600 E0.05005
G1 X110.619 Y77.754 E0.03851
G1 X110.832 Y77.791 E0.00922
G1 X110.832 Y82.832 E0.21550
G1 X107.168 Y82.832 E0.15661
G1 X107.168 Y77.819 E0.21430
;G1 X108.106 Y78.936 E0.06234 ; replaced by coast
G1 X108.106 Y78.936 Z0.24 E-0.0729303263396; coast(1.45860652679) & retract
G1 X108.106 Y78.936 Z0.24 E-0.3; & endwipe
G1 X107.968 Y79.288 F7800.000
G1 X82.500 Y69.500 F7800.000
G1 X82.403 Y69.597 F7800.000
;G1 F600 ; replaced by represure
G1 X82.403 Y69.597 E0.37293032634 F600; tipRepresure
G1 X82.403 Y69.597 E0.5 F600; long travel extraShot
G1 X107.597 Y69.597 E1.07718
G1 X107.597 Y63.996 E0.23945
G1 X107.916 Y64.377 E0.02124
G1 X109.376 Y64.634 E0.06339
G1 X110.403 Y64.042 E0.05069
G1 X110.403 Y75.955 E0.50936
G1 X109.334 Y75.373 E0.05203
G1 X107.916 Y75.623 E0.06156
G1 X107.597 Y76.004 E0.02124
G1 X107.597 Y70.403 E0.23945
G1 X82.403 Y70.403 E1.07718
G1 X82.403 Y75.955 E0.23738
G1 X81.334 Y75.373 E0.05203
G1 X79.916 Y75.623 E0.06156
G1 X79.597 Y76.004 E0.02124
G1 X79.597 Y63.996 E0.51337
G1 X79.916 Y64.377 E0.02124
G1 X81.376 Y64.634 E0.06339
G1 X82.403 Y64.042 E0.05069
;G1 X82.403 Y69.537 E0.23495 ; replaced by coast
G1 X82.403 Y64.537 E0.23495 ; extrude all
G1 X82.403 Y69.537 Z0.24 E-0.25; coast(5) & retract
G1 X82.403 Y69.537 Z0.24 E-0.3; & endwipe
G1 X107.168 Y70.832 F7800.000
;G1 F600 ; replaced by represure
G1 X107.168 Y70.832 E0.05; represure(0.05,5.0)
G1 X107.168 Y70.832 E0.5 F600; tipRepresure
G1 X107.168 Y70.832 E0.5 F600; long travel extraShot
G1 X82.832 Y70.832 E1.04054
G1 X82.832 Y77.209 E0.27267
G1 X82.619 Y77.246 E0.00922
G1 X82.308 Y76.391 E0.03891
G1 X81.261 Y75.821 E0.05096
G1 X80.144 Y76.018 E0.04848
G1 X79.168 Y77.181 E0.06491
G1 X79.168 Y62.819 E0.61404
G1 X80.144 Y63.982 E0.06491
G1 X81.297 Y64.185 E0.05005
G1 X82.311 Y63.600 E0.05005
G1 X82.619 Y62.754 E0.03851
G1 X82.832 Y62.791 E0.00922
G1 X82.832 Y69.168 E0.27267
G1 X107.168 Y69.168 E1.04054
G1 X107.168 Y62.819 E0.27147
G1 X108.144 Y63.982 E0.06491
G1 X109.297 Y64.185 E0.05005
G1 X110.311 Y63.600 E0.05005
G1 X110.619 Y62.754 E0.03851
G1 X110.832 Y62.791 E0.00922
G1 X110.832 Y77.142 E0.61359
G1 X110.625 Y77.183 E0.00902
G1 X110.293 Y76.383 E0.03703
G1 X109.261 Y75.821 E0.05026
G1 X108.144 Y76.018 E0.04848
G1 X107.168 Y77.181 E0.06491
;G1 X107.168 Y70.892 E0.26890 ; replaced by coast
G1 X107.168 Y75.892 E0.2689 ; extrude all
G1 X107.168 Y70.892 Z0.24 E-0.25; coast(5) & retract
G1 X107.168 Y70.892 Z0.24 E-0.3; & endwipe
G1 X107.916 Y60.623 F7800.000
;G1 F300 ; replaced by represure
G1 X107.916 Y60.623 E0.05; represure(0.05,5.0)
G1 X107.916 Y60.623 E0.5 F600; tipRepresure
G1 X107.597 Y61.004 E0.02124
G1 X107.597 Y57.597 E0.14565
G1 X110.403 Y57.597 E0.11997
G1 X110.403 Y60.955 E0.14357
G1 X109.334 Y60.373 E0.05204
;G1 X107.975 Y60.613 E0.05899 ; replaced by coast
G1 X107.975 Y60.613 Z0.24 E-0.0690014673757; coast(1.38002934751) & retract
G1 X107.975 Y60.613 Z0.24 E-0.3; & endwipe
G1 X109.261 Y60.821 F7800.000
;G1 F300 ; replaced by represure
G1 X109.261 Y60.821 E0.369001467376 F600; tipRepresure
G1 X108.144 Y61.018 E0.04848
G1 X107.168 Y62.181 E0.06491
G1 X107.168 Y57.168 E0.21430
G1 X110.832 Y57.168 E0.15661
G1 X110.832 Y62.209 E0.21550
G1 X110.619 Y62.246 E0.00922
G1 X110.308 Y61.391 E0.03892
;G1 X109.314 Y60.850 E0.04840 ; replaced by coast
G1 X109.314 Y60.85 Z0.24 E-0.0565843838881; coast(1.13168767776) & retract
G1 X109.314 Y60.85 Z0.24 E-0.3; & endwipe
G1 X108.372 Y61.413 F7800.000
;G1 F300 ; replaced by represure
G1 X108.372 Y61.413 E0.356584383888 F600; tipRepresure
G1 X109.188 Y61.269 E0.03540
G1 X109.960 Y61.690 E0.03762
G1 X110.255 Y62.500 E0.03686
G1 X109.962 Y63.307 E0.03672
G1 X109.218 Y63.736 E0.03672
G1 X108.372 Y63.587 E0.03671
G1 X107.820 Y62.929 E0.03672
G1 X107.820 Y62.071 E0.03672
;G1 X108.334 Y61.459 E0.03415 ; replaced by coast
G1 X108.334 Y61.459 Z0.24 E-0.039960605601; coast(0.79921211202) & retract
G1 X108.334 Y61.459 Z0.24 E-0.3; & endwipe
G1 X108.372 Y61.013 F7800.000
G1 X107.968 Y60.712 F7800.000
G1 X82.500 Y61.118 F7800.000
G1 X82.403 Y60.955 F7800.000
;G1 F300 ; replaced by represure
G1 X82.403 Y60.955 E0.339960605601 F600; tipRepresure
G1 X82.403 Y60.955 E0.5 F600; long travel extraShot
G1 X81.334 Y60.373 E0.05203
G1 X79.916 Y60.623 E0.06156
G1 X79.597 Y61.004 E0.02124
G1 X79.597 Y57.597 E0.14565
G1 X82.403 Y57.597 E0.11997
;G1 X82.403 Y60.895 E0.14101 ; replaced by coast
G1 X82.403 Y60.895 Z0.24 E-0.1649; coast(3.298) & retract
G1 X82.403 Y60.895 Z0.24 E-0.3; & endwipe
G1 X82.308 Y61.391 F7800.000
;G1 F300 ; replaced by represure
G1 X82.308 Y61.391 E0.4649 F600; tipRepresure
G1 X81.261 Y60.821 E0.05096
G1 X80.144 Y61.018 E0.04848
G1 X79.168 Y62.181 E0.06491
G1 X79.168 Y57.168 E0.21430
G1 X82.832 Y57.168 E0.15661
G1 X82.832 Y62.209 E0.21550
G1 X82.619 Y62.246 E0.00922
;G1 X82.328 Y61.447 E0.03635 ; replaced by coast
G1 X82.328 Y61.447 Z0.24 E-0.0425171142012; coast(0.850342284024) & retract
G1 X82.328 Y61.447 Z0.24 E-0.3; & endwipe
G1 X81.961 Y61.690 F7800.000
;G1 F300 ; replaced by represure
G1 X81.961 Y61.69 E0.342517114201 F600; tipRepresure
G1 X82.255 Y62.500 E0.03686
G1 X81.962 Y63.307 E0.03672
G1 X81.218 Y63.736 E0.03672
G1 X80.372 Y63.587 E0.03672
G1 X79.820 Y62.929 E0.03672
G1 X79.820 Y62.071 E0.03672
G1 X80.372 Y61.413 E0.03672
G1 X81.188 Y61.269 E0.03540
;G1 X81.908 Y61.661 E0.03506 ; replaced by coast
G1 X81.908 Y61.661 Z0.24 E-0.0409897548175; coast(0.81979509635) & retract
G1 X81.908 Y61.661 Z0.24 E-0.3; & endwipe
G1 X82.354 Y61.620 F7800.000
G1 X80.372 Y76.413 F7800.000
;G1 F300 ; replaced by represure
G1 X80.372 Y76.413 E0.340989754818 F600; tipRepresure
G1 X81.188 Y76.269 E0.03540
G1 X81.961 Y76.690 E0.03762
G1 X82.255 Y77.500 E0.03686
G1 X81.962 Y78.307 E0.03672
G1 X81.218 Y78.736 E0.03672
G1 X80.372 Y78.587 E0.03672
G1 X79.820 Y77.929 E0.03672
G1 X79.820 Y77.071 E0.03672
;G1 X80.334 Y76.459 E0.03415 ; replaced by coast
G1 X80.334 Y76.459 Z0.24 E-0.039960605601; coast(0.79921211202) & retract
G1 X80.334 Y76.459 Z0.24 E-0.3; & endwipe
G1 X80.372 Y76.013 F7800.000
G1 X79.916 Y79.377 F7800.000
;G1 F300 ; replaced by represure
G1 X79.916 Y79.377 E0.339960605601 F600; tipRepresure
G1 X81.376 Y79.634 E0.06339
G1 X82.403 Y79.042 E0.05069
G1 X82.403 Y82.403 E0.14371
G1 X79.597 Y82.403 E0.11997
G1 X79.597 Y78.996 E0.14565
;G1 X79.878 Y79.331 E0.01867 ; replaced by coast
G1 X79.878 Y79.331 Z0.24 E-0.0218624106631; coast(0.437248213261) & retract
G1 X79.878 Y79.331 Z0.24 E-0.3; & endwipe
G1 X80.144 Y78.982 F7800.000
;G1 F300 ; replaced by represure
G1 X80.144 Y78.982 E0.321862410663 F600; tipRepresure
G1 X81.297 Y79.185 E0.05005
G1 X82.311 Y78.600 E0.05005
G1 X82.619 Y77.754 E0.03851
G1 X82.832 Y77.791 E0.00922
G1 X82.832 Y82.832 E0.21550
G1 X79.168 Y82.832 E0.15661
G1 X79.168 Y77.819 E0.21430
;G1 X80.106 Y78.936 E0.06234 ; replaced by coast
G1 X80.106 Y78.936 Z0.24 E-0.0729303263396; coast(1.45860652679) & retract
G1 X80.106 Y78.936 Z0.24 E-0.3; & endwipe
G1 X83.260 Y68.740 F7800.000
;G1 F600 ; replaced by represure
G1 X83.26 Y68.74 E0.37293032634 F600; tipRepresure
G1 X106.740 Y68.740 E1.00390
G1 X106.740 Y56.740 E0.51307
G1 X111.260 Y56.740 E0.19325
G1 X111.260 Y83.260 E1.13387
G1 X106.740 Y83.260 E0.19325
G1 X106.740 Y71.260 E0.51307
G1 X83.260 Y71.260 E1.00390
G1 X83.260 Y83.260 E0.51307
G1 X78.740 Y83.260 E0.19325
G1 X78.740 Y56.740 E1.13387
G1 X83.260 Y56.740 E0.19325
;G1 X83.260 Y68.680 E0.51050 ; replaced by coast
G1 X83.26 Y63.68 E0.5105 ; extrude all
G1 X83.26 Y68.68 Z0.24 E-0.25; coast(5) & retract
G1 X83.26 Y68.68 Z0.24 E-0.3; & endwipe
G1 X83.308 Y69.137 F7800.000
G1 X82.189 Y70.000 F7800.000
;G1 F900 ; replaced by represure
G1 X82.189 Y70.0 E0.05; represure(0.05,0.0)
G1 X82.189 Y70.0 E0.5 F600; tipRepresure
