; generated by Slic3r 1.33.3-prusa3d-win64 on 2017-05-19 at 23:09:40

; external perimeters extrusion width = 0.40mm
; perimeters extrusion width = 0.48mm
; infill extrusion width = 0.48mm
; solid infill extrusion width = 0.48mm
; top infill extrusion width = 0.48mm

M104 S185 ; set temperature
G28 ; home all axes
G1 Z5 F5000 ; lift nozzle

M109 S185 ; set temperature and wait for it to be reached
G21 ; set units to millimeters
G90 ; use absolute coordinates
M83 ; use relative distances for extrusion
G1 Z0.240 F7800.000
G1 X69.158 Y60.934 F7800.000
;G1 F1800 ; replaced by represure
G1 X69.158 Y60.934 E0.5 F600; long travel extraShot
G1 X69.675 Y60.405 E0.03163
G1 X70.242 Y59.930 E0.03163
G1 X70.855 Y59.516 E0.03163
G1 X71.507 Y59.165 E0.03163
G1 X72.191 Y58.883 E0.03163
G1 X72.900 Y58.672 E0.03163
G1 X73.627 Y58.533 E0.03163
G1 X74.371 Y58.469 E0.03192
G1 X82.813 Y58.468 E0.36097
G1 X112.456 Y59.237 E1.26783
G1 X113.108 Y59.285 E0.02793
G1 X113.755 Y59.393 E0.02806
G1 X114.796 Y59.622 E0.04554
G1 X115.539 Y59.859 E0.03334
G1 X116.794 Y60.409 E0.05861
G1 X117.179 Y60.609 E0.01853
G1 X117.550 Y60.831 E0.01853
G1 X118.638 Y61.608 E0.05715
G1 X119.237 Y62.119 E0.03363
G1 X119.564 Y62.451 E0.01995
G1 X120.222 Y63.183 E0.04208
G1 X120.491 Y63.514 E0.01824
G1 X120.745 Y63.866 E0.01853
G1 X121.441 Y65.038 E0.05832
G1 X121.772 Y65.715 E0.03220
G1 X121.955 Y66.188 E0.02166
G1 X122.248 Y67.085 E0.04034
G1 X122.442 Y67.840 E0.03334
G1 X122.526 Y68.353 E0.02223
G1 X122.624 Y69.271 E0.03949
G1 X122.660 Y70.024 E0.03220
G1 X122.638 Y70.577 E0.02366
G1 X122.543 Y71.496 E0.03951
G1 X122.425 Y72.240 E0.03220
G1 X122.273 Y72.834 E0.02622
G1 X121.917 Y73.921 E0.04890
G1 X121.688 Y74.475 E0.02565
G1 X121.414 Y75.009 E0.02565
G1 X120.893 Y75.906 E0.04433
G1 X120.511 Y76.460 E0.02879
G1 X120.129 Y76.923 E0.02565
G1 X119.546 Y77.569 E0.03724
G1 X119.231 Y77.887 E0.01910
G1 X118.696 Y78.347 E0.03021
G1 X117.809 Y78.995 E0.04693
G1 X117.327 Y79.306 E0.02451
G1 X116.817 Y79.580 E0.02480
G1 X115.792 Y80.040 E0.04803
G1 X115.223 Y80.253 E0.02594
G1 X114.633 Y80.419 E0.02622
G1 X113.572 Y80.644 E0.04636
G1 X113.012 Y80.725 E0.02423
G1 X112.453 Y80.763 E0.02394
G1 X82.762 Y81.534 E1.26987
G1 X74.505 Y81.534 E0.35303
G1 X73.807 Y81.489 E0.02992
G1 X73.122 Y81.379 E0.02964
G1 X72.611 Y81.252 E0.02252
G1 X72.104 Y81.085 E0.02280
G1 X71.611 Y80.883 E0.02280
G1 X71.134 Y80.644 E0.02280
G1 X70.681 Y80.376 E0.02252
G1 X70.243 Y80.071 E0.02280
G1 X69.829 Y79.734 E0.02280
G1 X69.441 Y79.369 E0.02280
G1 X69.085 Y78.981 E0.02252
G1 X68.753 Y78.563 E0.02280
G1 X68.454 Y78.122 E0.02280
G1 X68.187 Y77.660 E0.02280
G1 X67.955 Y77.180 E0.02280
G1 X67.758 Y76.684 E0.02280
G1 X67.598 Y76.175 E0.02280
G1 X67.476 Y75.656 E0.02280
G1 X67.377 Y74.990 E0.02879
G1 X67.340 Y74.311 E0.02907
G1 X67.340 Y65.717 E0.36746
G1 X67.385 Y64.938 E0.03334
G1 X67.466 Y64.398 E0.02337
G1 X67.588 Y63.865 E0.02337
G1 X67.749 Y63.342 E0.02337
G1 X67.951 Y62.827 E0.02366
G1 X68.189 Y62.335 E0.02337
G1 X68.464 Y61.862 E0.02337
G1 X68.772 Y61.411 E0.02337
;G1 X69.119 Y60.979 E0.02366 ; replaced by coast
G1 X69.119 Y60.979 Z0.24 E-0.0277052792803; coast(0.554105585606) & retract
G1 X69.119 Y60.979 Z0.24 E-0.3; & endwipe
G1 X69.439 Y61.263 F7800.000
;G1 F1800 ; replaced by represure
G1 X69.439 Y61.263 E0.32770527928 F600; tipRepresure
G1 X69.927 Y60.755 E0.03014
G1 X70.465 Y60.299 E0.03014
G1 X71.047 Y59.901 E0.03014
G1 X71.672 Y59.562 E0.03041
G1 X72.323 Y59.291 E0.03014
G1 X72.998 Y59.089 E0.03014
G1 X73.690 Y58.957 E0.03014
G1 X74.399 Y58.897 E0.03041
G1 X82.802 Y58.896 E0.35926
G1 X112.444 Y59.665 E1.26781
G1 X113.038 Y59.709 E0.02544
G1 X113.625 Y59.803 E0.02544
G1 X114.665 Y60.031 E0.04552
G1 X115.362 Y60.250 E0.03124
G1 X116.590 Y60.786 E0.05728
G1 X117.297 Y61.178 E0.03455
G1 X118.361 Y61.936 E0.05587
G1 X118.924 Y62.413 E0.03152
G1 X119.243 Y62.734 E0.01936
G1 X119.884 Y63.447 E0.04097
G1 X120.373 Y64.082 E0.03428
G1 X120.596 Y64.431 E0.01770
G1 X121.056 Y65.227 E0.03932
G1 X121.370 Y65.865 E0.03041
G1 X121.549 Y66.323 E0.02102
G1 X121.834 Y67.197 E0.03929
G1 X122.016 Y67.897 E0.03096
G1 X122.100 Y68.401 E0.02185
G1 X122.196 Y69.302 E0.03874
G1 X122.232 Y70.006 E0.03014
G1 X122.196 Y70.704 E0.02986
G1 X122.099 Y71.605 E0.03876
G1 X122.014 Y72.116 E0.02212
G1 X121.866 Y72.699 E0.02572
G1 X121.520 Y73.757 E0.04759
G1 X121.305 Y74.283 E0.02433
G1 X121.046 Y74.790 E0.02433
G1 X120.532 Y75.674 E0.04371
G1 X120.173 Y76.197 E0.02710
G1 X119.811 Y76.636 E0.02433
G1 X119.239 Y77.270 E0.03655
G1 X118.938 Y77.574 E0.01825
G1 X118.428 Y78.012 E0.02875
G1 X117.560 Y78.646 E0.04595
G1 X117.104 Y78.940 E0.02323
G1 X116.619 Y79.200 E0.02350
G1 X115.621 Y79.647 E0.04675
G1 X115.082 Y79.848 E0.02461
G1 X114.521 Y80.005 E0.02489
G1 X113.463 Y80.228 E0.04623
G1 X112.951 Y80.301 E0.02212
G1 X112.435 Y80.335 E0.02212
G1 X82.759 Y81.106 E1.26922
G1 X74.521 Y81.106 E0.35221
G1 X73.882 Y81.067 E0.02737
G1 X73.244 Y80.966 E0.02765
G1 X72.760 Y80.848 E0.02129
G1 X72.280 Y80.693 E0.02157
G1 X71.812 Y80.504 E0.02157
G1 X71.360 Y80.280 E0.02157
G1 X70.931 Y80.027 E0.02129
G1 X70.516 Y79.740 E0.02157
G1 X70.124 Y79.423 E0.02157
G1 X69.756 Y79.078 E0.02157
G1 X69.414 Y78.707 E0.02157
G1 X69.100 Y78.312 E0.02157
G1 X68.817 Y77.894 E0.02157
G1 X68.564 Y77.457 E0.02157
G1 X68.348 Y77.009 E0.02129
G1 X68.162 Y76.540 E0.02157
G1 X68.011 Y76.059 E0.02157
G1 X67.896 Y75.568 E0.02157
G1 X67.803 Y74.941 E0.02710
G1 X67.768 Y74.308 E0.02710
G1 X67.768 Y65.724 E0.36700
G1 X67.806 Y65.033 E0.02958
G1 X67.879 Y64.521 E0.02212
G1 X67.989 Y64.022 E0.02185
G1 X68.136 Y63.533 E0.02185
G1 X68.322 Y63.050 E0.02212
G1 X68.541 Y62.588 E0.02185
G1 X68.796 Y62.138 E0.02212
G1 X69.081 Y61.714 E0.02185
;G1 X69.400 Y61.309 E0.02205 ; replaced by coast
G1 X69.4 Y61.309 Z0.24 E-0.0257772186242; coast(0.515544372484) & retract
G1 X69.4 Y61.309 Z0.24 E-0.3; & endwipe
G1 X69.723 Y61.591 F7800.000
;G1 F1800 ; replaced by represure
G1 X69.723 Y61.591 E0.325777218624 F600; tipRepresure
G1 X70.182 Y61.104 E0.02864
G1 X70.690 Y60.667 E0.02864
G1 X71.240 Y60.285 E0.02864
G1 X71.833 Y59.959 E0.02891
G1 X72.451 Y59.700 E0.02864
G1 X73.092 Y59.507 E0.02864
G1 X73.750 Y59.381 E0.02864
G1 X74.424 Y59.325 E0.02891
G1 X82.791 Y59.325 E0.35771
G1 X112.426 Y60.093 E1.26752
G1 X112.970 Y60.132 E0.02329
G1 X113.502 Y60.216 E0.02303
G1 X114.537 Y60.440 E0.04529
G1 X115.189 Y60.643 E0.02918
G1 X116.388 Y61.164 E0.05591
G1 X117.046 Y61.526 E0.03212
G1 X118.091 Y62.269 E0.05481
G1 X118.613 Y62.709 E0.02918
G1 X118.922 Y63.019 E0.01874
G1 X119.546 Y63.712 E0.03985
G1 X120.003 Y64.300 E0.03185
G1 X120.223 Y64.642 E0.01741
G1 X120.674 Y65.422 E0.03851
G1 X120.969 Y66.017 E0.02838
G1 X121.143 Y66.460 E0.02035
G1 X121.420 Y67.310 E0.03822
G1 X121.592 Y67.964 E0.02891
G1 X121.674 Y68.451 E0.02115
G1 X121.769 Y69.334 E0.03795
G1 X121.803 Y69.984 E0.02784
G1 X121.771 Y70.647 E0.02838
G1 X121.677 Y71.530 E0.03798
G1 X121.601 Y71.994 E0.02008
G1 X121.459 Y72.565 E0.02517
G1 X121.123 Y73.594 E0.04626
G1 X120.921 Y74.093 E0.02303
G1 X120.677 Y74.573 E0.02303
G1 X120.174 Y75.438 E0.04277
G1 X119.835 Y75.934 E0.02570
G1 X119.492 Y76.349 E0.02303
G1 X118.927 Y76.976 E0.03610
G1 X118.640 Y77.266 E0.01741
G1 X118.161 Y77.678 E0.02704
G1 X117.312 Y78.297 E0.04494
G1 X116.874 Y78.578 E0.02222
G1 X116.415 Y78.822 E0.02222
G1 X115.451 Y79.254 E0.04518
G1 X114.934 Y79.445 E0.02356
G1 X114.415 Y79.590 E0.02303
G1 X113.362 Y79.811 E0.04601
G1 X112.897 Y79.876 E0.02008
G1 X112.422 Y79.907 E0.02035
G1 X82.756 Y80.677 E1.26881
G1 X74.544 Y80.678 E0.35112
G1 X73.956 Y80.644 E0.02517
G1 X73.368 Y80.554 E0.02543
G1 X72.905 Y80.444 E0.02035
G1 X72.457 Y80.302 E0.02008
G1 X72.015 Y80.125 E0.02035
G1 X71.588 Y79.916 E0.02035
G1 X71.182 Y79.679 E0.02008
G1 X70.790 Y79.409 E0.02035
G1 X70.419 Y79.111 E0.02035
G1 X70.071 Y78.787 E0.02035
G1 X69.752 Y78.442 E0.02008
G1 X69.455 Y78.070 E0.02035
G1 X69.186 Y77.677 E0.02035
G1 X68.948 Y77.265 E0.02035
G1 X68.740 Y76.837 E0.02035
G1 X68.565 Y76.395 E0.02035
G1 X68.423 Y75.940 E0.02035
G1 X68.315 Y75.477 E0.02035
G1 X68.229 Y74.895 E0.02517
G1 X68.197 Y74.301 E0.02543
G1 X68.197 Y65.731 E0.36639
G1 X68.228 Y65.118 E0.02624
G1 X68.292 Y64.647 E0.02035
G1 X68.392 Y64.175 E0.02062
G1 X68.526 Y63.718 E0.02035
G1 X68.695 Y63.267 E0.02062
G1 X68.895 Y62.835 E0.02035
G1 X69.130 Y62.414 E0.02062
G1 X69.392 Y62.016 E0.02035
;G1 X69.684 Y61.637 E0.02046 ; replaced by coast
G1 X69.684 Y61.637 Z0.24 E-0.0239220086949; coast(0.478440173898) & retract
G1 X69.684 Y61.637 Z0.24 E-0.3; & endwipe
G1 X109.719 Y69.536 F7800.000
;G1 F300 ; replaced by represure
G1 X109.719 Y69.536 E0.323922008695 F600; tipRepresure
G1 X109.719 Y69.536 E0.5 F600; long travel extraShot
G1 X110.237 Y68.549 E0.04765
G1 X111.099 Y67.954 E0.04479
G1 X112.104 Y67.832 E0.04329
G1 X113.114 Y68.194 E0.04588
G1 X113.813 Y68.983 E0.04506
G1 X114.059 Y69.980 E0.04390
G1 X113.881 Y70.940 E0.04174
G1 X113.118 Y71.801 E0.04920
G1 X112.139 Y72.173 E0.04479
G1 X111.099 Y72.046 E0.04478
G1 X110.237 Y71.451 E0.04479
G1 X109.756 Y70.535 E0.04422
;G1 X109.721 Y69.596 E0.04021 ; replaced by coast
G1 X109.721 Y69.596 Z0.24 E-0.0469826031633; coast(0.939652063266) & retract
G1 X109.721 Y69.596 Z0.24 E-0.3; & endwipe
G1 X110.151 Y69.634 F7800.000
;G1 F300 ; replaced by represure
G1 X110.151 Y69.634 E0.346982603163 F600; tipRepresure
G1 X110.567 Y68.841 E0.03826
G1 X111.255 Y68.366 E0.03576
G1 X112.055 Y68.269 E0.03443
G1 X112.866 Y68.560 E0.03685
G1 X113.422 Y69.188 E0.03585
G1 X113.620 Y69.993 E0.03543
G1 X113.482 Y70.745 E0.03270
G1 X112.868 Y71.438 E0.03959
G1 X112.086 Y71.734 E0.03575
G1 X111.255 Y71.634 E0.03575
G1 X110.567 Y71.159 E0.03576
G1 X110.181 Y70.422 E0.03555
;G1 X110.154 Y69.694 E0.03117 ; replaced by coast
G1 X110.154 Y69.694 Z0.24 E-0.0364250257378; coast(0.728500514756) & retract
G1 X110.154 Y69.694 Z0.24 E-0.3; & endwipe
G1 X109.861 Y69.359 F7800.000
G1 X109.286 Y69.438 F7800.000
;G1 F600 ; replaced by represure
G1 X109.286 Y69.438 E0.336425025738 F600; tipRepresure
G1 X109.332 Y70.648 E0.05180
G1 X109.906 Y71.744 E0.05289
G1 X110.636 Y72.248 E0.03792
G1 X110.583 Y72.427 E0.00798
G1 X83.512 Y73.130 E1.15782
G1 X83.466 Y72.923 E0.00905
G1 X83.714 Y72.815 E0.01156
G1 X84.528 Y72.065 E0.04732
G1 X84.782 Y71.597 E0.02276
G1 X90.222 Y71.597 E0.23261
G1 X90.222 Y68.403 E0.13656
G1 X84.782 Y68.403 E0.23261
G1 X84.528 Y67.935 E0.02276
G1 X83.714 Y67.185 E0.04732
G1 X83.469 Y67.078 E0.01143
G1 X83.515 Y66.871 E0.00905
G1 X110.583 Y67.574 E1.15769
G1 X110.636 Y67.752 E0.00798
G1 X109.906 Y68.256 E0.03791
;G1 X109.314 Y69.385 E0.05448 ; replaced by coast
G1 X109.314 Y69.385 Z0.24 E-0.0637398031061; coast(1.27479606212) & retract
G1 X109.314 Y69.385 Z0.24 E-0.3; & endwipe
G1 X80.355 Y67.032 F7800.000
;G1 F300 ; replaced by represure
G1 X80.355 Y67.032 E0.363739803106 F600; tipRepresure
G1 X80.355 Y67.032 E0.5 F600; long travel extraShot
G1 X79.598 Y67.526 E0.03866
G1 X78.916 Y68.403 E0.04750
G1 X75.722 Y68.403 E0.13654
G1 X75.722 Y66.847 E0.06652
G1 X80.300 Y66.848 E0.19574
;G1 X80.338 Y66.974 E0.00563 ; replaced by coast
G1 X80.338 Y66.974 Z0.24 E-0.00658027355055; coast(0.131605471011) & retract
G1 X80.338 Y66.974 Z0.24 E-0.3; & endwipe
G1 X78.916 Y71.597 F7800.000
;G1 F300 ; replaced by represure
G1 X78.916 Y71.597 E0.306580273551 F600; tipRepresure
G1 X79.598 Y72.474 E0.04750
G1 X80.357 Y72.969 E0.03875
G1 X80.302 Y73.153 E0.00820
G1 X75.722 Y73.153 E0.19581
G1 X75.722 Y71.597 E0.06653
;G1 X78.856 Y71.597 E0.13398 ; replaced by coast
G1 X78.856 Y71.597 Z0.24 E-0.1567; coast(3.134) & retract
G1 X78.856 Y71.597 Z0.24 E-0.3; & endwipe
G1 X89.793 Y71.168 F7800.000
;G1 F600 ; replaced by represure
G1 X89.793 Y71.168 E0.4567 F600; tipRepresure
G1 X89.793 Y68.832 E0.09992
G1 X84.526 Y68.832 E0.22521
G1 X84.185 Y68.202 E0.03062
G1 X83.476 Y67.549 E0.04121
G1 X82.594 Y67.162 E0.04121
G1 X81.633 Y67.082 E0.04121
G1 X80.699 Y67.319 E0.04121
G1 X79.892 Y67.846 E0.04121
G1 X79.300 Y68.607 E0.04121
G1 X79.223 Y68.832 E0.01017
G1 X75.293 Y68.832 E0.16800
G1 X75.293 Y66.419 E0.10316
G1 X82.636 Y66.420 E0.31395
G1 X112.162 Y67.186 E1.26280
G1 X112.749 Y67.311 E0.02565
G1 X113.289 Y67.551 E0.02527
G1 X113.767 Y67.899 E0.02528
G1 X114.163 Y68.338 E0.02527
G1 X114.458 Y68.850 E0.02527
G1 X114.641 Y69.412 E0.02528
G1 X114.703 Y70.000 E0.02528
G1 X114.641 Y70.588 E0.02528
G1 X114.458 Y71.150 E0.02528
G1 X114.163 Y71.662 E0.02527
G1 X113.767 Y72.101 E0.02527
G1 X113.289 Y72.449 E0.02528
G1 X112.749 Y72.689 E0.02527
G1 X112.162 Y72.814 E0.02565
G1 X82.624 Y73.582 E1.26333
G1 X75.293 Y73.582 E0.31343
G1 X75.293 Y71.168 E0.10317
G1 X79.223 Y71.168 E0.16800
G1 X79.300 Y71.393 E0.01017
G1 X79.892 Y72.154 E0.04121
G1 X80.699 Y72.681 E0.04121
G1 X81.633 Y72.918 E0.04121
G1 X82.594 Y72.838 E0.04121
G1 X83.476 Y72.451 E0.04121
G1 X84.185 Y71.798 E0.04121
G1 X84.526 Y71.168 E0.03062
;G1 X89.733 Y71.168 E0.22264 ; replaced by coast
G1 X84.733 Y71.168 E0.22264 ; extrude all
G1 X89.733 Y71.168 Z0.24 E-0.25; coast(5) & retract
G1 X89.733 Y71.168 Z0.24 E-0.3; & endwipe
G1 X89.365 Y70.740 F7800.000
;G1 F600 ; replaced by represure
G1 X89.365 Y70.74 E0.05; represure(0.05,0.0)
G1 X89.365 Y70.74 E0.5 F600; tipRepresure
G1 X89.365 Y69.260 E0.06328
G1 X84.271 Y69.260 E0.21780
G1 X83.843 Y68.469 E0.03848
G1 X83.239 Y67.913 E0.03509
G1 X82.487 Y67.583 E0.03509
G1 X81.669 Y67.515 E0.03509
G1 X80.873 Y67.717 E0.03509
G1 X80.186 Y68.166 E0.03509
G1 X79.682 Y68.813 E0.03509
G1 X79.529 Y69.260 E0.02019
G1 X74.865 Y69.260 E0.19940
G1 X74.865 Y65.990 E0.13981
G1 X82.642 Y65.992 E0.33251
G1 X112.213 Y66.759 E1.26472
G1 X112.882 Y66.901 E0.02927
G1 X113.504 Y67.178 E0.02913
G1 X114.056 Y67.578 E0.02913
G1 X114.511 Y68.085 E0.02913
G1 X114.852 Y68.675 E0.02913
G1 X115.062 Y69.322 E0.02913
G1 X115.134 Y70.000 E0.02913
G1 X115.062 Y70.678 E0.02913
G1 X114.852 Y71.325 E0.02913
G1 X114.511 Y71.915 E0.02913
G1 X114.056 Y72.422 E0.02913
G1 X113.504 Y72.822 E0.02913
G1 X112.882 Y73.099 E0.02913
G1 X112.213 Y73.241 E0.02927
G1 X82.630 Y74.010 E1.26525
G1 X74.865 Y74.010 E0.33198
G1 X74.865 Y70.740 E0.13981
G1 X79.529 Y70.740 E0.19940
G1 X79.682 Y71.187 E0.02019
G1 X80.186 Y71.834 E0.03509
G1 X80.873 Y72.283 E0.03509
G1 X81.669 Y72.485 E0.03509
G1 X82.487 Y72.417 E0.03509
G1 X83.239 Y72.087 E0.03509
G1 X83.843 Y71.531 E0.03509
G1 X84.271 Y70.740 E0.03848
;G1 X89.305 Y70.740 E0.21524 ; replaced by coast
G1 X84.305 Y70.74 E0.21524 ; extrude all
G1 X89.305 Y70.74 Z0.24 E-0.25; coast(5) & retract
G1 X89.305 Y70.74 Z0.24 E-0.3; & endwipe
G1 X89.765 Y70.721 F7800.000
G1 X90.272 Y68.274 F7800.000
;G1 F600 ; replaced by represure
G1 X90.272 Y68.274 E0.05; represure(0.05,0.0)
G1 X90.272 Y68.274 E0.5 F600; tipRepresure
G1 X89.341 Y67.344 E0.05704
G1 X88.711 Y67.328 E0.02735
G1 X89.465 Y68.082 E0.04622
G1 X88.850 Y68.082 E0.02663
G1 X88.080 Y67.311 E0.04723
G1 X87.449 Y67.295 E0.02735
G1 X88.236 Y68.082 E0.04823
G1 X87.621 Y68.082 E0.02663
G1 X86.818 Y67.279 E0.04923
G1 X86.188 Y67.262 E0.02735
G1 X87.007 Y68.082 E0.05023
G1 X86.393 Y68.082 E0.02663
G1 X85.557 Y67.246 E0.05124
G1 X84.926 Y67.230 E0.02735
G1 X85.778 Y68.082 E0.05224
G1 X85.164 Y68.082 E0.02663
;G1 X84.097 Y67.015 E0.06538 ; replaced by coast
G1 X84.097 Y67.015 Z0.24 E-0.0754482935526; coast(1.50896587105) & retract
G1 X84.097 Y67.015 Z0.24 E-0.3; & endwipe
G1 X84.527 Y72.975 F7800.000
;G1 F600 ; replaced by represure
G1 X84.527 Y72.975 E0.375448293553 F600; tipRepresure
G1 X84.282 Y72.729 E0.01507
G1 X84.601 Y72.434 E0.01885
G1 X84.938 Y72.771 E0.02065
G1 X85.537 Y72.756 E0.02597
G1 X84.877 Y72.096 E0.04046
G1 X84.973 Y71.918 E0.00874
G1 X85.314 Y71.918 E0.01478
G1 X86.136 Y72.740 E0.05038
G1 X86.735 Y72.725 E0.02597
G1 X85.928 Y71.918 E0.04943
G1 X86.543 Y71.918 E0.02663
G1 X87.334 Y72.709 E0.04848
G1 X87.932 Y72.694 E0.02597
G1 X87.157 Y71.918 E0.04752
G1 X87.772 Y71.918 E0.02663
G1 X88.531 Y72.678 E0.04657
G1 X89.130 Y72.662 E0.02597
G1 X88.386 Y71.918 E0.04561
G1 X89.000 Y71.918 E0.02663
G1 X89.729 Y72.647 E0.04466
G1 X90.328 Y72.631 E0.02597
G1 X89.615 Y71.918 E0.04371
