; generated by Slic3r 1.33.3-prusa3d-win64 on 2017-05-19 at 23:09:18

; external perimeters extrusion width = 0.40mm
; perimeters extrusion width = 0.48mm
; infill extrusion width = 0.48mm
; solid infill extrusion width = 0.48mm
; top infill extrusion width = 0.48mm

M104 S185 ; set temperature
G28 ; home all axes
G1 Z5 F5000 ; lift nozzle

M109 S185 ; set temperature and wait for it to be reached
G21 ; set units to millimeters
G90 ; use absolute coordinates
M83 ; use relative distances for extrusion
G1 Z0.240 F7800.000
G1 X73.381 Y61.571 F7800.000
;G1 F1800 ; replaced by represure
G1 X73.381 Y61.571 E0.5 F600; long travel extraShot
G1 X73.918 Y60.996 E0.03363
G1 X74.514 Y60.483 E0.03363
G1 X75.161 Y60.036 E0.03363
G1 X75.853 Y59.663 E0.03363
G1 X76.581 Y59.365 E0.03363
G1 X77.337 Y59.149 E0.03363
G1 X78.112 Y59.015 E0.03363
G1 X78.897 Y58.965 E0.03363
G1 X97.542 Y58.965 E0.79715
G1 X98.015 Y58.980 E0.02024
G1 X98.591 Y59.042 E0.02480
G1 X112.116 Y61.045 E0.58455
G1 X112.938 Y61.217 E0.03590
G1 X113.728 Y61.481 E0.03562
G1 X114.483 Y61.832 E0.03562
G1 X115.193 Y62.268 E0.03562
G1 X115.849 Y62.782 E0.03562
G1 X116.442 Y63.367 E0.03562
G1 X116.964 Y64.016 E0.03562
G1 X117.409 Y64.721 E0.03562
G1 X117.770 Y65.472 E0.03562
G1 X117.990 Y66.080 E0.02765
G1 X118.155 Y66.705 E0.02765
G1 X118.263 Y67.336 E0.02736
G1 X118.315 Y67.980 E0.02765
G1 X118.314 Y72.063 E0.17458
G1 X118.235 Y72.859 E0.03420
G1 X118.069 Y73.648 E0.03448
G1 X117.918 Y74.139 E0.02195
G1 X117.730 Y74.624 E0.02223
G1 X117.511 Y75.088 E0.02195
G1 X117.256 Y75.542 E0.02223
G1 X116.974 Y75.970 E0.02195
G1 X116.657 Y76.383 E0.02223
G1 X116.313 Y76.772 E0.02223
G1 X115.946 Y77.132 E0.02195
G1 X115.555 Y77.464 E0.02195
G1 X115.136 Y77.772 E0.02223
G1 X114.701 Y78.046 E0.02195
G1 X114.243 Y78.291 E0.02223
G1 X113.768 Y78.503 E0.02223
G1 X113.286 Y78.679 E0.02195
G1 X112.786 Y78.822 E0.02223
G1 X112.284 Y78.928 E0.02195
G1 X98.589 Y80.959 E0.59190
G1 X97.919 Y81.025 E0.02879
G1 X78.885 Y81.035 E0.81382
G1 X78.432 Y81.016 E0.01938
G1 X77.975 Y80.968 E0.01967
G1 X77.521 Y80.891 E0.01967
G1 X77.073 Y80.786 E0.01967
G1 X76.589 Y80.637 E0.02166
G1 X76.110 Y80.453 E0.02195
G1 X75.651 Y80.238 E0.02166
G1 X75.208 Y79.992 E0.02166
G1 X74.783 Y79.716 E0.02166
G1 X74.378 Y79.411 E0.02166
G1 X73.996 Y79.078 E0.02166
G1 X73.638 Y78.720 E0.02166
G1 X73.301 Y78.332 E0.02195
G1 X72.996 Y77.928 E0.02166
G1 X72.720 Y77.503 E0.02166
G1 X72.475 Y77.059 E0.02166
G1 X72.260 Y76.600 E0.02166
G1 X72.076 Y76.121 E0.02195
G1 X71.928 Y75.637 E0.02166
G1 X71.814 Y75.143 E0.02166
G1 X71.717 Y74.483 E0.02850
G1 X71.680 Y73.818 E0.02850
G1 X71.680 Y66.210 E0.32527
G1 X71.726 Y65.432 E0.03334
G1 X71.803 Y64.917 E0.02223
G1 X71.918 Y64.403 E0.02252
G1 X72.069 Y63.899 E0.02252
G1 X72.257 Y63.407 E0.02252
G1 X72.477 Y62.936 E0.02223
G1 X72.734 Y62.476 E0.02252
G1 X73.023 Y62.035 E0.02252
;G1 X73.343 Y61.617 E0.02252 ; replaced by coast
G1 X73.343 Y61.617 Z0.24 E-0.0263212841632; coast(0.526425683264) & retract
G1 X73.343 Y61.617 Z0.24 E-0.3; & endwipe
G1 X73.671 Y61.892 F7800.000
;G1 F1800 ; replaced by represure
G1 X73.671 Y61.892 E0.326321284163 F600; tipRepresure
G1 X74.174 Y61.344 E0.03179
G1 X74.739 Y60.850 E0.03207
G1 X75.354 Y60.421 E0.03207
G1 X76.012 Y60.062 E0.03207
G1 X76.705 Y59.776 E0.03207
G1 X77.426 Y59.568 E0.03207
G1 X78.165 Y59.440 E0.03207
G1 X78.914 Y59.393 E0.03207
G1 X97.541 Y59.393 E0.79643
G1 X97.987 Y59.408 E0.01908
G1 X98.528 Y59.465 E0.02323
G1 X112.046 Y61.468 E0.58430
G1 X112.781 Y61.619 E0.03207
G1 X113.531 Y61.863 E0.03373
G1 X114.248 Y62.192 E0.03373
G1 X114.922 Y62.601 E0.03373
G1 X115.550 Y63.090 E0.03400
G1 X116.113 Y63.642 E0.03373
G1 X116.612 Y64.261 E0.03400
G1 X117.034 Y64.928 E0.03373
G1 X117.375 Y65.639 E0.03373
G1 X117.582 Y66.211 E0.02599
G1 X117.735 Y66.792 E0.02572
G1 X117.838 Y67.392 E0.02599
G1 X117.887 Y67.997 E0.02599
G1 X117.886 Y72.028 E0.17233
G1 X117.816 Y72.768 E0.03179
G1 X117.666 Y73.497 E0.03179
G1 X117.526 Y73.961 E0.02074
G1 X117.351 Y74.420 E0.02102
G1 X117.143 Y74.866 E0.02102
G1 X116.904 Y75.296 E0.02102
G1 X116.635 Y75.707 E0.02102
G1 X116.337 Y76.098 E0.02102
G1 X116.012 Y76.467 E0.02102
G1 X115.661 Y76.811 E0.02102
G1 X115.292 Y77.126 E0.02074
G1 X114.896 Y77.417 E0.02102
G1 X114.480 Y77.679 E0.02102
G1 X114.046 Y77.910 E0.02102
G1 X113.603 Y78.108 E0.02074
G1 X113.141 Y78.275 E0.02102
G1 X112.668 Y78.410 E0.02102
G1 X112.187 Y78.510 E0.02102
G1 X98.527 Y80.535 E0.59042
G1 X97.903 Y80.597 E0.02682
G1 X78.894 Y80.607 E0.81273
G1 X78.474 Y80.589 E0.01798
G1 X78.049 Y80.546 E0.01825
G1 X77.634 Y80.477 E0.01798
G1 X77.225 Y80.382 E0.01798
G1 X76.766 Y80.245 E0.02046
G1 X76.313 Y80.073 E0.02074
G1 X75.878 Y79.873 E0.02046
G1 X75.453 Y79.639 E0.02074
G1 X75.051 Y79.380 E0.02046
G1 X74.667 Y79.093 E0.02046
G1 X74.305 Y78.780 E0.02046
G1 X73.961 Y78.438 E0.02074
G1 X73.646 Y78.078 E0.02046
G1 X73.357 Y77.696 E0.02046
G1 X73.096 Y77.295 E0.02046
G1 X72.860 Y76.871 E0.02074
G1 X72.657 Y76.438 E0.02046
G1 X72.483 Y75.985 E0.02074
G1 X72.342 Y75.527 E0.02046
G1 X72.235 Y75.061 E0.02046
G1 X72.143 Y74.441 E0.02682
G1 X72.108 Y73.814 E0.02682
G1 X72.108 Y66.218 E0.32480
G1 X72.146 Y65.527 E0.02958
G1 X72.216 Y65.040 E0.02102
G1 X72.320 Y64.560 E0.02102
G1 X72.458 Y64.088 E0.02102
G1 X72.629 Y63.627 E0.02102
G1 X72.834 Y63.180 E0.02102
G1 X73.069 Y62.749 E0.02102
G1 X73.335 Y62.335 E0.02102
;G1 X73.633 Y61.939 E0.02122 ; replaced by coast
G1 X73.633 Y61.939 Z0.24 E-0.0247800322841; coast(0.495600645682) & retract
G1 X73.633 Y61.939 Z0.24 E-0.3; & endwipe
G1 X73.959 Y62.217 F7800.000
;G1 F1800 ; replaced by represure
G1 X73.959 Y62.217 E0.324780032284 F600; tipRepresure
G1 X74.437 Y61.687 E0.03052
G1 X74.966 Y61.217 E0.03025
G1 X75.548 Y60.805 E0.03052
G1 X76.173 Y60.459 E0.03052
G1 X76.832 Y60.186 E0.03052
G1 X77.518 Y59.987 E0.03052
G1 X78.221 Y59.865 E0.03052
G1 X78.933 Y59.822 E0.03052
G1 X97.535 Y59.822 E0.79532
G1 X97.954 Y59.835 E0.01794
G1 X98.465 Y59.889 E0.02196
G1 X111.983 Y61.892 E0.58429
G1 X112.634 Y62.023 E0.02838
G1 X113.349 Y62.253 E0.03212
G1 X114.028 Y62.561 E0.03185
G1 X114.666 Y62.945 E0.03185
G1 X115.260 Y63.405 E0.03212
G1 X115.796 Y63.931 E0.03212
G1 X116.264 Y64.511 E0.03185
G1 X116.661 Y65.141 E0.03185
G1 X116.986 Y65.818 E0.03212
G1 X117.176 Y66.349 E0.02410
G1 X117.319 Y66.894 E0.02410
G1 X117.413 Y67.449 E0.02410
G1 X117.459 Y68.011 E0.02410
G1 X117.459 Y71.988 E0.17003
G1 X117.397 Y72.674 E0.02945
G1 X117.261 Y73.349 E0.02945
G1 X117.130 Y73.794 E0.01981
G1 X116.967 Y74.227 E0.01981
G1 X116.773 Y74.648 E0.01981
G1 X116.549 Y75.054 E0.01981
G1 X116.297 Y75.443 E0.01981
G1 X116.017 Y75.812 E0.01981
G1 X115.712 Y76.161 E0.01981
G1 X115.382 Y76.486 E0.01981
G1 X115.029 Y76.787 E0.01981
G1 X114.656 Y77.062 E0.01981
G1 X114.264 Y77.309 E0.01981
G1 X113.855 Y77.527 E0.01981
G1 X113.432 Y77.715 E0.01981
G1 X112.996 Y77.872 E0.01981
G1 X112.549 Y77.998 E0.01981
G1 X112.089 Y78.091 E0.02008
G1 X98.465 Y80.111 E0.58889
G1 X97.885 Y80.169 E0.02490
G1 X78.902 Y80.178 E0.81162
G1 X78.128 Y80.124 E0.03319
G1 X77.372 Y79.978 E0.03292
G1 X76.939 Y79.851 E0.01928
G1 X76.511 Y79.692 E0.01955
G1 X76.100 Y79.505 E0.01928
G1 X75.704 Y79.290 E0.01928
G1 X75.324 Y79.048 E0.01928
G1 X74.956 Y78.776 E0.01955
G1 X74.609 Y78.478 E0.01955
G1 X74.289 Y78.161 E0.01928
G1 X73.991 Y77.822 E0.01928
G1 X73.714 Y77.459 E0.01955
G1 X73.464 Y77.076 E0.01955
G1 X73.244 Y76.682 E0.01928
G1 X73.053 Y76.274 E0.01928
G1 X72.890 Y75.853 E0.01928
G1 X72.758 Y75.422 E0.01928
G1 X72.655 Y74.977 E0.01955
G1 X72.570 Y74.401 E0.02490
G1 X72.537 Y73.813 E0.02517
G1 X72.537 Y66.225 E0.32443
G1 X72.568 Y65.612 E0.02624
G1 X72.630 Y65.159 E0.01955
G1 X72.723 Y64.712 E0.01955
G1 X72.848 Y64.272 E0.01955
G1 X73.005 Y63.842 E0.01955
G1 X73.191 Y63.425 E0.01955
G1 X73.406 Y63.021 E0.01955
G1 X73.650 Y62.635 E0.01955
;G1 X73.922 Y62.264 E0.01966 ; replaced by coast
G1 X73.922 Y62.264 Z0.24 E-0.0230013586555; coast(0.46002717311) & retract
G1 X73.922 Y62.264 Z0.24 E-0.3; & endwipe
G1 X96.438 Y69.347 F7800.000
;G1 F600 ; replaced by represure
G1 X96.438 Y69.347 E0.323001358656 F600; tipRepresure
G1 X96.438 Y69.347 E0.5 F600; long travel extraShot
G1 X109.938 Y69.347 E0.57720
G1 X109.938 Y70.653 E0.05584
G1 X96.438 Y70.653 E0.57720
G1 X96.438 Y72.653 E0.08551
G1 X82.132 Y72.653 E0.61166
G1 X82.132 Y67.347 E0.22686
G1 X96.438 Y67.347 E0.61166
;G1 X96.438 Y69.287 E0.08295 ; replaced by coast
G1 X96.438 Y69.287 Z0.24 E-0.097; coast(1.94) & retract
G1 X96.438 Y69.287 Z0.24 E-0.3; & endwipe
G1 X96.866 Y68.918 F7800.000
;G1 F600 ; replaced by represure
G1 X96.866 Y68.918 E0.397 F600; tipRepresure
G1 X110.366 Y68.918 E0.57720
G1 X110.366 Y71.082 E0.09248
G1 X96.866 Y71.082 E0.57720
G1 X96.866 Y73.082 E0.08551
G1 X79.634 Y73.082 E0.73680
G1 X79.634 Y72.418 E0.02835
G1 X81.703 Y72.418 E0.08850
G1 X81.703 Y67.582 E0.20681
G1 X79.634 Y67.582 E0.08850
G1 X79.634 Y66.918 E0.02835
G1 X96.866 Y66.918 E0.73680
;G1 X96.866 Y68.858 E0.08295 ; replaced by coast
G1 X96.866 Y68.858 Z0.24 E-0.097; coast(1.94) & retract
G1 X96.866 Y68.858 Z0.24 E-0.3; & endwipe
G1 X97.295 Y68.490 F7800.000
;G1 F600 ; replaced by represure
G1 X97.295 Y68.49 E0.397 F600; tipRepresure
G1 X110.795 Y68.490 E0.57720
G1 X110.795 Y71.510 E0.12912
G1 X97.295 Y71.510 E0.57720
G1 X97.295 Y73.510 E0.08551
G1 X79.205 Y73.510 E0.77344
G1 X79.205 Y71.990 E0.06499
G1 X81.275 Y71.990 E0.08850
G1 X81.275 Y68.010 E0.17017
G1 X79.205 Y68.010 E0.08850
G1 X79.205 Y66.490 E0.06499
G1 X97.295 Y66.490 E0.77344
;G1 X97.295 Y68.430 E0.08295 ; replaced by coast
G1 X97.295 Y68.43 Z0.24 E-0.097; coast(1.94) & retract
G1 X97.295 Y68.43 Z0.24 E-0.3; & endwipe
G1 X97.482 Y68.844 F7800.000
G1 X96.309 Y67.899 F7800.000
;G1 F600 ; replaced by represure
G1 X96.309 Y67.899 E0.397 F600; tipRepresure
G1 X96.078 Y67.668 E0.01415
G1 X95.465 Y67.668 E0.02657
G1 X96.117 Y68.320 E0.03992
G1 X96.117 Y68.934 E0.02657
G1 X94.851 Y67.668 E0.07749
G1 X94.237 Y67.668 E0.02657
G1 X96.901 Y70.332 E0.16308
G1 X96.287 Y70.332 E0.02657
G1 X93.624 Y67.668 E0.16308
G1 X93.010 Y67.668 E0.02657
G1 X96.117 Y70.775 E0.19022
G1 X96.117 Y71.389 E0.02657
G1 X92.396 Y67.668 E0.22780
G1 X91.783 Y67.668 E0.02657
G1 X96.117 Y72.002 E0.26538
G1 X96.117 Y72.332 E0.01426
G1 X95.832 Y72.332 E0.01231
G1 X91.169 Y67.668 E0.28555
G1 X90.555 Y67.668 E0.02657
G1 X95.219 Y72.332 E0.28555
G1 X94.605 Y72.332 E0.02657
G1 X89.942 Y67.668 E0.28555
G1 X89.328 Y67.668 E0.02657
G1 X93.991 Y72.332 E0.28555
G1 X93.378 Y72.332 E0.02657
G1 X88.714 Y67.668 E0.28555
G1 X88.101 Y67.668 E0.02657
G1 X92.764 Y72.332 E0.28555
G1 X92.150 Y72.332 E0.02657
G1 X87.487 Y67.668 E0.28555
G1 X86.873 Y67.668 E0.02657
G1 X91.537 Y72.332 E0.28555
G1 X90.923 Y72.332 E0.02657
G1 X86.260 Y67.668 E0.28555
G1 X85.646 Y67.668 E0.02657
G1 X90.309 Y72.332 E0.28555
G1 X89.696 Y72.332 E0.02657
G1 X85.032 Y67.668 E0.28555
G1 X84.419 Y67.668 E0.02657
G1 X89.082 Y72.332 E0.28555
G1 X88.468 Y72.332 E0.02657
G1 X83.805 Y67.668 E0.28555
G1 X83.191 Y67.668 E0.02657
G1 X87.855 Y72.332 E0.28555
G1 X87.241 Y72.332 E0.02657
G1 X82.578 Y67.668 E0.28555
G1 X82.453 Y67.668 E0.00538
G1 X82.453 Y68.158 E0.02119
G1 X86.627 Y72.332 E0.25558
G1 X86.014 Y72.332 E0.02657
G1 X82.453 Y68.771 E0.21801
G1 X82.453 Y69.385 E0.02657
G1 X85.400 Y72.332 E0.18043
G1 X84.786 Y72.332 E0.02657
G1 X82.453 Y69.999 E0.14285
G1 X82.453 Y70.612 E0.02657
G1 X84.173 Y72.332 E0.10528
G1 X83.559 Y72.332 E0.02657
G1 X82.453 Y71.226 E0.06770
G1 X82.453 Y71.840 E0.02657
;G1 X83.138 Y72.524 E0.04193 ; replaced by coast
G1 X83.138 Y72.524 Z0.24 E-0.0484014720851; coast(0.968029441701) & retract
G1 X83.138 Y72.524 Z0.24 E-0.3; & endwipe
G1 X96.658 Y69.476 F7800.000
;G1 F600 ; replaced by represure
G1 X96.658 Y69.476 E0.348401472085 F600; tipRepresure
G1 X97.514 Y70.332 E0.05242
G1 X98.128 Y70.332 E0.02657
G1 X97.465 Y69.668 E0.04062
G1 X98.078 Y69.668 E0.02657
G1 X98.742 Y70.332 E0.04062
G1 X99.355 Y70.332 E0.02657
G1 X98.692 Y69.668 E0.04062
G1 X99.306 Y69.668 E0.02657
G1 X99.969 Y70.332 E0.04062
G1 X100.583 Y70.332 E0.02657
G1 X99.919 Y69.668 E0.04062
G1 X100.533 Y69.668 E0.02657
G1 X101.196 Y70.332 E0.04062
G1 X101.810 Y70.332 E0.02657
G1 X101.147 Y69.668 E0.04062
G1 X101.760 Y69.668 E0.02657
G1 X102.424 Y70.332 E0.04062
G1 X103.037 Y70.332 E0.02657
G1 X102.374 Y69.668 E0.04062
G1 X102.988 Y69.668 E0.02657
G1 X103.651 Y70.332 E0.04062
G1 X104.265 Y70.332 E0.02657
G1 X103.601 Y69.668 E0.04062
G1 X104.215 Y69.668 E0.02657
G1 X104.878 Y70.332 E0.04062
G1 X105.492 Y70.332 E0.02657
G1 X104.829 Y69.668 E0.04062
G1 X105.442 Y69.668 E0.02657
G1 X106.106 Y70.332 E0.04062
G1 X106.719 Y70.332 E0.02657
G1 X106.056 Y69.668 E0.04062
G1 X106.670 Y69.668 E0.02657
G1 X107.333 Y70.332 E0.04062
G1 X107.947 Y70.332 E0.02657
G1 X107.283 Y69.668 E0.04062
G1 X107.897 Y69.668 E0.02657
G1 X108.560 Y70.332 E0.04062
G1 X109.174 Y70.332 E0.02657
G1 X108.511 Y69.668 E0.04062
G1 X109.125 Y69.668 E0.02657
;G1 X109.809 Y70.353 E0.04194 ; replaced by coast
G1 X109.809 Y70.353 Z0.24 E-0.0484014720851; coast(0.968029441701) & retract
G1 X109.809 Y70.353 Z0.24 E-0.3; & endwipe
G1 X81.918 Y72.750 F7800.000
;G1 F900 ; replaced by represure
G1 X81.918 Y72.75 E0.348401472085 F600; tipRepresure
G1 X81.918 Y72.75 E0.5 F600; long travel extraShot
;G1 X79.848 Y72.750 E0.03780 ; replaced by coast
G1 X79.848 Y72.75 Z0.24 E-0.1035; coast(2.07) & retract
G1 X79.848 Y72.75 Z0.24 E-0.3; & endwipe
G1 X79.848 Y67.250 F7800.000
;G1 F900 ; replaced by represure
G1 X79.848 Y67.25 E0.4035 F600; tipRepresure
G1 X81.918 Y67.250 E0.03780
M104 S176 ; set temperature
M140 S60 ; set bed temperature
G1 Z0.540 F7800.000
G1 X97.331 Y69.246 F7800.000
;G1 F1200 ; replaced by represure
G1 X110.831 Y69.246 E0.70531
G1 X110.831 Y70.754 E0.07877
G1 X97.331 Y70.754 E0.70531
G1 X97.331 Y72.754 E0.10449
G1 X82.823 Y72.754 E0.75796
G1 X82.823 Y67.246 E0.28775
G1 X97.331 Y67.246 E0.75796
;G1 X97.331 Y69.186 E0.10136 ; replaced by coast
G1 X97.331 Y69.186 Z0.54 E-0.097; coast(1.94) & retract
G1 X97.331 Y69.186 Z0.54 E-0.3; & endwipe
G1 X82.404 Y72.327 F7800.000
;G1 F1200 ; replaced by represure
G1 X82.404 Y72.327 E0.397 F600; tipRepresure
G1 X82.404 Y67.673 E0.24317
;G1 X78.765 Y67.673 E0.19014 ; replaced by coast
G1 X78.765 Y67.673 Z0.54 E-0.18195; coast(3.639) & retract
G1 X78.765 Y67.673 Z0.54 E-0.3; & endwipe
;G1 F3600 ; replaced by represure
G1 X78.765 Y67.673 E0.48195 F600; tipRepresure
G1 X78.750 Y67.673 E0.00079
G1 X78.750 Y66.827 E0.04417
;G1 X78.765 Y66.827 E0.00079 ; replaced by coast
G1 X78.765 Y66.827 Z0.54 E-0.00075; coast(0.015) & retract
G1 X78.765 Y66.827 Z0.54 E-0.3; & endwipe
;G1 F1200 ; replaced by represure
G1 X78.765 Y66.827 E0.30075 F600; tipRepresure
;G1 X97.735 Y66.827 E0.99108 ; replaced by coast
G1 X92.735 Y66.827 E0.99108 ; extrude all
G1 X97.735 Y66.827 Z0.54 E-0.25; coast(5) & retract
G1 X97.735 Y66.827 Z0.54 E-0.3; & endwipe
;G1 F3600 ; replaced by represure
G1 X97.735 Y66.827 E0.05; represure(0.05,0.0)
G1 X97.735 Y66.827 E0.5 F600; tipRepresure
G1 X97.750 Y66.827 E0.00079
;G1 X97.750 Y68.050 E0.06388 ; replaced by coast
G1 X97.75 Y68.05 Z0.54 E-0.06115; coast(1.223) & retract
G1 X97.75 Y68.05 Z0.54 E-0.3; & endwipe
;G1 F1200 ; replaced by represure
G1 X97.75 Y68.05 E0.36115 F600; tipRepresure
G1 X97.750 Y68.827 E0.04061
;G1 X111.235 Y68.827 E0.70452 ; replaced by coast
G1 X106.235 Y68.827 E0.70452 ; extrude all
G1 X111.235 Y68.827 Z0.54 E-0.25; coast(5) & retract
G1 X111.235 Y68.827 Z0.54 E-0.3; & endwipe
;G1 F3600 ; replaced by represure
G1 X111.235 Y68.827 E0.05; represure(0.05,0.0)
G1 X111.235 Y68.827 E0.5 F600; tipRepresure
G1 X111.250 Y68.827 E0.00079
G1 X111.250 Y71.173 E0.12254
;G1 X111.235 Y71.173 E0.00079 ; replaced by coast
G1 X111.235 Y71.173 Z0.54 E-0.00075; coast(0.015) & retract
G1 X111.235 Y71.173 Z0.54 E-0.3; & endwipe
;G1 F1200 ; replaced by represure
G1 X111.235 Y71.173 E0.30075 F600; tipRepresure
G1 X97.750 Y71.173 E0.70452
;G1 X97.750 Y71.950 E0.04061 ; replaced by coast
G1 X97.75 Y71.95 Z0.54 E-0.03885; coast(0.777) & retract
G1 X97.75 Y71.95 Z0.54 E-0.3; & endwipe
